; Generated with Anisoprint Aura v2.6.1.3 on 06/23/2025 at 15:28
; Printer Processor Type: MARLIN
; LAYER_COUNT: 13
; PRINTING_MODE: Plastic and Composite
M530 L13
M104 S250 T1
M140 S60 
G21 
G90 
M82 
G28
M530 S1
G1 Z10 F900
M190 S60 
; Start change extruder 
M400
M104 S150 T0
M109 S250 T1
T1 R ; switch extruder type to:FIBER
; End change extruder 
G92 E0 ; reset extrusion
G92 V0 ; reset extrusion
G92 U0 ; reset extrusion
; MACROLAYER:1
; LAYER:1
; TIME LEFT: 1042.427 S
M532 L1
M400
M106 P1 S127
G0 Z0.675 F1500
G0 X73 F7200
M1001 L150
G1 F600 U47
G0 X73.500 Z0.175 F7200
G1 F1200 V14
G4 P0
G1 X74.300 V14.01008 U47.80000 F480
G1 X79.300 V14.07308 U52.80000 F480
G1 X179.100 V15.33056 U152.60000 F600
; Start to cut
M400
M280 P0 S30
G4 P200
M280 P0 S90
M400
G1 X186.100 V15.42758 F120
G1 X224.300 V15.95703 F480
G1 F1800 V6.95703 ; Retract
G0 X233.500 F240
M1002 
; Start change extruder 
M400
G1 F1800 V3.95703 ; Retract
G0 Z5.175 F1500
M1013 
M104 S180 T1
M400
M106 P1 S0
M109 S220 T0
T0 ; switch extruder type to:PLASTIC
M1013 R 
; End change extruder 
M400
M106 P1 S63
G0 X114.549 Y88.397 F7200
G0 Z0.150 F1500
G1 X115.287 Y87.495 E0.03923 F1200
G1 X116.009 Y86.778 E0.07348 F1200
G1 X116.900 Y86.043 E0.11238 F1200
G1 X117.734 Y85.485 E0.14615 F1200
G1 X118.654 Y84.987 E0.18138 F1200
G1 X119.740 Y84.532 E0.22101 F1200
G1 X120.883 Y84.189 E0.26119 F1200
G1 X121.996 Y83.979 E0.29931 F1200
G1 X123.035 Y83.879 E0.33444 F1200
G1 X123.365 Y83.870 E0.34555 F1200
G1 X135.926 E0.76855 F1200
G1 X136.312 Y83.510 E0.78630 F1200
G1 X137.228 Y82.811 E0.82509 F1200
G1 X138.059 Y82.296 E0.85799 F1200
G1 X139.009 Y81.824 E0.89369 F1200
G1 X140.115 Y81.404 E0.93353 F1200
G1 X141.254 Y81.105 E0.97317 F1200
G1 X142.355 Y80.932 E1.01068 F1200
G1 X143.170 Y80.879 E1.03816 F1200
G1 X153.724 Y80.874 E1.39358 F1200
G1 X155.169 Y81 E1.44241 F1200
G1 X156.192 Y81.206 E1.47753 F1200
G1 X157.312 Y81.550 E1.51696 F1200
G1 X158.381 Y82.002 E1.55603 F1200
G1 X159.254 Y82.479 E1.58950 F1200
G1 X160.103 Y83.047 E1.62388 F1200
G1 X160.999 Y83.779 E1.66281 F1200
G1 X161.093 Y83.872 E1.66726 F1200
G1 X174.368 Y83.909 E2.11431 F1200
G1 X175.354 Y84.031 E2.14775 F1200
G1 X176.341 Y84.243 E2.18173 F1200
G1 X177.312 Y84.550 E2.21601 F1200
G1 X178.381 Y85.002 E2.25507 F1200
G1 X179.256 Y85.480 E2.28865 F1200
G1 X180.103 Y86.049 E2.32300 F1200
G1 X181.005 Y86.787 E2.36223 F1200
G1 X181.722 Y87.509 E2.39648 F1200
G1 X182.457 Y88.400 E2.43537 F1200
G1 X183.015 Y89.234 E2.46915 F1200
G1 X183.513 Y90.154 E2.50437 F1200
G1 X183.968 Y91.240 E2.54401 F1200
G1 X184.312 Y92.385 E2.58425 F1200
G1 X184.525 Y93.519 E2.62308 F1200
G1 X184.621 Y94.555 E2.65811 F1200
G1 X184.630 Y95.005 E2.67326 F1200
G1 X184.591 Y115.868 E3.37584 F1200
G1 X184.469 Y116.854 E3.40928 F1200
G1 X184.257 Y117.841 E3.44326 F1200
G1 X183.950 Y118.812 E3.47754 F1200
G1 X183.498 Y119.881 E3.51660 F1200
G1 X183.020 Y120.756 E3.55018 F1200
G1 X182.451 Y121.603 E3.58453 F1200
G1 X181.713 Y122.505 E3.62376 F1200
G1 X180.991 Y123.222 E3.65801 F1200
G1 X180.100 Y123.957 E3.69691 F1200
G1 X179.266 Y124.515 E3.73068 F1200
G1 X178.346 Y125.013 E3.76591 F1200
G1 X177.260 Y125.468 E3.80554 F1200
G1 X176.117 Y125.811 E3.84572 F1200
G1 X175.004 Y126.021 E3.88384 F1200
G1 X173.965 Y126.121 E3.91896 F1200
G1 X173.635 Y126.130 E3.93008 F1200
G1 X161.074 E4.35308 F1200
G1 X160.688 Y126.490 E4.37083 F1200
G1 X159.772 Y127.189 E4.40962 F1200
G1 X158.941 Y127.704 E4.44252 F1200
G1 X157.991 Y128.176 E4.47822 F1200
G1 X156.881 Y128.597 E4.51819 F1200
G1 X155.737 Y128.896 E4.55800 F1200
G1 X154.582 Y129.073 E4.59733 F1200
G1 X153.597 Y129.129 E4.63054 F1200
G1 X142.632 Y129.091 E4.99979 F1200
G1 X141.646 Y128.969 E5.03323 F1200
G1 X140.659 Y128.757 E5.06721 F1200
G1 X139.688 Y128.450 E5.10149 F1200
G1 X138.619 Y127.998 E5.14056 F1200
G1 X137.746 Y127.521 E5.17403 F1200
G1 X136.897 Y126.953 E5.20841 F1200
G1 X136.001 Y126.221 E5.24734 F1200
G1 X135.907 Y126.128 E5.25179 F1200
G1 X122.632 Y126.091 E5.69884 F1200
G1 X121.646 Y125.969 E5.73228 F1200
G1 X120.659 Y125.757 E5.76625 F1200
G1 X119.688 Y125.450 E5.80054 F1200
G1 X118.619 Y124.998 E5.83960 F1200
G1 X117.744 Y124.520 E5.87318 F1200
G1 X116.897 Y123.951 E5.90753 F1200
G1 X115.995 Y123.213 E5.94676 F1200
G1 X115.278 Y122.491 E5.98101 F1200
G1 X114.543 Y121.600 E6.01990 F1200
G1 X113.985 Y120.766 E6.05368 F1200
G1 X113.487 Y119.846 E6.08890 F1200
G1 X113.032 Y118.760 E6.12854 F1200
G1 X112.688 Y117.615 E6.16878 F1200
G1 X112.475 Y116.481 E6.20761 F1200
G1 X112.379 Y115.445 E6.24263 F1200
G1 X112.370 Y114.995 E6.25779 F1200
G1 X112.409 Y94.132 E6.96037 F1200
G1 X112.531 Y93.146 E6.99381 F1200
G1 X112.743 Y92.159 E7.02779 F1200
G1 X113.050 Y91.188 E7.06207 F1200
G1 X113.502 Y90.119 E7.10113 F1200
G1 X113.980 Y89.244 E7.13471 F1200
G1 X114.549 Y88.397 E7.16906 F1200
G0 X114.968 Y88.738 F7200
G1 X115.669 Y87.877 E7.20644 F1200
G1 X116.353 Y87.194 E7.23897 F1200
G1 X117.202 Y86.491 E7.27608 F1200
G1 X117.992 Y85.959 E7.30814 F1200
G1 X118.864 Y85.485 E7.34155 F1200
G1 X119.897 Y85.049 E7.37930 F1200
G1 X120.984 Y84.719 E7.41752 F1200
G1 X122.048 Y84.516 E7.45399 F1200
G1 X123.050 Y84.419 E7.48787 F1200
G1 X123.380 Y84.410 E7.49898 F1200
G1 X136.141 E7.92872 F1200
G1 X136.640 Y83.939 E7.95182 F1200
G1 X137.513 Y83.270 E7.98883 F1200
G1 X138.316 Y82.771 E8.02065 F1200
G1 X139.202 Y82.328 E8.05399 F1200
G1 X140.254 Y81.926 E8.09191 F1200
G1 X141.339 Y81.638 E8.12970 F1200
G1 X142.391 Y81.471 E8.16556 F1200
G1 X143.170 Y81.419 E8.19183 F1200
G1 X153.724 Y81.414 E8.54724 F1200
G1 X155.064 Y81.530 E8.59254 F1200
G1 X156.035 Y81.723 E8.62584 F1200
G1 X157.103 Y82.048 E8.66342 F1200
G1 X158.123 Y82.476 E8.70067 F1200
G1 X158.955 Y82.929 E8.73256 F1200
G1 X159.762 Y83.466 E8.76519 F1200
G1 X160.620 Y84.164 E8.80244 F1200
G1 X160.871 Y84.411 E8.81429 F1200
G1 X174.303 Y84.445 E9.26663 F1200
G1 X175.242 Y84.559 E9.29845 F1200
G1 X176.179 Y84.758 E9.33068 F1200
G1 X177.103 Y85.048 E9.36328 F1200
G1 X178.123 Y85.476 E9.40052 F1200
G1 X178.956 Y85.929 E9.43245 F1200
G1 X179.762 Y86.468 E9.46508 F1200
G1 X180.623 Y87.169 E9.50246 F1200
G1 X181.306 Y87.853 E9.53499 F1200
G1 X182.009 Y88.702 E9.57210 F1200
G1 X182.541 Y89.492 E9.60416 F1200
G1 X183.015 Y90.364 E9.63757 F1200
G1 X183.451 Y91.397 E9.67532 F1200
G1 X183.781 Y92.486 E9.71361 F1200
G1 X183.987 Y93.570 E9.75075 F1200
G1 X184.081 Y94.566 E9.78443 F1200
G1 X184.090 Y95.004 E9.79918 F1200
G1 X184.055 Y115.803 E10.49960 F1200
G1 X183.941 Y116.742 E10.53143 F1200
G1 X183.742 Y117.679 E10.56365 F1200
G1 X183.452 Y118.603 E10.59625 F1200
G1 X183.024 Y119.623 E10.63350 F1200
G1 X182.571 Y120.456 E10.66542 F1200
G1 X182.032 Y121.262 E10.69805 F1200
G1 X181.331 Y122.123 E10.73543 F1200
G1 X180.647 Y122.806 E10.76797 F1200
G1 X179.798 Y123.509 E10.80508 F1200
G1 X179.008 Y124.041 E10.83714 F1200
G1 X178.136 Y124.515 E10.87054 F1200
G1 X177.103 Y124.951 E10.90829 F1200
G1 X176.016 Y125.281 E10.94652 F1200
G1 X174.952 Y125.484 E10.98299 F1200
G1 X173.950 Y125.581 E11.01686 F1200
G1 X173.620 Y125.590 E11.02798 F1200
G1 X160.859 E11.45772 F1200
G1 X160.360 Y126.061 E11.48082 F1200
G1 X159.487 Y126.730 E11.51783 F1200
G1 X158.684 Y127.229 E11.54965 F1200
G1 X157.798 Y127.672 E11.58299 F1200
G1 X156.744 Y128.075 E11.62098 F1200
G1 X155.654 Y128.362 E11.65893 F1200
G1 X154.551 Y128.534 E11.69651 F1200
G1 X153.599 Y128.589 E11.72860 F1200
G1 X142.697 Y128.555 E12.09574 F1200
G1 X141.758 Y128.441 E12.12756 F1200
G1 X140.821 Y128.242 E12.15979 F1200
G1 X139.897 Y127.952 E12.19239 F1200
G1 X138.877 Y127.524 E12.22963 F1200
G1 X138.045 Y127.071 E12.26153 F1200
G1 X137.238 Y126.534 E12.29416 F1200
G1 X136.380 Y125.836 E12.33140 F1200
G1 X136.129 Y125.589 E12.34326 F1200
G1 X122.697 Y125.555 E12.79559 F1200
G1 X121.758 Y125.441 E12.82741 F1200
G1 X120.821 Y125.242 E12.85964 F1200
G1 X119.897 Y124.952 E12.89224 F1200
G1 X118.877 Y124.524 E12.92949 F1200
G1 X118.044 Y124.071 E12.96141 F1200
G1 X117.238 Y123.532 E12.99404 F1200
G1 X116.377 Y122.831 E13.03142 F1200
G1 X115.694 Y122.147 E13.06395 F1200
G1 X114.991 Y121.298 E13.10106 F1200
G1 X114.459 Y120.508 E13.13312 F1200
G1 X113.985 Y119.636 E13.16653 F1200
G1 X113.549 Y118.603 E13.20428 F1200
G1 X113.219 Y117.514 E13.24257 F1200
G1 X113.013 Y116.430 E13.27972 F1200
G1 X112.919 Y115.434 E13.31339 F1200
G1 X112.910 Y114.996 E13.32814 F1200
G1 X112.945 Y94.197 E14.02857 F1200
G1 X113.059 Y93.258 E14.06039 F1200
G1 X113.258 Y92.321 E14.09262 F1200
G1 X113.548 Y91.397 E14.12522 F1200
G1 X113.976 Y90.377 E14.16246 F1200
G1 X114.429 Y89.544 E14.19439 F1200
G1 X114.968 Y88.738 E14.22702 F1200
G0 X115.387 Y89.078 F7200
G1 X116.052 Y88.258 E14.26255 F1200
G1 X116.698 Y87.609 E14.29336 F1200
G1 X117.504 Y86.938 E14.32865 F1200
G1 X118.251 Y86.433 E14.35899 F1200
G1 X119.075 Y85.982 E14.39062 F1200
G1 X120.055 Y85.565 E14.42648 F1200
G1 X121.086 Y85.249 E14.46278 F1200
G1 X122.100 Y85.053 E14.49754 F1200
G1 X123.065 Y84.959 E14.53017 F1200
G1 X123.395 Y84.950 E14.54128 F1200
G1 X136.357 E14.97779 F1200
G1 X136.969 Y84.367 E15.00624 F1200
G1 X137.799 Y83.728 E15.04150 F1200
G1 X138.559 Y83.253 E15.07168 F1200
G1 X139.396 Y82.832 E15.10320 F1200
G1 X140.394 Y82.448 E15.13920 F1200
G1 X141.425 Y82.171 E15.17513 F1200
G1 X142.428 Y82.010 E15.20931 F1200
G1 X143.170 Y81.959 E15.23433 F1200
G1 X153.724 Y81.954 E15.58975 F1200
G1 X154.960 Y82.060 E15.63150 F1200
G1 X155.879 Y82.240 E15.66303 F1200
G1 X156.895 Y82.546 E15.69876 F1200
G1 X157.866 Y82.951 E15.73418 F1200
G1 X158.657 Y83.379 E15.76446 F1200
G1 X159.422 Y83.886 E15.79534 F1200
G1 X160.241 Y84.549 E15.83080 F1200
G1 X160.649 Y84.950 E15.85006 F1200
G1 X174.239 Y84.981 E16.30772 F1200
G1 X175.131 Y85.087 E16.33796 F1200
G1 X176.019 Y85.274 E16.36850 F1200
G1 X176.895 Y85.546 E16.39938 F1200
G1 X177.866 Y85.951 E16.43481 F1200
G1 X178.657 Y86.379 E16.46508 F1200
G1 X179.422 Y86.887 E16.49600 F1200
G1 X180.242 Y87.552 E16.53153 F1200
G1 X180.891 Y88.198 E16.56234 F1200
G1 X181.562 Y89.004 E16.59763 F1200
G1 X182.067 Y89.751 E16.62797 F1200
G1 X182.518 Y90.575 E16.65960 F1200
G1 X182.935 Y91.555 E16.69546 F1200
G1 X183.251 Y92.588 E16.73183 F1200
G1 X183.449 Y93.622 E16.76726 F1200
G1 X183.541 Y94.577 E16.79955 F1200
G1 X183.550 Y95.003 E16.81390 F1200
G1 X183.519 Y115.739 E17.51220 F1200
G1 X183.413 Y116.631 E17.54244 F1200
G1 X183.226 Y117.519 E17.57299 F1200
G1 X182.954 Y118.395 E17.60387 F1200
G1 X182.549 Y119.366 E17.63929 F1200
G1 X182.121 Y120.157 E17.66957 F1200
G1 X181.613 Y120.922 E17.70048 F1200
G1 X180.948 Y121.742 E17.73601 F1200
G1 X180.302 Y122.391 E17.76683 F1200
G1 X179.496 Y123.062 E17.80212 F1200
G1 X178.749 Y123.567 E17.83246 F1200
G1 X177.925 Y124.018 E17.86408 F1200
G1 X176.945 Y124.435 E17.89995 F1200
G1 X175.914 Y124.751 E17.93625 F1200
G1 X174.900 Y124.947 E17.97100 F1200
G1 X173.935 Y125.041 E18.00363 F1200
G1 X173.605 Y125.050 E18.01475 F1200
G1 X160.643 E18.45125 F1200
G1 X160.031 Y125.633 E18.47971 F1200
G1 X159.201 Y126.272 E18.51497 F1200
G1 X158.441 Y126.747 E18.54514 F1200
G1 X157.604 Y127.168 E18.57666 F1200
G1 X156.605 Y127.553 E18.61270 F1200
G1 X155.570 Y127.829 E18.64876 F1200
G1 X154.519 Y127.995 E18.68459 F1200
G1 X153.600 Y128.049 E18.71558 F1200
G1 X142.761 Y128.019 E19.08059 F1200
G1 X141.869 Y127.913 E19.11083 F1200
G1 X140.981 Y127.726 E19.14137 F1200
G1 X140.105 Y127.454 E19.17225 F1200
G1 X139.134 Y127.049 E19.20768 F1200
G1 X138.343 Y126.621 E19.23796 F1200
G1 X137.578 Y126.114 E19.26884 F1200
G1 X136.759 Y125.451 E19.30430 F1200
G1 X136.351 Y125.050 E19.32356 F1200
G1 X122.761 Y125.019 E19.78122 F1200
G1 X121.869 Y124.913 E19.81146 F1200
G1 X120.981 Y124.726 E19.84200 F1200
G1 X120.105 Y124.454 E19.87288 F1200
G1 X119.134 Y124.049 E19.90831 F1200
G1 X118.343 Y123.621 E19.93858 F1200
G1 X117.578 Y123.113 E19.96950 F1200
G1 X116.758 Y122.448 E20.00503 F1200
G1 X116.109 Y121.802 E20.03584 F1200
G1 X115.438 Y120.996 E20.07113 F1200
G1 X114.933 Y120.249 E20.10147 F1200
G1 X114.482 Y119.425 E20.13310 F1200
G1 X114.065 Y118.445 E20.16896 F1200
G1 X113.749 Y117.412 E20.20533 F1200
G1 X113.551 Y116.378 E20.24076 F1200
G1 X113.459 Y115.423 E20.27305 F1200
G1 X113.450 Y114.997 E20.28740 F1200
G1 X113.481 Y94.261 E20.98570 F1200
G1 X113.587 Y93.369 E21.01594 F1200
G1 X113.774 Y92.481 E21.04649 F1200
G1 X114.046 Y91.605 E21.07737 F1200
G1 X114.451 Y90.634 E21.11279 F1200
G1 X114.879 Y89.843 E21.14307 F1200
G1 X115.387 Y89.078 E21.17398 F1200
G0 X115.807 Y89.417 F7200
G1 X116.435 Y88.638 E21.20766 F1200
G1 X117.045 Y88.023 E21.23682 F1200
G1 X117.807 Y87.385 E21.27026 F1200
G1 X118.512 Y86.906 E21.29895 F1200
G1 X119.287 Y86.478 E21.32876 F1200
G1 X120.215 Y86.081 E21.36274 F1200
G1 X121.190 Y85.779 E21.39709 F1200
G1 X122.153 Y85.590 E21.43012 F1200
G1 X123.080 Y85.499 E21.46147 F1200
G1 X123.410 Y85.490 E21.47259 F1200
G1 X136.573 E21.91586 F1200
G1 X137.300 Y84.794 E21.94974 F1200
G1 X138.086 Y84.185 E21.98321 F1200
G1 X138.803 Y83.735 E22.01170 F1200
G1 X139.591 Y83.335 E22.04144 F1200
G1 X140.535 Y82.969 E22.07552 F1200
G1 X141.512 Y82.704 E22.10960 F1200
G1 X142.466 Y82.549 E22.14213 F1200
G1 X143.170 Y82.499 E22.16587 F1200
G1 X153.724 Y82.494 E22.52129 F1200
G1 X154.857 Y82.590 E22.55958 F1200
G1 X155.725 Y82.758 E22.58935 F1200
G1 X156.689 Y83.045 E22.62319 F1200
G1 X157.610 Y83.426 E22.65673 F1200
G1 X158.360 Y83.830 E22.68539 F1200
G1 X159.083 Y84.307 E22.71455 F1200
G1 X159.862 Y84.934 E22.74820 F1200
G1 X160.427 Y85.490 E22.77487 F1200
G1 X174.176 Y85.517 E23.23788 F1200
G1 X175.021 Y85.616 E23.26650 F1200
G1 X175.860 Y85.790 E23.29533 F1200
G1 X176.689 Y86.045 E23.32453 F1200
G1 X177.610 Y86.426 E23.35807 F1200
G1 X178.360 Y86.830 E23.38672 F1200
G1 X179.083 Y87.307 E23.41589 F1200
G1 X179.862 Y87.935 E23.44956 F1200
G1 X180.477 Y88.545 E23.47873 F1200
G1 X181.115 Y89.307 E23.51217 F1200
G1 X181.594 Y90.012 E23.54086 F1200
G1 X182.022 Y90.787 E23.57066 F1200
G1 X182.419 Y91.715 E23.60464 F1200
G1 X182.721 Y92.691 E23.63902 F1200
G1 X182.912 Y93.674 E23.67273 F1200
G1 X183.001 Y94.589 E23.70368 F1200
G1 X183.010 Y95.002 E23.71759 F1200
G1 X182.983 Y115.676 E24.41381 F1200
G1 X182.884 Y116.521 E24.44243 F1200
G1 X182.710 Y117.360 E24.47126 F1200
G1 X182.455 Y118.189 E24.50045 F1200
G1 X182.074 Y119.110 E24.53399 F1200
G1 X181.670 Y119.860 E24.56265 F1200
G1 X181.193 Y120.583 E24.59182 F1200
G1 X180.565 Y121.362 E24.62549 F1200
G1 X179.955 Y121.977 E24.65466 F1200
G1 X179.193 Y122.615 E24.68810 F1200
G1 X178.488 Y123.094 E24.71679 F1200
G1 X177.713 Y123.522 E24.74659 F1200
G1 X176.785 Y123.919 E24.78057 F1200
G1 X175.810 Y124.221 E24.81492 F1200
G1 X174.847 Y124.410 E24.84796 F1200
G1 X173.920 Y124.501 E24.87931 F1200
G1 X173.590 Y124.510 E24.89042 F1200
G1 X160.427 E25.33370 F1200
G1 X159.700 Y125.206 E25.36757 F1200
G1 X158.914 Y125.815 E25.40105 F1200
G1 X158.197 Y126.265 E25.42954 F1200
G1 X157.409 Y126.665 E25.45927 F1200
G1 X156.464 Y127.032 E25.49339 F1200
G1 X155.485 Y127.296 E25.52750 F1200
G1 X154.487 Y127.456 E25.56151 F1200
G1 X153.601 Y127.509 E25.59138 F1200
G1 X142.824 Y127.483 E25.95431 F1200
G1 X141.979 Y127.384 E25.98293 F1200
G1 X141.140 Y127.210 E26.01176 F1200
G1 X140.311 Y126.955 E26.04096 F1200
G1 X139.390 Y126.574 E26.07450 F1200
G1 X138.640 Y126.170 E26.10316 F1200
G1 X137.917 Y125.693 E26.13232 F1200
G1 X137.138 Y125.066 E26.16596 F1200
G1 X136.573 Y124.510 E26.19263 F1200
G1 X122.824 Y124.483 E26.65564 F1200
G1 X121.979 Y124.384 E26.68427 F1200
G1 X121.140 Y124.210 E26.71309 F1200
G1 X120.311 Y123.955 E26.74229 F1200
G1 X119.390 Y123.574 E26.77583 F1200
G1 X118.640 Y123.170 E26.80449 F1200
G1 X117.917 Y122.693 E26.83365 F1200
G1 X117.138 Y122.065 E26.86733 F1200
G1 X116.523 Y121.455 E26.89649 F1200
G1 X115.885 Y120.693 E26.92993 F1200
G1 X115.406 Y119.988 E26.95862 F1200
G1 X114.978 Y119.213 E26.98843 F1200
G1 X114.581 Y118.285 E27.02241 F1200
G1 X114.279 Y117.309 E27.05679 F1200
G1 X114.088 Y116.326 E27.09050 F1200
G1 X113.999 Y115.411 E27.12145 F1200
G1 X113.990 Y114.998 E27.13536 F1200
G1 X114.017 Y94.324 E27.83157 F1200
G1 X114.116 Y93.479 E27.86020 F1200
G1 X114.290 Y92.640 E27.88902 F1200
G1 X114.545 Y91.811 E27.91822 F1200
G1 X114.926 Y90.890 E27.95176 F1200
G1 X115.330 Y90.140 E27.98042 F1200
G1 X115.807 Y89.417 E28.00958 F1200
G0 X116.229 Y89.754 F7200
G1 X116.819 Y89.017 E28.04137 F1200
G1 X117.392 Y88.436 E28.06885 F1200
G1 X118.112 Y87.831 E28.10051 F1200
G1 X118.774 Y87.378 E28.12751 F1200
G1 X119.501 Y86.974 E28.15550 F1200
G1 X120.376 Y86.596 E28.18759 F1200
G1 X121.296 Y86.309 E28.22002 F1200
G1 X122.206 Y86.127 E28.25127 F1200
G1 X123.095 Y86.039 E28.28135 F1200
G1 X123.425 Y86.030 E28.29246 F1200
G1 X136.816 E28.74341 F1200
G1 X136.944 Y85.883 E28.74995 F1200
G1 X137.632 Y85.220 E28.78211 F1200
G1 X138.374 Y84.642 E28.81376 F1200
G1 X139.049 Y84.216 E28.84064 F1200
G1 X139.788 Y83.838 E28.86859 F1200
G1 X140.678 Y83.490 E28.90075 F1200
G1 X141.600 Y83.237 E28.93294 F1200
G1 X142.506 Y83.088 E28.96386 F1200
G1 X143.170 Y83.039 E28.98625 F1200
G1 X153.724 Y83.034 E29.34167 F1200
G1 X154.756 Y83.121 E29.37652 F1200
G1 X155.572 Y83.276 E29.40447 F1200
G1 X156.484 Y83.545 E29.43646 F1200
G1 X157.355 Y83.902 E29.46815 F1200
G1 X158.064 Y84.281 E29.49519 F1200
G1 X158.746 Y84.729 E29.52264 F1200
G1 X159.483 Y85.319 E29.55443 F1200
G1 X160.061 Y85.888 E29.58174 F1200
G1 X160.183 Y86.030 E29.58804 F1200
G1 X174.115 Y86.054 E30.05721 F1200
G1 X174.913 Y86.145 E30.08425 F1200
G1 X175.703 Y86.307 E30.11140 F1200
G1 X176.484 Y86.545 E30.13887 F1200
G1 X177.355 Y86.902 E30.17056 F1200
G1 X178.064 Y87.281 E30.19761 F1200
G1 X178.746 Y87.729 E30.22505 F1200
G1 X179.483 Y88.319 E30.25684 F1200
G1 X180.064 Y88.892 E30.28432 F1200
G1 X180.669 Y89.612 E30.31598 F1200
G1 X181.122 Y90.274 E30.34298 F1200
G1 X181.526 Y91.001 E30.37097 F1200
G1 X181.904 Y91.876 E30.40306 F1200
G1 X182.191 Y92.796 E30.43549 F1200
G1 X182.375 Y93.727 E30.46745 F1200
G1 X182.461 Y94.601 E30.49702 F1200
G1 X182.470 Y95.001 E30.51049 F1200
G1 X182.446 Y115.615 E31.20468 F1200
G1 X182.355 Y116.413 E31.23172 F1200
G1 X182.193 Y117.203 E31.25887 F1200
G1 X181.955 Y117.984 E31.28635 F1200
G1 X181.598 Y118.855 E31.31804 F1200
G1 X181.219 Y119.564 E31.34508 F1200
G1 X180.771 Y120.246 E31.37252 F1200
G1 X180.181 Y120.983 E31.40431 F1200
G1 X179.608 Y121.564 E31.43179 F1200
G1 X178.888 Y122.169 E31.46345 F1200
G1 X178.226 Y122.622 E31.49046 F1200
G1 X177.499 Y123.026 E31.51844 F1200
G1 X176.624 Y123.404 E31.55053 F1200
G1 X175.704 Y123.691 E31.58296 F1200
G1 X174.794 Y123.873 E31.61422 F1200
G1 X173.905 Y123.961 E31.64429 F1200
G1 X173.575 Y123.970 E31.65540 F1200
G1 X160.184 E32.10635 F1200
G1 X160.056 Y124.117 E32.11289 F1200
G1 X159.368 Y124.780 E32.14505 F1200
G1 X158.626 Y125.358 E32.17670 F1200
G1 X157.951 Y125.784 E32.20358 F1200
G1 X157.212 Y126.162 E32.23153 F1200
G1 X156.322 Y126.511 E32.26369 F1200
G1 X155.398 Y126.763 E32.29592 F1200
G1 X154.454 Y126.917 E32.32811 F1200
G1 X153.602 Y126.969 E32.35684 F1200
G1 X142.885 Y126.946 E32.71774 F1200
G1 X142.087 Y126.855 E32.74478 F1200
G1 X141.297 Y126.693 E32.77192 F1200
G1 X140.516 Y126.455 E32.79940 F1200
G1 X139.645 Y126.098 E32.83109 F1200
G1 X138.936 Y125.719 E32.85814 F1200
G1 X138.254 Y125.271 E32.88558 F1200
G1 X137.517 Y124.681 E32.91737 F1200
G1 X136.939 Y124.112 E32.94468 F1200
G1 X136.817 Y123.970 E32.95098 F1200
G1 X122.885 Y123.946 E33.42015 F1200
G1 X122.087 Y123.855 E33.44719 F1200
G1 X121.297 Y123.693 E33.47434 F1200
G1 X120.516 Y123.455 E33.50182 F1200
G1 X119.645 Y123.098 E33.53351 F1200
G1 X118.936 Y122.719 E33.56055 F1200
G1 X118.254 Y122.271 E33.58799 F1200
G1 X117.517 Y121.681 E33.61978 F1200
G1 X116.936 Y121.108 E33.64726 F1200
G1 X116.331 Y120.388 E33.67892 F1200
G1 X115.878 Y119.726 E33.70593 F1200
G1 X115.474 Y118.999 E33.73391 F1200
G1 X115.096 Y118.124 E33.76600 F1200
G1 X114.809 Y117.204 E33.79843 F1200
G1 X114.625 Y116.273 E33.83039 F1200
G1 X114.539 Y115.399 E33.85996 F1200
G1 X114.530 Y114.999 E33.87343 F1200
G1 X114.554 Y94.385 E34.56762 F1200
G1 X114.645 Y93.587 E34.59467 F1200
G1 X114.807 Y92.797 E34.62181 F1200
G1 X115.045 Y92.016 E34.64929 F1200
G1 X115.402 Y91.145 E34.68098 F1200
G1 X115.781 Y90.436 E34.70802 F1200
G1 X116.229 Y89.754 E34.73546 F1200
G0 X116.652 Y90.090 F7200
G1 X117.205 Y89.395 E34.76537 F1200
G1 X117.741 Y88.848 E34.79113 F1200
G1 X118.418 Y88.276 E34.82097 F1200
G1 X119.038 Y87.849 E34.84629 F1200
G1 X119.716 Y87.469 E34.87246 F1200
G1 X120.539 Y87.111 E34.90267 F1200
G1 X121.402 Y86.838 E34.93314 F1200
G1 X122.280 Y86.662 E34.96328 F1200
G1 X123.110 Y86.579 E34.99137 F1200
G1 X123.440 Y86.570 E35.00248 F1200
G1 X137.064 E35.46128 F1200
G1 X137.320 Y86.271 E35.47452 F1200
G1 X137.965 Y85.645 E35.50476 F1200
G1 X138.663 Y85.098 E35.53459 F1200
G1 X139.297 Y84.696 E35.55985 F1200
G1 X139.986 Y84.340 E35.58595 F1200
G1 X140.822 Y84.010 E35.61619 F1200
G1 X141.689 Y83.770 E35.64646 F1200
G1 X142.547 Y83.626 E35.67576 F1200
G1 X143.170 Y83.579 E35.69678 F1200
G1 X153.724 Y83.574 E36.05219 F1200
G1 X154.657 Y83.652 E36.08371 F1200
G1 X155.421 Y83.794 E36.10988 F1200
G1 X156.281 Y84.045 E36.14002 F1200
G1 X157.102 Y84.379 E36.16986 F1200
G1 X157.769 Y84.733 E36.19528 F1200
G1 X158.410 Y85.152 E36.22104 F1200
G1 X159.105 Y85.705 E36.25095 F1200
G1 X159.651 Y86.240 E36.27668 F1200
G1 X159.934 Y86.570 E36.29129 F1200
G1 X174.056 Y86.591 E36.76686 F1200
G1 X174.806 Y86.674 E36.79225 F1200
G1 X175.547 Y86.824 E36.81771 F1200
G1 X176.281 Y87.045 E36.84351 F1200
G1 X177.102 Y87.379 E36.87334 F1200
G1 X177.769 Y87.733 E36.89877 F1200
G1 X178.410 Y88.152 E36.92453 F1200
G1 X179.105 Y88.705 E36.95444 F1200
G1 X179.652 Y89.241 E36.98020 F1200
G1 X180.224 Y89.918 E37.01004 F1200
G1 X180.651 Y90.538 E37.03536 F1200
G1 X181.031 Y91.216 E37.06153 F1200
G1 X181.389 Y92.039 E37.09173 F1200
G1 X181.662 Y92.902 E37.12221 F1200
G1 X181.838 Y93.780 E37.15235 F1200
G1 X181.921 Y94.614 E37.18057 F1200
G1 X181.930 Y95 E37.19357 F1200
G1 X181.909 Y115.556 E37.88581 F1200
G1 X181.826 Y116.306 E37.91120 F1200
G1 X181.676 Y117.047 E37.93666 F1200
G1 X181.455 Y117.781 E37.96246 F1200
G1 X181.121 Y118.602 E37.99229 F1200
G1 X180.767 Y119.269 E38.01772 F1200
G1 X180.348 Y119.910 E38.04348 F1200
G1 X179.795 Y120.605 E38.07339 F1200
G1 X179.259 Y121.152 E38.09915 F1200
G1 X178.582 Y121.724 E38.12898 F1200
G1 X177.962 Y122.151 E38.15431 F1200
G1 X177.284 Y122.531 E38.18047 F1200
G1 X176.461 Y122.889 E38.21068 F1200
G1 X175.598 Y123.162 E38.24116 F1200
G1 X174.720 Y123.338 E38.27130 F1200
G1 X173.890 Y123.421 E38.29938 F1200
G1 X173.560 Y123.430 E38.31050 F1200
G1 X159.936 E38.76930 F1200
G1 X159.680 Y123.729 E38.78253 F1200
G1 X159.035 Y124.355 E38.81277 F1200
G1 X158.337 Y124.902 E38.84261 F1200
G1 X157.703 Y125.304 E38.86787 F1200
G1 X157.014 Y125.660 E38.89397 F1200
G1 X156.178 Y125.990 E38.92421 F1200
G1 X155.309 Y126.230 E38.95455 F1200
G1 X154.420 Y126.378 E38.98489 F1200
G1 X153.603 Y126.429 E39.01244 F1200
G1 X142.944 Y126.409 E39.37139 F1200
G1 X142.194 Y126.326 E39.39678 F1200
G1 X141.453 Y126.176 E39.42224 F1200
G1 X140.719 Y125.955 E39.44803 F1200
G1 X139.898 Y125.621 E39.47787 F1200
G1 X139.231 Y125.267 E39.50330 F1200
G1 X138.590 Y124.848 E39.52906 F1200
G1 X137.895 Y124.295 E39.55896 F1200
G1 X137.349 Y123.760 E39.58469 F1200
G1 X137.066 Y123.430 E39.59931 F1200
G1 X122.944 Y123.409 E40.07488 F1200
G1 X122.194 Y123.326 E40.10027 F1200
G1 X121.453 Y123.176 E40.12573 F1200
G1 X120.719 Y122.955 E40.15152 F1200
G1 X119.898 Y122.621 E40.18136 F1200
G1 X119.231 Y122.267 E40.20679 F1200
G1 X118.590 Y121.848 E40.23255 F1200
G1 X117.895 Y121.295 E40.26245 F1200
G1 X117.348 Y120.759 E40.28821 F1200
G1 X116.776 Y120.082 E40.31805 F1200
G1 X116.349 Y119.462 E40.34338 F1200
G1 X115.969 Y118.784 E40.36954 F1200
G1 X115.611 Y117.961 E40.39975 F1200
G1 X115.338 Y117.098 E40.43023 F1200
G1 X115.162 Y116.220 E40.46037 F1200
G1 X115.079 Y115.386 E40.48859 F1200
G1 X115.070 Y115 E40.50158 F1200
G1 X115.091 Y94.444 E41.19383 F1200
G1 X115.174 Y93.694 E41.21922 F1200
G1 X115.324 Y92.953 E41.24468 F1200
G1 X115.545 Y92.219 E41.27047 F1200
G1 X115.879 Y91.398 E41.30031 F1200
G1 X116.233 Y90.731 E41.32573 F1200
G1 X116.652 Y90.090 E41.35150 F1200
G0 X117.075 Y90.425 F7200
G1 X117.592 Y89.772 E41.37952 F1200
G1 X118.091 Y89.259 E41.40359 F1200
G1 X118.725 Y88.720 E41.43161 F1200
G1 X119.304 Y88.319 E41.45532 F1200
G1 X119.933 Y87.963 E41.47963 F1200
G1 X120.703 Y87.625 E41.50792 F1200
G1 X121.510 Y87.367 E41.53644 F1200
G1 X122.334 Y87.199 E41.56473 F1200
G1 X123.125 Y87.119 E41.59150 F1200
G1 X123.455 Y87.110 E41.60262 F1200
G1 X137.316 E42.06940 F1200
G1 X137.697 Y86.657 E42.08930 F1200
G1 X138.299 Y86.069 E42.11762 F1200
G1 X138.954 Y85.553 E42.14568 F1200
G1 X139.546 Y85.175 E42.16932 F1200
G1 X140.186 Y84.842 E42.19360 F1200
G1 X140.968 Y84.530 E42.22192 F1200
G1 X141.780 Y84.302 E42.25031 F1200
G1 X142.589 Y84.164 E42.27792 F1200
G1 X143.170 Y84.119 E42.29752 F1200
G1 X153.724 Y84.114 E42.65294 F1200
G1 X154.560 Y84.183 E42.68116 F1200
G1 X155.271 Y84.313 E42.70547 F1200
G1 X156.079 Y84.546 E42.73376 F1200
G1 X156.850 Y84.857 E42.76174 F1200
G1 X157.475 Y85.186 E42.78552 F1200
G1 X158.075 Y85.575 E42.80960 F1200
G1 X158.728 Y86.092 E42.83761 F1200
G1 X159.241 Y86.591 E42.86169 F1200
G1 X159.685 Y87.110 E42.88469 F1200
G1 X173.999 Y87.128 E43.36673 F1200
G1 X174.700 Y87.203 E43.39047 F1200
G1 X175.393 Y87.342 E43.41425 F1200
G1 X176.079 Y87.546 E43.43832 F1200
G1 X176.850 Y87.857 E43.46631 F1200
G1 X177.475 Y88.186 E43.49008 F1200
G1 X178.075 Y88.575 E43.51416 F1200
G1 X178.728 Y89.092 E43.54218 F1200
G1 X179.241 Y89.591 E43.56626 F1200
G1 X179.780 Y90.225 E43.59428 F1200
G1 X180.181 Y90.804 E43.61799 F1200
G1 X180.537 Y91.433 E43.64230 F1200
G1 X180.875 Y92.203 E43.67059 F1200
G1 X181.133 Y93.010 E43.69911 F1200
G1 X181.301 Y93.834 E43.72740 F1200
G1 X181.381 Y94.627 E43.75424 F1200
G1 X181.390 Y95 E43.76680 F1200
G1 X181.372 Y115.499 E44.45712 F1200
G1 X181.297 Y116.200 E44.48086 F1200
G1 X181.158 Y116.893 E44.50464 F1200
G1 X180.954 Y117.579 E44.52872 F1200
G1 X180.643 Y118.350 E44.55670 F1200
G1 X180.314 Y118.975 E44.58048 F1200
G1 X179.925 Y119.575 E44.60455 F1200
G1 X179.408 Y120.228 E44.63257 F1200
G1 X178.909 Y120.741 E44.65665 F1200
G1 X178.275 Y121.280 E44.68467 F1200
G1 X177.696 Y121.681 E44.70838 F1200
G1 X177.067 Y122.037 E44.73269 F1200
G1 X176.297 Y122.375 E44.76098 F1200
G1 X175.490 Y122.633 E44.78950 F1200
G1 X174.666 Y122.801 E44.81779 F1200
G1 X173.875 Y122.881 E44.84456 F1200
G1 X173.545 Y122.890 E44.85567 F1200
G1 X159.684 E45.32246 F1200
G1 X159.303 Y123.343 E45.34236 F1200
G1 X158.701 Y123.931 E45.37068 F1200
G1 X158.046 Y124.447 E45.39873 F1200
G1 X157.454 Y124.825 E45.42237 F1200
G1 X156.814 Y125.158 E45.44665 F1200
G1 X156.032 Y125.470 E45.47497 F1200
G1 X155.219 Y125.698 E45.50340 F1200
G1 X154.386 Y125.839 E45.53182 F1200
G1 X153.604 Y125.889 E45.55819 F1200
G1 X143.001 Y125.872 E45.91525 F1200
G1 X142.300 Y125.797 E45.93899 F1200
G1 X141.607 Y125.658 E45.96277 F1200
G1 X140.921 Y125.454 E45.98685 F1200
G1 X140.150 Y125.143 E46.01483 F1200
G1 X139.525 Y124.814 E46.03861 F1200
G1 X138.925 Y124.425 E46.06269 F1200
G1 X138.272 Y123.908 E46.09070 F1200
G1 X137.759 Y123.409 E46.11478 F1200
G1 X137.315 Y122.890 E46.13778 F1200
G1 X123.001 Y122.872 E46.61982 F1200
G1 X122.300 Y122.797 E46.64356 F1200
G1 X121.607 Y122.658 E46.66734 F1200
G1 X120.921 Y122.454 E46.69141 F1200
G1 X120.150 Y122.143 E46.71940 F1200
G1 X119.525 Y121.814 E46.74317 F1200
G1 X118.925 Y121.425 E46.76725 F1200
G1 X118.272 Y120.908 E46.79527 F1200
G1 X117.759 Y120.409 E46.81935 F1200
G1 X117.220 Y119.775 E46.84737 F1200
G1 X116.819 Y119.196 E46.87108 F1200
G1 X116.463 Y118.567 E46.89539 F1200
G1 X116.125 Y117.797 E46.92368 F1200
G1 X115.867 Y116.990 E46.95220 F1200
G1 X115.699 Y116.166 E46.98049 F1200
G1 X115.619 Y115.373 E47.00733 F1200
G1 X115.610 Y115 E47.01989 F1200
G1 X115.628 Y94.501 E47.71021 F1200
G1 X115.703 Y93.800 E47.73395 F1200
G1 X115.842 Y93.107 E47.75773 F1200
G1 X116.046 Y92.421 E47.78181 F1200
G1 X116.357 Y91.650 E47.80979 F1200
G1 X116.686 Y91.025 E47.83357 F1200
G1 X117.075 Y90.425 E47.85764 F1200
G0 X117.499 Y90.759 F7200
G1 X117.981 Y90.147 E47.88388 F1200
G1 X118.442 Y89.669 E47.90624 F1200
G1 X119.034 Y89.163 E47.93244 F1200
G1 X119.572 Y88.788 E47.95450 F1200
G1 X120.152 Y88.457 E47.97696 F1200
G1 X120.869 Y88.139 E48.00336 F1200
G1 X121.620 Y87.896 E48.02993 F1200
G1 X122.389 Y87.736 E48.05637 F1200
G1 X123.140 Y87.659 E48.08176 F1200
G1 X123.470 Y87.650 E48.09287 F1200
G1 X137.580 E48.56804 F1200
G1 X137.648 Y87.554 E48.57198 F1200
G1 X138.076 Y87.042 E48.59444 F1200
G1 X138.635 Y86.492 E48.62084 F1200
G1 X139.246 Y86.007 E48.64711 F1200
G1 X139.797 Y85.653 E48.66913 F1200
G1 X140.388 Y85.343 E48.69159 F1200
G1 X141.116 Y85.049 E48.71803 F1200
G1 X141.873 Y84.834 E48.74450 F1200
G1 X142.632 Y84.702 E48.77043 F1200
G1 X143.170 Y84.659 E48.78858 F1200
G1 X153.724 Y84.654 E49.14400 F1200
G1 X154.465 Y84.715 E49.16902 F1200
G1 X155.123 Y84.832 E49.19151 F1200
G1 X155.878 Y85.047 E49.21795 F1200
G1 X156.600 Y85.336 E49.24411 F1200
G1 X157.183 Y85.640 E49.26624 F1200
G1 X157.741 Y85.999 E49.28857 F1200
G1 X158.353 Y86.481 E49.31480 F1200
G1 X158.831 Y86.942 E49.33716 F1200
G1 X159.336 Y87.532 E49.36329 F1200
G1 X159.420 Y87.650 E49.36814 F1200
G1 X173.943 Y87.665 E49.85722 F1200
G1 X174.596 Y87.733 E49.87931 F1200
G1 X175.241 Y87.860 E49.90143 F1200
G1 X175.878 Y88.047 E49.92376 F1200
G1 X176.600 Y88.336 E49.94993 F1200
G1 X177.183 Y88.640 E49.97205 F1200
G1 X177.741 Y88.999 E49.99438 F1200
G1 X178.353 Y89.481 E50.02061 F1200
G1 X178.831 Y89.942 E50.04297 F1200
G1 X179.337 Y90.534 E50.06917 F1200
G1 X179.712 Y91.072 E50.09123 F1200
G1 X180.043 Y91.652 E50.11369 F1200
G1 X180.361 Y92.369 E50.14010 F1200
G1 X180.604 Y93.120 E50.16667 F1200
G1 X180.764 Y93.889 E50.19310 F1200
G1 X180.841 Y94.641 E50.21853 F1200
G1 X180.850 Y95 E50.23062 F1200
G1 X180.835 Y115.443 E50.91905 F1200
G1 X180.767 Y116.096 E50.94114 F1200
G1 X180.640 Y116.741 E50.96327 F1200
G1 X180.453 Y117.378 E50.98560 F1200
G1 X180.164 Y118.100 E51.01176 F1200
G1 X179.860 Y118.683 E51.03389 F1200
G1 X179.501 Y119.241 E51.05621 F1200
G1 X179.019 Y119.853 E51.08245 F1200
G1 X178.558 Y120.331 E51.10481 F1200
G1 X177.966 Y120.837 E51.13101 F1200
G1 X177.428 Y121.212 E51.15307 F1200
G1 X176.848 Y121.543 E51.17553 F1200
G1 X176.131 Y121.861 E51.20193 F1200
G1 X175.380 Y122.104 E51.22850 F1200
G1 X174.611 Y122.264 E51.25494 F1200
G1 X173.860 Y122.341 E51.28033 F1200
G1 X173.530 Y122.350 E51.29144 F1200
G1 X159.420 E51.76661 F1200
G1 X159.352 Y122.446 E51.77055 F1200
G1 X158.924 Y122.958 E51.79301 F1200
G1 X158.365 Y123.508 E51.81941 F1200
G1 X157.754 Y123.993 E51.84568 F1200
G1 X157.203 Y124.347 E51.86770 F1200
G1 X156.612 Y124.657 E51.89016 F1200
G1 X155.884 Y124.951 E51.91660 F1200
G1 X155.127 Y125.166 E51.94307 F1200
G1 X154.351 Y125.300 E51.96957 F1200
G1 X153.605 Y125.349 E51.99473 F1200
G1 X143.057 Y125.335 E52.34994 F1200
G1 X142.404 Y125.267 E52.37203 F1200
G1 X141.759 Y125.140 E52.39416 F1200
G1 X141.122 Y124.953 E52.41648 F1200
G1 X140.400 Y124.664 E52.44265 F1200
G1 X139.817 Y124.360 E52.46478 F1200
G1 X139.259 Y124.001 E52.48710 F1200
G1 X138.647 Y123.519 E52.51334 F1200
G1 X138.169 Y123.058 E52.53570 F1200
G1 X137.664 Y122.468 E52.56183 F1200
G1 X137.580 Y122.350 E52.56668 F1200
G1 X123.057 Y122.335 E53.05575 F1200
G1 X122.404 Y122.267 E53.07784 F1200
G1 X121.759 Y122.140 E53.09997 F1200
G1 X121.122 Y121.953 E53.12230 F1200
G1 X120.400 Y121.664 E53.14846 F1200
G1 X119.817 Y121.360 E53.17059 F1200
G1 X119.259 Y121.001 E53.19292 F1200
G1 X118.647 Y120.519 E53.21915 F1200
G1 X118.169 Y120.058 E53.24151 F1200
G1 X117.663 Y119.466 E53.26771 F1200
G1 X117.288 Y118.928 E53.28977 F1200
G1 X116.957 Y118.348 E53.31223 F1200
G1 X116.639 Y117.631 E53.33863 F1200
G1 X116.396 Y116.880 E53.36520 F1200
G1 X116.236 Y116.111 E53.39164 F1200
G1 X116.159 Y115.359 E53.41706 F1200
G1 X116.150 Y115 E53.42915 F1200
G1 X116.165 Y94.557 E54.11759 F1200
G1 X116.233 Y93.904 E54.13968 F1200
G1 X116.360 Y93.259 E54.16180 F1200
G1 X116.547 Y92.622 E54.18413 F1200
G1 X116.836 Y91.900 E54.21030 F1200
G1 X117.140 Y91.317 E54.23242 F1200
G1 X117.499 Y90.759 E54.25475 F1200
G0 X117.925 Y91.091 F7200
G1 X118.371 Y90.520 E54.27913 F1200
G1 X118.794 Y90.078 E54.29971 F1200
G1 X119.344 Y89.605 E54.32412 F1200
G1 X119.842 Y89.256 E54.34460 F1200
G1 X120.373 Y88.950 E54.36521 F1200
G1 X121.038 Y88.652 E54.38972 F1200
G1 X121.732 Y88.424 E54.41431 F1200
G1 X122.445 Y88.273 E54.43882 F1200
G1 X123.155 Y88.199 E54.46283 F1200
G1 X123.485 Y88.190 E54.47395 F1200
G1 X137.864 E54.95817 F1200
G1 X138.064 Y87.899 E54.97006 F1200
G1 X138.456 Y87.426 E54.99074 F1200
G1 X138.973 Y86.914 E55.01522 F1200
G1 X139.540 Y86.460 E55.03967 F1200
G1 X140.049 Y86.130 E55.06007 F1200
G1 X140.592 Y85.843 E55.08075 F1200
G1 X141.266 Y85.568 E55.10523 F1200
G1 X141.967 Y85.366 E55.12978 F1200
G1 X142.677 Y85.240 E55.15406 F1200
G1 X143.170 Y85.199 E55.17070 F1200
G1 X153.724 Y85.194 E55.52612 F1200
G1 X154.373 Y85.247 E55.54804 F1200
G1 X154.977 Y85.352 E55.56868 F1200
G1 X155.679 Y85.549 E55.59323 F1200
G1 X156.352 Y85.816 E55.61761 F1200
G1 X156.892 Y86.095 E55.63805 F1200
G1 X157.409 Y86.425 E55.65870 F1200
G1 X157.980 Y86.871 E55.68308 F1200
G1 X158.422 Y87.294 E55.70365 F1200
G1 X158.895 Y87.844 E55.72807 F1200
G1 X159.140 Y88.190 E55.74231 F1200
G1 X173.889 Y88.202 E56.23900 F1200
G1 X174.493 Y88.263 E56.25944 F1200
G1 X175.091 Y88.379 E56.27995 F1200
G1 X175.679 Y88.549 E56.30056 F1200
G1 X176.352 Y88.816 E56.32494 F1200
G1 X176.892 Y89.095 E56.34538 F1200
G1 X177.409 Y89.425 E56.36603 F1200
G1 X177.980 Y89.871 E56.39041 F1200
G1 X178.422 Y90.294 E56.41098 F1200
G1 X178.895 Y90.844 E56.43540 F1200
G1 X179.244 Y91.342 E56.45587 F1200
G1 X179.550 Y91.873 E56.47648 F1200
G1 X179.848 Y92.538 E56.50100 F1200
G1 X180.076 Y93.232 E56.52558 F1200
G1 X180.227 Y93.945 E56.55010 F1200
G1 X180.301 Y94.655 E56.57411 F1200
G1 X180.310 Y95 E56.58573 F1200
G1 X180.298 Y115.389 E57.27234 F1200
G1 X180.237 Y115.993 E57.29279 F1200
G1 X180.121 Y116.591 E57.31329 F1200
G1 X179.951 Y117.179 E57.33390 F1200
G1 X179.684 Y117.852 E57.35829 F1200
G1 X179.405 Y118.392 E57.37873 F1200
G1 X179.075 Y118.909 E57.39937 F1200
G1 X178.629 Y119.480 E57.42375 F1200
G1 X178.206 Y119.922 E57.44433 F1200
G1 X177.656 Y120.395 E57.46874 F1200
G1 X177.158 Y120.744 E57.48922 F1200
G1 X176.627 Y121.050 E57.50983 F1200
G1 X175.962 Y121.348 E57.53434 F1200
G1 X175.268 Y121.576 E57.55893 F1200
G1 X174.555 Y121.727 E57.58344 F1200
G1 X173.845 Y121.801 E57.60745 F1200
G1 X173.515 Y121.810 E57.61857 F1200
G1 X159.136 E58.10279 F1200
G1 X158.936 Y122.101 E58.11468 F1200
G1 X158.544 Y122.574 E58.13536 F1200
G1 X158.027 Y123.086 E58.15984 F1200
G1 X157.460 Y123.540 E58.18429 F1200
G1 X156.951 Y123.870 E58.20470 F1200
G1 X156.408 Y124.157 E58.22537 F1200
G1 X155.734 Y124.432 E58.24985 F1200
G1 X155.033 Y124.634 E58.27440 F1200
G1 X154.314 Y124.761 E58.29899 F1200
G1 X153.606 Y124.809 E58.32286 F1200
G1 X143.111 Y124.798 E58.67629 F1200
G1 X142.507 Y124.737 E58.69673 F1200
G1 X141.909 Y124.621 E58.71724 F1200
G1 X141.321 Y124.451 E58.73785 F1200
G1 X140.648 Y124.184 E58.76223 F1200
G1 X140.108 Y123.905 E58.78267 F1200
G1 X139.591 Y123.575 E58.80332 F1200
G1 X139.020 Y123.129 E58.82770 F1200
G1 X138.578 Y122.706 E58.84828 F1200
G1 X138.105 Y122.156 E58.87269 F1200
G1 X137.860 Y121.810 E58.88694 F1200
G1 X123.111 Y121.798 E59.38362 F1200
G1 X122.507 Y121.737 E59.40406 F1200
G1 X121.909 Y121.621 E59.42457 F1200
G1 X121.321 Y121.451 E59.44518 F1200
G1 X120.648 Y121.184 E59.46956 F1200
G1 X120.108 Y120.905 E59.49000 F1200
G1 X119.591 Y120.575 E59.51065 F1200
G1 X119.020 Y120.129 E59.53503 F1200
G1 X118.578 Y119.706 E59.55560 F1200
G1 X118.105 Y119.156 E59.58002 F1200
G1 X117.756 Y118.658 E59.60049 F1200
G1 X117.450 Y118.127 E59.62110 F1200
G1 X117.152 Y117.462 E59.64562 F1200
G1 X116.924 Y116.768 E59.67020 F1200
G1 X116.773 Y116.055 E59.69472 F1200
G1 X116.699 Y115.345 E59.71873 F1200
G1 X116.690 Y115 E59.73035 F1200
G1 X116.702 Y94.611 E60.41697 F1200
G1 X116.763 Y94.007 E60.43741 F1200
G1 X116.879 Y93.409 E60.45792 F1200
G1 X117.049 Y92.821 E60.47852 F1200
G1 X117.316 Y92.148 E60.50291 F1200
G1 X117.595 Y91.608 E60.52335 F1200
G1 X117.925 Y91.091 E60.54399 F1200
G0 X118.351 Y91.422 F7200
G1 X118.763 Y90.892 E60.56659 F1200
G1 X119.148 Y90.486 E60.58541 F1200
G1 X119.656 Y90.046 E60.60804 F1200
G1 X120.113 Y89.723 E60.62687 F1200
G1 X120.597 Y89.442 E60.64569 F1200
G1 X121.208 Y89.164 E60.66829 F1200
G1 X121.846 Y88.952 E60.69092 F1200
G1 X122.502 Y88.810 E60.71352 F1200
G1 X123.170 Y88.739 E60.73611 F1200
G1 X123.500 Y88.730 E60.74722 F1200
G1 X138.151 E61.24061 F1200
G1 X138.482 Y88.241 E61.26048 F1200
G1 X138.837 Y87.808 E61.27930 F1200
G1 X139.312 Y87.334 E61.30190 F1200
G1 X139.835 Y86.912 E61.32453 F1200
G1 X140.304 Y86.606 E61.34336 F1200
G1 X140.798 Y86.342 E61.36221 F1200
G1 X141.418 Y86.086 E61.38478 F1200
G1 X142.063 Y85.897 E61.40741 F1200
G1 X142.724 Y85.778 E61.43000 F1200
G1 X143.170 Y85.739 E61.44506 F1200
G1 X153.724 Y85.734 E61.80047 F1200
G1 X154.282 Y85.779 E61.81930 F1200
G1 X154.834 Y85.873 E61.83812 F1200
G1 X155.481 Y86.051 E61.86072 F1200
G1 X156.106 Y86.297 E61.88331 F1200
G1 X156.604 Y86.552 E61.90214 F1200
G1 X157.078 Y86.851 E61.92100 F1200
G1 X157.608 Y87.263 E61.94359 F1200
G1 X158.014 Y87.648 E61.96242 F1200
G1 X158.454 Y88.156 E61.98505 F1200
G1 X158.777 Y88.613 E62.00387 F1200
G1 X158.849 Y88.730 E62.00849 F1200
G1 X173.836 Y88.739 E62.51319 F1200
G1 X174.393 Y88.794 E62.53201 F1200
G1 X174.943 Y88.898 E62.55084 F1200
G1 X175.481 Y89.051 E62.56966 F1200
G1 X176.106 Y89.297 E62.59226 F1200
G1 X176.604 Y89.552 E62.61108 F1200
G1 X177.078 Y89.851 E62.62994 F1200
G1 X177.608 Y90.263 E62.65254 F1200
G1 X178.014 Y90.648 E62.67136 F1200
G1 X178.454 Y91.156 E62.69399 F1200
G1 X178.777 Y91.613 E62.71282 F1200
G1 X179.058 Y92.097 E62.73164 F1200
G1 X179.336 Y92.708 E62.75424 F1200
G1 X179.548 Y93.346 E62.77687 F1200
G1 X179.690 Y94.002 E62.79947 F1200
G1 X179.761 Y94.670 E62.82206 F1200
G1 X179.770 Y95 E62.83318 F1200
G1 X179.761 Y115.336 E63.51801 F1200
G1 X179.706 Y115.893 E63.53683 F1200
G1 X179.602 Y116.443 E63.55566 F1200
G1 X179.449 Y116.981 E63.57448 F1200
G1 X179.203 Y117.606 E63.59708 F1200
G1 X178.948 Y118.104 E63.61591 F1200
G1 X178.649 Y118.578 E63.63476 F1200
G1 X178.237 Y119.108 E63.65736 F1200
G1 X177.852 Y119.514 E63.67619 F1200
G1 X177.344 Y119.954 E63.69882 F1200
G1 X176.887 Y120.277 E63.71764 F1200
G1 X176.403 Y120.558 E63.73646 F1200
G1 X175.792 Y120.836 E63.75906 F1200
G1 X175.154 Y121.048 E63.78169 F1200
G1 X174.498 Y121.190 E63.80429 F1200
G1 X173.830 Y121.261 E63.82688 F1200
G1 X173.500 Y121.270 E63.83800 F1200
G1 X158.849 E64.33138 F1200
G1 X158.518 Y121.759 E64.35125 F1200
G1 X158.163 Y122.192 E64.37008 F1200
G1 X157.688 Y122.666 E64.39267 F1200
G1 X157.165 Y123.088 E64.41530 F1200
G1 X156.696 Y123.394 E64.43413 F1200
G1 X156.202 Y123.658 E64.45299 F1200
G1 X155.582 Y123.914 E64.47555 F1200
G1 X154.937 Y124.103 E64.49818 F1200
G1 X154.276 Y124.222 E64.52078 F1200
G1 X153.606 Y124.269 E64.54337 F1200
G1 X143.164 Y124.261 E64.89502 F1200
G1 X142.607 Y124.206 E64.91384 F1200
G1 X142.057 Y124.102 E64.93267 F1200
G1 X141.519 Y123.949 E64.95149 F1200
G1 X140.894 Y123.703 E64.97409 F1200
G1 X140.396 Y123.448 E64.99291 F1200
G1 X139.922 Y123.149 E65.01177 F1200
G1 X139.392 Y122.737 E65.03437 F1200
G1 X138.986 Y122.352 E65.05319 F1200
G1 X138.546 Y121.844 E65.07582 F1200
G1 X138.223 Y121.387 E65.09465 F1200
G1 X138.151 Y121.270 E65.09926 F1200
G1 X123.164 Y121.261 E65.60396 F1200
G1 X122.607 Y121.206 E65.62279 F1200
G1 X122.057 Y121.102 E65.64161 F1200
G1 X121.519 Y120.949 E65.66044 F1200
G1 X120.894 Y120.703 E65.68303 F1200
G1 X120.396 Y120.448 E65.70186 F1200
G1 X119.922 Y120.149 E65.72072 F1200
G1 X119.392 Y119.737 E65.74331 F1200
G1 X118.986 Y119.352 E65.76214 F1200
G1 X118.546 Y118.844 E65.78477 F1200
G1 X118.223 Y118.387 E65.80359 F1200
G1 X117.942 Y117.903 E65.82242 F1200
G1 X117.664 Y117.292 E65.84501 F1200
G1 X117.452 Y116.654 E65.86764 F1200
G1 X117.310 Y115.998 E65.89024 F1200
G1 X117.239 Y115.330 E65.91284 F1200
G1 X117.230 Y115 E65.92395 F1200
G1 X117.239 Y94.664 E66.60878 F1200
G1 X117.294 Y94.107 E66.62761 F1200
G1 X117.398 Y93.557 E66.64643 F1200
G1 X117.551 Y93.019 E66.66526 F1200
G1 X117.797 Y92.394 E66.68785 F1200
G1 X118.052 Y91.896 E66.70668 F1200
G1 X118.351 Y91.422 E66.72554 F1200
; Inset XP 
G1 F600 E60.22554 ; Retract
G0 X172.132 Y96.368 F7200
G1 F360 E66.72554
G1 Y113.632 E67.34568 F1200
G1 X152.782 Y113.659 E68.04075 F1200
G1 X152.639 Y113.717 E68.04628 F1200
G1 X152.399 Y113.872 E68.05652 F1200
G1 X152.197 Y114.169 E68.06941 F1200
G1 X152.165 Y114.278 E68.07347 F1200
G1 X152.132 Y114.496 E68.08137 F1200
G1 Y116.632 E68.15810 F1200
G1 X144.865 E68.41914 F1200
G1 X144.841 Y114.280 E68.50362 F1200
G1 X144.783 Y114.139 E68.50908 F1200
G1 X144.628 Y113.899 E68.51932 F1200
G1 X144.331 Y113.697 E68.53222 F1200
G1 X144.222 Y113.665 E68.53628 F1200
G1 X144.004 Y113.632 E68.54418 F1200
G1 X124.868 E69.23156 F1200
G1 Y96.368 E69.85170 F1200
G1 X144.218 Y96.341 E70.54677 F1200
G1 X144.361 Y96.283 E70.55230 F1200
G1 X144.601 Y96.128 E70.56254 F1200
G1 X144.803 Y95.831 E70.57544 F1200
G1 X144.835 Y95.722 E70.57949 F1200
G1 X144.868 Y95.504 E70.58740 F1200
G1 Y93.368 E70.66412 F1200
G1 X152.135 E70.92516 F1200
G1 X152.159 Y95.720 E71.00965 F1200
G1 X152.217 Y95.861 E71.01511 F1200
G1 X152.372 Y96.101 E71.02535 F1200
G1 X152.669 Y96.303 E71.03824 F1200
G1 X152.778 Y96.335 E71.04230 F1200
G1 X152.996 Y96.368 E71.05020 F1200
G1 X172.132 E71.73759 F1200
G0 X172.708 Y95.792 F7200
G1 Y114.208 E72.39911 F1200
G1 X152.925 Y114.217 E73.10973 F1200
G1 X152.800 Y114.285 E73.11483 F1200
G1 X152.731 Y114.383 E73.11911 F1200
G1 X152.708 Y114.496 E73.12324 F1200
G1 Y117.208 E73.22065 F1200
G1 X144.292 E73.52297 F1200
G1 X144.283 Y114.425 E73.62293 F1200
G1 X144.215 Y114.300 E73.62803 F1200
G1 X144.117 Y114.231 E73.63231 F1200
G1 X144.004 Y114.208 E73.63644 F1200
G1 X124.292 E74.34451 F1200
G1 Y95.792 E75.00603 F1200
G1 X144.075 Y95.783 E75.71666 F1200
G1 X144.200 Y95.715 E75.72176 F1200
G1 X144.269 Y95.617 E75.72603 F1200
G1 X144.292 Y95.504 E75.73016 F1200
G1 Y92.792 E75.82758 F1200
G1 X152.708 E76.12989 F1200
G1 X152.717 Y95.575 E76.22986 F1200
G1 X152.785 Y95.700 E76.23496 F1200
G1 X152.883 Y95.769 E76.23924 F1200
G1 X152.996 Y95.792 E76.24337 F1200
G1 X172.708 E76.95144 F1200
; Inset 0 
G0 X153.248 Y95.252 F7200
G1 X173.248 E77.58006 F1200
G1 Y114.748 E78.19283 F1200
G1 X153.248 E78.82145 F1200
G1 Y117.748 E78.91574 F1200
G1 X143.752 E79.21421 F1200
G1 Y114.748 E79.30850 F1200
G1 X123.752 E79.93712 F1200
G1 Y95.252 E80.54989 F1200
G1 X143.752 E81.17851 F1200
G1 Y92.252 E81.27280 F1200
G1 X153.248 E81.57127 F1200
G1 Y95.252 E81.66556 F1200
; Solid infill 
G0 X151.866 Y95.039 F7200
G1 X145.156 E81.90659 F1200
G0 Y94.463 F7200
G1 X151.860 E82.14740 F1200
G0 X151.853 Y93.887 F7200
G1 X145.156 E82.38797 F1200
G0 X145.134 Y95.615 F7200
G1 X151.873 E82.63004 F1200
G0 X152.093 Y96.191 F7200
G1 X144.899 E82.88845 F1200
G0 X144.498 Y113.471 F7200
G1 X152.491 E83.17557 F1200
G0 X151.942 Y114.047 F7200
G1 X145.051 E83.42310 F1200
G0 X145.130 Y114.623 F7200
G1 X151.844 E83.66427 F1200
G0 Y115.199 F7200
G1 X145.136 E83.90523 F1200
G0 X145.143 Y115.775 F7200
G1 X151.844 E84.14594 F1200
G1 F600 E77.64594 ; Retract
G0 X171.844 Y112.895 F7200
G1 F360 E84.14594
G1 X125.156 E85.82302 F1200
G0 Y112.319 F7200
G1 X171.844 E87.50009 F1200
G0 Y111.743 F7200
G1 X125.156 E89.17717 F1200
G0 Y111.167 F7200
G1 X171.844 E90.85425 F1200
G0 Y110.591 F7200
G1 X125.156 E92.53132 F1200
G0 Y110.015 F7200
G1 X171.844 E94.20840 F1200
G0 Y109.439 F7200
G1 X125.156 E95.88548 F1200
G0 Y108.863 F7200
G1 X171.844 E97.56256 F1200
G0 Y108.287 F7200
G1 X125.156 E99.23963 F1200
G0 Y107.711 F7200
G1 X171.844 E100.91671 F1200
G0 Y107.135 F7200
G1 X125.156 E102.59379 F1200
G0 Y106.559 F7200
G1 X171.844 E104.27086 F1200
G0 Y105.983 F7200
G1 X125.156 E105.94794 F1200
G0 Y105.407 F7200
G1 X171.844 E107.62502 F1200
G0 Y104.831 F7200
G1 X125.156 E109.30209 F1200
G0 Y104.255 F7200
G1 X171.844 E110.97917 F1200
G0 Y103.679 F7200
G1 X125.156 E112.65625 F1200
G0 Y103.103 F7200
G1 X171.844 E114.33333 F1200
G0 Y102.527 F7200
G1 X125.156 E116.01040 F1200
G0 Y101.951 F7200
G1 X171.844 E117.68748 F1200
G0 Y101.375 F7200
G1 X125.156 E119.36456 F1200
G0 Y100.799 F7200
G1 X171.844 E121.04163 F1200
G0 Y100.223 F7200
G1 X125.156 E122.71871 F1200
G0 Y99.647 F7200
G1 X171.844 E124.39579 F1200
G0 Y99.071 F7200
G1 X125.156 E126.07287 F1200
G0 Y98.495 F7200
G1 X171.844 E127.74994 F1200
G0 Y97.919 F7200
G1 X125.156 E129.42702 F1200
G0 Y97.343 F7200
G1 X171.844 E131.10410 F1200
G0 Y96.767 F7200
G1 X125.156 E132.78117 F1200
; MACROLAYER:2
; LAYER:2
; TIME LEFT: 751.546 S
M532 L2
; Inset XP 
G1 F600 E126.28117 ; Retract
G0 Z0.330 F1500
G0 X172.360 Y96.140 F7200
G1 F360 E132.78117
G1 Y113.860 E133.41769 F3000
G1 X152.885 Y113.887 E134.11725 F3000
G1 X152.640 Y114.017 E134.12720 F3000
G1 Y95.977 E134.77522 F3000
G1 X152.834 Y96.097 E134.78341 F3000
G1 X153.080 Y96.140 E134.79235 F3000
G1 X172.360 E135.48491 F3000
G0 X172.840 Y95.660 F7200
G1 Y114.340 E136.15591 F3000
G1 X153.015 Y114.349 E136.86804 F3000
G1 X152.920 Y114.401 E136.87192 F3000
G1 X152.857 Y114.490 E136.87584 F3000
G1 X152.840 Y114.580 E136.87911 F3000
G1 Y117.340 E136.97825 F3000
G1 X152.160 E137.00268 F3000
G1 Y92.660 E137.88920 F3000
G1 X152.840 E137.91363 F3000
G1 X152.849 Y95.485 E138.01511 F3000
G1 X152.901 Y95.580 E138.01899 F3000
G1 X152.990 Y95.643 E138.02290 F3000
G1 X153.080 Y95.660 E138.02617 F3000
G1 X172.840 E138.73597 F3000
; Inset 0 
G0 X153.290 Y95.210 F7200
G1 X173.290 E139.36459 F2400
G1 Y114.790 E139.98000 F2400
G1 X153.290 E140.60862 F2400
G1 Y117.790 E140.70291 F2400
G1 X151.710 E140.75257 F2400
G1 Y92.210 E141.55657 F2400
G1 X153.290 E141.60623 F2400
G1 Y95.210 E141.70053 F2400
; Solid infill 
G0 X152.537 Y95.639 F7200
G1 X152.523 Y95.632 E141.70079 F3000
G1 X152.518 Y95.617 E141.70106 F3000
G1 X152.509 Y95.551 E141.70219 F3000
G1 X152.500 Y93 E141.74228 F3000
G0 X153.120 Y96.379 F7200
G1 Y113.646 E142.36252 F3000
G0 X153.600 Y113.645 F7200
G1 Y96.379 E142.98273 F3000
G0 X154.080 F7200
G1 Y113.644 E143.60291 F3000
G0 X154.560 F7200
G1 Y96.379 E144.22308 F3000
G0 X155.040 F7200
G1 Y113.643 E144.84322 F3000
G0 X155.520 Y113.642 F7200
G1 Y96.379 E145.46333 F3000
G0 X156 F7200
G1 Y113.642 E146.08343 F3000
G0 X156.480 Y113.641 F7200
G1 Y96.379 E146.70350 F3000
G0 X156.960 F7200
G1 Y113.640 E147.32353 F3000
G0 X157.440 F7200
G1 Y96.379 E147.94356 F3000
G0 X157.920 F7200
G1 Y113.639 E148.56355 F3000
G0 X158.400 Y113.638 F7200
G1 Y96.379 E149.18351 F3000
G0 X158.880 F7200
G1 Y113.638 E149.80347 F3000
G0 X159.360 Y113.637 F7200
G1 Y96.379 E150.42340 F3000
G0 X159.840 F7200
G1 Y113.636 E151.04329 F3000
G0 X160.320 F7200
G1 Y96.379 E151.66317 F3000
G0 X160.800 F7200
G1 Y113.635 E152.28303 F3000
G0 X161.280 Y113.634 F7200
G1 Y96.379 E152.90284 F3000
G0 X161.760 F7200
G1 Y113.634 E153.52266 F3000
G0 X162.240 Y113.633 F7200
G1 Y96.379 E154.14244 F3000
G0 X162.720 F7200
G1 Y113.632 E154.76218 F3000
G0 X163.200 F7200
G1 Y96.379 E155.38193 F3000
G0 X163.680 F7200
G1 Y113.631 E156.00163 F3000
G0 X164.160 Y113.630 F7200
G1 Y105.460 E156.29513 F3000
G1 Y96.379 E156.62131 F3000
G0 X164.640 F7200
G1 Y113.629 E157.24094 F3000
G0 X165.120 F7200
G1 Y96.379 E157.86058 F3000
G0 X165.600 F7200
G1 Y113.628 E158.48018 F3000
G0 X166.080 Y113.627 F7200
G1 Y96.379 E159.09974 F3000
G0 X166.560 F7200
G1 Y113.627 E159.71931 F3000
G0 X167.040 Y113.626 F7200
G1 Y96.379 E160.33884 F3000
G0 X167.520 F7200
G1 Y113.625 E160.95833 F3000
M104 S235 T1
G0 X168 F7200
G1 Y96.379 E161.57782 F3000
G0 X168.480 F7200
G1 Y113.624 E162.19728 F3000
G0 X168.960 Y113.623 F7200
G1 Y96.379 E162.81670 F3000
G0 X169.440 F7200
G1 Y113.623 E163.43612 F3000
G0 X169.920 Y113.622 F7200
G1 Y96.379 E164.05550 F3000
G0 X170.400 F7200
G1 Y113.621 E164.67485 F3000
G0 X170.880 F7200
G1 Y96.379 E165.29420 F3000
G0 X171.360 F7200
G1 Y113.620 E165.91352 F3000
G0 X171.840 Y113.619 F7200
G1 Y96.379 E166.53279 F3000
G1 F600 E160.03279 ; Retract
G0 X152.520 Y114.357 F7200
G1 F360 E166.53279
G1 X152.515 Y114.388 E166.53334 F3000
G1 X152.500 Y114.558 E166.53609 F3000
G1 Y114.576 E166.53636 F3000
G1 Y117 E166.57264 F3000
; Inset XP 
G1 F600 E160.07264 ; Retract
G0 X144.360 Y95.983 F7200
G1 F360 E166.57264
G1 Y114.023 E167.22065 F3000
G1 X144.166 Y113.903 E167.22884 F3000
G1 X143.920 Y113.860 E167.23779 F3000
G1 X124.640 E167.93034 F3000
G1 Y96.140 E168.56686 F3000
G1 X144.115 Y96.113 E169.26642 F3000
G1 X144.360 Y95.983 E169.27637 F3000
G0 X144.080 Y95.599 F7200
G1 X144.143 Y95.510 E169.28029 F3000
G1 X144.160 Y95.420 E169.28356 F3000
G1 Y92.660 E169.38270 F3000
G1 X144.840 E169.40712 F3000
G1 Y117.340 E170.29365 F3000
G1 X144.160 E170.31808 F3000
G1 X144.151 Y114.515 E170.41956 F3000
G1 X144.099 Y114.420 E170.42344 F3000
G1 X144.010 Y114.357 E170.42735 F3000
G1 X143.920 Y114.340 E170.43062 F3000
G1 X124.160 E171.14042 F3000
G1 Y95.660 E171.81142 F3000
G1 X143.985 Y95.651 E172.52355 F3000
G1 X144.080 Y95.599 E172.52743 F3000
; Inset 0 
G0 X143.710 Y95.210 F7200
G1 Y92.210 E172.62173 F2400
G1 X145.290 E172.67139 F2400
G1 Y117.790 E173.47539 F2400
G1 X143.710 E173.52505 F2400
G1 Y114.790 E173.61934 F2400
G1 X123.710 E174.24796 F2400
G1 Y95.210 E174.86337 F2400
G1 X143.710 E175.49199 F2400
; Solid infill 
G0 X144.494 Y95.666 F7200
G1 X144.479 Y95.642 E175.49246 F3000
G1 X144.484 Y95.611 E175.49301 F3000
G1 X144.499 Y95.441 E175.49576 F3000
G1 X144.500 Y95.424 E175.49601 F3000
G1 Y93 E175.53229 F3000
G0 X144 Y96.352 F7200
G1 Y113.619 E176.15254 F3000
G0 X143.520 F7200
G1 Y96.353 E176.77275 F3000
G0 X143.040 Y96.354 F7200
G1 Y113.619 E177.39293 F3000
G0 X142.560 F7200
G1 Y96.354 E178.01310 F3000
G0 X142.080 Y96.355 F7200
G1 Y113.619 E178.63324 F3000
G0 X141.600 F7200
G1 Y96.356 E179.25334 F3000
G0 X141.120 F7200
G1 Y113.619 E179.87345 F3000
G0 X140.640 F7200
G1 Y96.357 E180.49351 F3000
G0 X140.160 Y96.358 F7200
G1 Y113.619 E181.11355 F3000
G0 X139.680 F7200
G1 Y96.358 E181.73358 F3000
G0 X139.200 Y96.359 F7200
G1 Y113.619 E182.35357 F3000
G0 X138.720 F7200
G1 Y96.360 E182.97353 F3000
G0 X138.240 F7200
G1 Y113.619 E183.59349 F3000
G0 X137.760 F7200
G1 Y96.361 E184.21342 F3000
G0 X137.280 Y96.362 F7200
G1 Y113.619 E184.83330 F3000
G0 X136.800 F7200
G1 Y96.362 E185.45319 F3000
G0 X136.320 Y96.363 F7200
G1 Y113.619 E186.07304 F3000
G0 X135.840 F7200
G1 Y96.364 E186.69286 F3000
G0 X135.360 F7200
G1 Y113.619 E187.31267 F3000
G0 X134.880 F7200
G1 Y96.365 E187.93245 F3000
G0 X134.400 Y96.366 F7200
G1 Y113.619 E188.55220 F3000
G0 X133.920 F7200
G1 Y96.366 E189.17194 F3000
G0 X133.440 Y96.367 F7200
G1 Y113.619 E189.79165 F3000
G0 X132.960 F7200
G1 Y96.368 E190.41132 F3000
G0 X132.480 F7200
G1 Y113.619 E191.03100 F3000
G0 X132 F7200
G1 Y96.369 E191.65063 F3000
G0 X131.520 Y96.370 F7200
G1 Y113.619 E192.27023 F3000
G0 X131.040 F7200
G1 Y96.370 E192.88983 F3000
G0 X130.560 Y96.371 F7200
G1 Y113.619 E193.50940 F3000
G0 X130.080 F7200
G1 Y96.372 E194.12893 F3000
G0 X129.600 F7200
G1 Y113.619 E194.74845 F3000
G0 X129.120 F7200
G1 Y96.373 E195.36795 F3000
G0 X128.640 Y96.374 F7200
G1 Y113.619 E195.98740 F3000
G0 X128.160 F7200
G1 Y96.374 E196.60686 F3000
G0 X127.680 Y96.375 F7200
G1 Y113.619 E197.22628 F3000
G0 X127.200 F7200
G1 Y96.376 E197.84567 F3000
G0 X126.720 F7200
G1 Y113.619 E198.46505 F3000
G0 X126.240 F7200
G1 Y96.377 E199.08440 F3000
G0 X125.760 Y96.378 F7200
G1 Y113.619 E199.70371 F3000
G0 X125.280 F7200
G1 Y96.378 E200.32303 F3000
G1 F600 E193.82303 ; Retract
G0 X144.514 Y114.303 F7200
G1 F360 E200.32303
G1 X144.476 Y114.367 E200.32418 F3000
G1 X144.481 Y114.382 E200.32446 F3000
G1 X144.490 Y114.448 E200.32558 F3000
G1 X144.499 Y116.999 E200.36586 F3000
; MACROLAYER:2
; LAYER:3
; TIME LEFT: 678.844 S
M532 L3
; Start change extruder 
M400
G1 F600 E185.36586 ; Retract
G0 Z5.330 F1500
M1013 
M104 S150 T0
M400
M106 P1 S0
M109 S250 T1
T1 ; switch extruder type to:FIBER
M1013 R 
; End change extruder 
; Fiber infill 
M400
M106 P1 S127
G0 X145.860 Y118.500 F7200
G0 Z1.010 F1500
M1001 L213
G1 F600 U199.60000
G0 Y118 Z0.510 F7200
G1 F1200 V15.95703
G4 P0
G1 Y117.200 V16.00369 U200.40000 F480
G1 Y112.200 V16.29532 U205.40000 F480
G1 Y91.200 V17.52013 U226.40000 F600
G0 X146.660 Y92 F120
G1 X147.440 V17.56563 U227.18000 F120
G0 X146.640 Y92.800 F120
G1 Y99.020 V17.92841 U233.40000 F120
G1 Y99.800 V17.97390 U234.18000 F202
G1 Y118.800 V19.08207 U253.18000 F600
G0 X147.440 Y118 F120
G1 X148.220 V19.12756 U253.96000 F120
G0 X147.420 Y117.200 F120
G1 Y110.980 V19.49034 U260.18000 F120
G1 Y110.200 V19.53584 U260.96000 F202
G1 Y91.200 V20.64401 U279.96000 F600
G0 X148.220 Y92 F120
G1 X149 V20.68950 U280.74000 F120
G0 X148.200 Y92.800 F120
G1 Y99.020 V21.05228 U286.96000 F120
G1 Y99.800 V21.09777 U287.74000 F202
G1 Y118.800 V22.20594 U306.74000 F600
G0 X149 Y118 F120
G1 X149.780 V22.25144 U307.52000 F120
G0 X148.980 Y117.200 F120
G1 Y110.980 V22.61422 U313.74000 F120
G1 Y110.200 V22.65971 U314.52000 F202
G1 Y91.200 V23.76788 U333.52000 F600
G0 X149.780 Y92 F120
G1 X150.560 V23.81337 U334.30000 F120
G0 X149.760 Y92.800 F120
G1 Y99.020 V24.17615 U340.52000 F120
G1 Y99.800 V24.22165 U341.30000 F202
G1 Y118.800 V25.32982 U360.30000 F600
G0 X150.560 Y118 F120
G1 X151.340 V25.37531 U361.08000 F120
G0 X150.540 Y117.200 F120
G1 Y110.980 V25.73809 U367.30000 F120
G1 Y110.200 V25.78358 U368.08000 F202
G1 Y109.620 V25.81741 U368.66000 F600
; Start to cut
M400
M280 P0 S30
G4 P200
M280 P0 S90
M400
G1 Y102.620 V26.26651 F120
G1 Y91.200 V26.99919 F480
G0 X151.340 Y92 F120
G1 X152.120 V27.04923 F120
G0 X151.320 Y92.800 F120
G1 Y99.800 V27.49833 F120
G1 Y118.800 V28.71732 F480
G1 F1800 V19.71732 ; Retract
G0 X145.500 Y118 F240
G0 Y103.820 F240
M1002 
; Start change extruder 
M400
G1 F1800 V16.71732 ; Retract
G0 Z5.510 F1500
M1013 
M104 S180 T1
M400
M106 P1 S0
M109 S220 T0
T0 ; switch extruder type to:PLASTIC
M1013 R 
; End change extruder 
; Inset XP 
M400
M106 P1 S127
G0 X144.360 Y95.983 F7200
G0 Z0.510 F1500
G1 F360 E200.36586
G1 Y114.023 E201.01387 F3000
G1 X144.166 Y113.903 E201.02206 F3000
G1 X143.920 Y113.860 E201.03101 F3000
G1 X124.640 E201.72356 F3000
G1 Y96.140 E202.36008 F3000
G1 X144.115 Y96.113 E203.05964 F3000
G1 X144.360 Y95.983 E203.06959 F3000
G0 X144.080 Y95.599 F7200
G1 X144.143 Y95.510 E203.07351 F3000
G1 X144.160 Y95.420 E203.07678 F3000
G1 Y92.660 E203.17592 F3000
G1 X144.840 E203.20034 F3000
G1 Y117.340 E204.08687 F3000
G1 X144.160 E204.11130 F3000
G1 X144.151 Y114.515 E204.21278 F3000
G1 X144.099 Y114.420 E204.21666 F3000
G1 X144.010 Y114.357 E204.22057 F3000
G1 X143.920 Y114.340 E204.22384 F3000
G1 X124.160 E204.93364 F3000
G1 Y95.660 E205.60464 F3000
G1 X143.985 Y95.651 E206.31677 F3000
G1 X144.080 Y95.599 E206.32065 F3000
; Inset 0 
G0 X143.710 Y95.210 F7200
G1 Y92.210 E206.41495 F2400
G1 X145.290 E206.46461 F2400
G1 Y117.790 E207.26861 F2400
G1 X143.710 E207.31827 F2400
G1 Y114.790 E207.41256 F2400
G1 X123.710 E208.04118 F2400
G1 Y95.210 E208.65659 F2400
G1 X143.710 E209.28521 F2400
; Solid infill 
G0 X144.494 Y95.666 F7200
G1 X144.479 Y95.642 E209.28568 F3000
G1 X144.484 Y95.611 E209.28623 F3000
G1 X144.499 Y95.441 E209.28898 F3000
G1 X144.500 Y95.424 E209.28923 F3000
G1 Y93 E209.32551 F3000
G0 X144.119 Y96.479 F7200
G1 X124.879 E210.01663 F3000
G0 Y96.959 F7200
G1 X144.119 E210.70775 F3000
G0 Y97.439 F7200
G1 X124.879 E211.39887 F3000
G0 Y97.919 F7200
G1 X144.119 E212.08999 F3000
G0 Y98.399 F7200
G1 X124.879 E212.78111 F3000
G0 Y98.879 F7200
G1 X144.119 E213.47223 F3000
G0 Y99.359 F7200
G1 X124.879 E214.16335 F3000
G0 Y99.839 F7200
G1 X144.119 E214.85446 F3000
G0 Y100.319 F7200
G1 X124.879 E215.54558 F3000
G0 Y100.799 F7200
G1 X144.119 E216.23670 F3000
G0 Y101.279 F7200
G1 X124.879 E216.92782 F3000
G0 Y101.759 F7200
G1 X144.119 E217.61894 F3000
G0 Y102.239 F7200
G1 X124.879 E218.31006 F3000
G0 Y102.719 F7200
G1 X144.119 E219.00118 F3000
G0 Y103.199 F7200
G1 X124.879 E219.69230 F3000
G0 Y103.679 F7200
G1 X144.119 E220.38342 F3000
G0 Y104.159 F7200
G1 X124.879 E221.07454 F3000
G0 Y104.639 F7200
G1 X144.119 E221.76565 F3000
G0 Y105.119 F7200
G1 X124.879 E222.45677 F3000
G0 Y105.599 F7200
G1 X144.119 E223.14789 F3000
G0 Y106.079 F7200
G1 X124.879 E223.83901 F3000
G0 Y106.559 F7200
G1 X144.119 E224.53013 F3000
G0 Y107.039 F7200
G1 X124.879 E225.22125 F3000
G0 Y107.519 F7200
G1 X144.119 E225.91237 F3000
G0 Y107.999 F7200
G1 X124.879 E226.60349 F3000
G0 Y108.479 F7200
G1 X144.119 E227.29461 F3000
G0 Y108.959 F7200
G1 X124.879 E227.98573 F3000
G0 Y109.439 F7200
G1 X144.119 E228.67684 F3000
G0 Y109.919 F7200
G1 X124.879 E229.36796 F3000
G0 Y110.399 F7200
G1 X144.119 E230.05908 F3000
G0 Y110.879 F7200
G1 X124.879 E230.75020 F3000
G0 Y111.359 F7200
G1 X144.119 E231.44132 F3000
G0 Y111.839 F7200
G1 X124.879 E232.13244 F3000
G0 Y112.319 F7200
G1 X144.119 E232.82356 F3000
G0 Y112.799 F7200
G1 X124.879 E233.51468 F3000
G0 Y113.279 F7200
G1 X144.119 E234.20580 F3000
G0 X144.514 Y114.303 F7200
G1 X144.476 Y114.367 E234.20695 F3000
G1 X144.481 Y114.382 E234.20723 F3000
G1 X144.490 Y114.448 E234.20835 F3000
G1 X144.499 Y116.999 E234.24863 F3000
; Inset XP 
G1 F600 E227.74863 ; Retract
G0 X172.360 Y96.140 F7200
G1 F360 E234.24863
G1 Y113.860 E234.88515 F3000
G1 X152.885 Y113.887 E235.58471 F3000
G1 X152.640 Y114.017 E235.59466 F3000
G1 Y95.977 E236.24267 F3000
G1 X152.834 Y96.097 E236.25086 F3000
G1 X153.080 Y96.140 E236.25981 F3000
G1 X172.360 E236.95236 F3000
G0 X172.840 Y95.660 F7200
G1 Y114.340 E237.62337 F3000
G1 X153.015 Y114.349 E238.33550 F3000
G1 X152.920 Y114.401 E238.33938 F3000
G1 X152.857 Y114.490 E238.34329 F3000
G1 X152.840 Y114.580 E238.34656 F3000
G1 Y117.340 E238.44570 F3000
G1 X152.160 E238.47013 F3000
G1 Y92.660 E239.35666 F3000
G1 X152.840 E239.38109 F3000
G1 X152.849 Y95.485 E239.48256 F3000
G1 X152.901 Y95.580 E239.48644 F3000
G1 X152.990 Y95.643 E239.49036 F3000
G1 X153.080 Y95.660 E239.49363 F3000
G1 X172.840 E240.20342 F3000
; Inset 0 
G0 X153.290 Y95.210 F7200
G1 X173.290 E240.83204 F2400
G1 Y114.790 E241.44746 F2400
G1 X153.290 E242.07607 F2400
G1 Y117.790 E242.17036 F2400
G1 X151.710 E242.22003 F2400
G1 Y92.210 E243.02403 F2400
G1 X153.290 E243.07369 F2400
G1 Y95.210 E243.16798 F2400
; Solid infill 
G0 X152.537 Y95.639 F7200
G1 X152.523 Y95.632 E243.16825 F3000
G1 X152.518 Y95.617 E243.16852 F3000
G1 X152.509 Y95.551 E243.16964 F3000
G1 X152.500 Y93 E243.20973 F3000
G0 X152.879 Y96.479 F7200
G1 X172.119 E243.90085 F3000
G0 Y96.959 F7200
G1 X152.879 E244.59197 F3000
G0 Y97.439 F7200
G1 X172.119 E245.28309 F3000
G0 Y97.919 F7200
G1 X152.879 E245.97421 F3000
G0 Y98.399 F7200
G1 X172.119 E246.66532 F3000
G0 Y98.879 F7200
G1 X152.879 E247.35644 F3000
G0 Y99.359 F7200
G1 X172.119 E248.04756 F3000
G0 Y99.839 F7200
G1 X152.879 E248.73868 F3000
G0 Y100.319 F7200
G1 X172.119 E249.42980 F3000
G0 Y100.799 F7200
G1 X152.879 E250.12092 F3000
G0 Y101.279 F7200
G1 X172.119 E250.81204 F3000
G0 Y101.759 F7200
G1 X152.879 E251.50316 F3000
G0 Y102.239 F7200
G1 X172.119 E252.19428 F3000
G0 Y102.719 F7200
G1 X152.879 E252.88540 F3000
G0 Y103.199 F7200
G1 X172.119 E253.57651 F3000
G0 Y103.679 F7200
G1 X152.879 E254.26763 F3000
G0 Y104.159 F7200
G1 X172.119 E254.95875 F3000
G0 Y104.639 F7200
G1 X152.879 E255.64987 F3000
G0 Y105.119 F7200
G1 X172.119 E256.34099 F3000
G0 Y105.599 F7200
G1 X152.879 E257.03211 F3000
G0 Y106.079 F7200
G1 X172.119 E257.72323 F3000
G0 Y106.559 F7200
G1 X152.879 E258.41435 F3000
G0 Y107.039 F7200
G1 X172.119 E259.10547 F3000
G0 Y107.519 F7200
G1 X152.879 E259.79659 F3000
G0 Y107.999 F7200
G1 X172.119 E260.48770 F3000
G0 Y108.479 F7200
G1 X152.879 E261.17882 F3000
G0 Y108.959 F7200
G1 X172.119 E261.86994 F3000
G0 Y109.439 F7200
G1 X152.879 E262.56106 F3000
G0 Y109.919 F7200
G1 X172.119 E263.25218 F3000
G0 Y110.399 F7200
G1 X152.879 E263.94330 F3000
G0 Y110.879 F7200
G1 X172.119 E264.63442 F3000
G0 Y111.359 F7200
G1 X152.879 E265.32554 F3000
G0 Y111.839 F7200
G1 X172.119 E266.01666 F3000
G0 Y112.319 F7200
G1 X152.879 E266.70778 F3000
G0 Y112.799 F7200
G1 X172.119 E267.39889 F3000
G0 Y113.279 F7200
G1 X152.879 E268.09001 F3000
G0 X152.520 Y114.357 F7200
G1 X152.515 Y114.388 E268.09056 F3000
G1 X152.500 Y114.558 E268.09331 F3000
G1 Y114.576 E268.09358 F3000
G1 Y117 E268.12986 F3000
; MACROLAYER:3
; LAYER:4
; TIME LEFT: 461.918 S
M532 L4
; Inset XP 
G1 F600 E261.62986 ; Retract
G0 Z0.690 F1500
G0 X172.360 Y96.140 F7200
G1 F360 E268.12986
G1 Y113.860 E268.76638 F3000
G1 X154.640 E269.40290 F3000
G1 Y96.140 E270.03942 F3000
G1 X172.360 E270.67594 F3000
G0 X172.840 Y95.660 F7200
G1 Y114.340 E271.34694 F3000
G1 X154.160 E272.01794 F3000
G1 Y95.660 E272.68895 F3000
G1 X172.840 E273.35995 F3000
; Inset 0 
G0 X153.290 Y95.210 F7200
G1 X173.290 E273.98857 F2400
G1 Y114.790 E274.60398 F2400
G1 X153.290 E275.23260 F2400
G1 Y117.790 E275.32689 F2400
G1 X151.710 E275.37655 F2400
G1 Y92.210 E276.18055 F2400
G1 X153.290 E276.23021 F2400
G1 Y95.210 E276.32450 F2400
; Micro infill 
G0 X153.300 Y95.419 F7200
G1 Y114.579 E276.92672 F2400
G0 X153.720 F7200
G1 Y95.419 E277.52893 F2400
G1 F600 E271.02893 ; Retract
G0 X152.880 Y92.419 F7200
G1 F360 E277.52893
G1 Y117.579 E278.31973 F2400
G0 X152.460 F7200
G1 Y92.419 E279.11053 F2400
G0 X152.040 F7200
G1 Y117.579 E279.90133 F2400
; Solid infill 
G1 F600 E273.40133 ; Retract
G0 X155.040 Y113.619 F7200
G1 F360 E279.90133
G1 Y96.379 E280.52061 F3000
G0 X155.520 F7200
G1 Y113.619 E281.13989 F3000
G0 X156 F7200
G1 Y96.379 E281.75916 F3000
G0 X156.480 F7200
G1 Y113.619 E282.37844 F3000
G0 X156.960 F7200
G1 Y96.379 E282.99772 F3000
G0 X157.440 F7200
G1 Y113.619 E283.61700 F3000
G0 X157.920 F7200
G1 Y96.379 E284.23627 F3000
G0 X158.400 F7200
G1 Y113.619 E284.85555 F3000
G0 X158.880 F7200
G1 Y96.379 E285.47483 F3000
G0 X159.360 F7200
G1 Y113.619 E286.09410 F3000
G0 X159.840 F7200
G1 Y96.379 E286.71338 F3000
G0 X160.320 F7200
G1 Y113.619 E287.33266 F3000
G0 X160.800 F7200
G1 Y96.379 E287.95194 F3000
G0 X161.280 F7200
G1 Y113.619 E288.57121 F3000
G0 X161.760 F7200
G1 Y96.379 E289.19049 F3000
G0 X162.240 F7200
G1 Y113.619 E289.80977 F3000
G0 X162.720 F7200
G1 Y96.379 E290.42904 F3000
G0 X163.200 F7200
G1 Y113.619 E291.04832 F3000
G0 X163.680 F7200
G1 Y96.379 E291.66760 F3000
G0 X164.160 F7200
G1 Y113.619 E292.28688 F3000
G0 X164.640 F7200
G1 Y96.379 E292.90615 F3000
G0 X165.120 F7200
G1 Y113.619 E293.52543 F3000
G0 X165.600 F7200
G1 Y96.379 E294.14471 F3000
G0 X166.080 F7200
G1 Y113.619 E294.76398 F3000
G0 X166.560 F7200
G1 Y96.379 E295.38326 F3000
G0 X167.040 F7200
G1 Y113.619 E296.00254 F3000
G0 X167.520 F7200
G1 Y96.379 E296.62181 F3000
G0 X168 F7200
G1 Y113.619 E297.24109 F3000
G0 X168.480 F7200
G1 Y96.379 E297.86037 F3000
G0 X168.960 F7200
G1 Y113.619 E298.47965 F3000
G0 X169.440 F7200
G1 Y96.379 E299.09892 F3000
G0 X169.920 F7200
G1 Y113.619 E299.71820 F3000
G0 X170.400 F7200
G1 Y96.379 E300.33748 F3000
G0 X170.880 F7200
G1 Y113.619 E300.95675 F3000
G0 X171.360 F7200
G1 Y96.379 E301.57603 F3000
G0 X171.840 F7200
G1 Y113.619 E302.19531 F3000
; Inset XP 
G1 F600 E295.69531 ; Retract
G0 X142.360 Y96.140 F7200
G1 F360 E302.19531
G1 Y113.860 E302.83183 F3000
G1 X124.640 E303.46835 F3000
G1 Y96.140 E304.10487 F3000
G1 X142.360 E304.74139 F3000
G0 X142.840 Y95.660 F7200
G1 Y114.340 E305.41239 F3000
G1 X124.160 E306.08339 F3000
G1 Y95.660 E306.75440 F3000
G1 X142.840 E307.42540 F3000
; Inset 0 
G0 X143.710 Y95.210 F7200
G1 Y92.210 E307.51969 F2400
G1 X145.290 E307.56935 F2400
G1 Y117.790 E308.37335 F2400
G1 X143.710 E308.42301 F2400
G1 Y114.790 E308.51731 F2400
G1 X123.710 E309.14592 F2400
G1 Y95.210 E309.76134 F2400
G1 X143.710 E310.38995 F2400
; Micro infill 
G0 X143.640 Y95.419 F7200
G1 Y114.579 E310.99217 F2400
G0 X143.220 F7200
G1 Y95.419 E311.59438 F2400
G1 F600 E305.09438 ; Retract
G0 X144.060 Y92.419 F7200
G1 F360 E311.59438
G1 Y117.579 E312.38518 F2400
G0 X144.480 F7200
G1 Y92.419 E313.17598 F2400
G0 X144.900 F7200
G1 Y117.579 E313.96678 F2400
; Solid infill 
G1 F600 E307.46678 ; Retract
G0 X142.080 Y113.619 F7200
G1 F360 E313.96678
G1 Y96.379 E314.58606 F3000
G0 X141.600 F7200
G1 Y113.619 E315.20534 F3000
G0 X141.120 F7200
G1 Y96.379 E315.82461 F3000
G0 X140.640 F7200
G1 Y113.619 E316.44389 F3000
G0 X140.160 F7200
G1 Y96.379 E317.06317 F3000
G0 X139.680 F7200
G1 Y113.619 E317.68244 F3000
G0 X139.200 F7200
G1 Y96.379 E318.30172 F3000
G0 X138.720 F7200
G1 Y113.619 E318.92100 F3000
G0 X138.240 F7200
G1 Y96.379 E319.54028 F3000
G0 X137.760 F7200
G1 Y113.619 E320.15955 F3000
G0 X137.280 F7200
G1 Y96.379 E320.77883 F3000
G0 X136.800 F7200
G1 Y113.619 E321.39811 F3000
G0 X136.320 F7200
G1 Y96.379 E322.01738 F3000
G0 X135.840 F7200
G1 Y113.619 E322.63666 F3000
G0 X135.360 F7200
G1 Y96.379 E323.25594 F3000
G0 X134.880 F7200
G1 Y113.619 E323.87522 F3000
G0 X134.400 F7200
G1 Y96.379 E324.49449 F3000
G0 X133.920 F7200
G1 Y113.619 E325.11377 F3000
G0 X133.440 F7200
G1 Y96.379 E325.73305 F3000
G0 X132.960 F7200
G1 Y113.619 E326.35232 F3000
G0 X132.480 F7200
G1 Y96.379 E326.97160 F3000
G0 X132 F7200
G1 Y113.619 E327.59088 F3000
G0 X131.520 F7200
G1 Y96.379 E328.21016 F3000
G0 X131.040 F7200
G1 Y113.619 E328.82943 F3000
G0 X130.560 F7200
G1 Y96.379 E329.44871 F3000
G0 X130.080 F7200
G1 Y113.619 E330.06799 F3000
G0 X129.600 F7200
G1 Y96.379 E330.68726 F3000
G0 X129.120 F7200
G1 Y113.619 E331.30654 F3000
G0 X128.640 F7200
G1 Y96.379 E331.92582 F3000
G0 X128.160 F7200
G1 Y113.619 E332.54510 F3000
G0 X127.680 F7200
G1 Y96.379 E333.16437 F3000
G0 X127.200 F7200
G1 Y113.619 E333.78365 F3000
G0 X126.720 F7200
G1 Y96.379 E334.40293 F3000
G0 X126.240 F7200
G1 Y113.619 E335.02220 F3000
G0 X125.760 F7200
G1 Y96.379 E335.64148 F3000
G0 X125.280 F7200
G1 Y113.619 E336.26076 F3000
; MACROLAYER:3
; LAYER:5
; TIME LEFT: 400.215 S
M532 L5
; Inset XP 
M400
M106 P1 S255
G1 F600 E329.76076 ; Retract
G0 Z0.870 F1500
G0 X172.360 Y96.140 F7200
G1 F360 E336.26076
G1 Y113.860 E336.89728 F3000
G1 X154.640 E337.53380 F3000
G1 Y96.140 E338.17032 F3000
G1 X172.360 E338.80683 F3000
G0 X172.840 Y95.660 F7200
G1 Y114.340 E339.47784 F3000
G1 X154.160 E340.14884 F3000
G1 Y95.660 E340.81984 F3000
G1 X172.840 E341.49085 F3000
; Inset 0 
G0 X173.290 Y95.210 F7200
G1 Y114.790 E342.10626 F2400
G1 X153.710 E342.72168 F2400
G1 Y95.210 E343.33709 F2400
G1 X173.290 E343.95251 F2400
; Solid infill 
G0 X172.119 Y96.479 F7200
G1 X154.879 E344.57179 F3000
G0 Y96.959 F7200
G1 X172.119 E345.19106 F3000
G0 Y97.439 F7200
G1 X154.879 E345.81034 F3000
G0 Y97.919 F7200
G1 X172.119 E346.42962 F3000
G0 Y98.399 F7200
G1 X154.879 E347.04890 F3000
G0 Y98.879 F7200
G1 X172.119 E347.66817 F3000
G0 Y99.359 F7200
G1 X154.879 E348.28745 F3000
G0 Y99.839 F7200
G1 X172.119 E348.90673 F3000
G0 Y100.319 F7200
G1 X154.879 E349.52600 F3000
G0 Y100.799 F7200
G1 X172.119 E350.14528 F3000
G0 Y101.279 F7200
G1 X154.879 E350.76456 F3000
G0 Y101.759 F7200
G1 X172.119 E351.38384 F3000
G0 Y102.239 F7200
G1 X154.879 E352.00311 F3000
G0 Y102.719 F7200
G1 X172.119 E352.62239 F3000
G0 Y103.199 F7200
G1 X154.879 E353.24167 F3000
G0 Y103.679 F7200
G1 X172.119 E353.86094 F3000
G0 Y104.159 F7200
G1 X154.879 E354.48022 F3000
G0 Y104.639 F7200
G1 X172.119 E355.09950 F3000
G0 Y105.119 F7200
G1 X154.879 E355.71878 F3000
G0 Y105.599 F7200
G1 X172.119 E356.33805 F3000
G0 Y106.079 F7200
G1 X154.879 E356.95733 F3000
G0 Y106.559 F7200
G1 X172.119 E357.57661 F3000
G0 Y107.039 F7200
G1 X154.879 E358.19588 F3000
G0 Y107.519 F7200
G1 X172.119 E358.81516 F3000
G0 Y107.999 F7200
G1 X154.879 E359.43444 F3000
G0 Y108.479 F7200
G1 X172.119 E360.05372 F3000
G0 Y108.959 F7200
G1 X154.879 E360.67299 F3000
G0 Y109.439 F7200
G1 X172.119 E361.29227 F3000
G0 Y109.919 F7200
G1 X154.879 E361.91155 F3000
G0 Y110.399 F7200
G1 X172.119 E362.53082 F3000
G0 Y110.879 F7200
G1 X154.879 E363.15010 F3000
G0 Y111.359 F7200
G1 X172.119 E363.76938 F3000
G0 Y111.839 F7200
G1 X154.879 E364.38865 F3000
G0 Y112.319 F7200
G1 X172.119 E365.00793 F3000
G0 Y112.799 F7200
G1 X154.879 E365.62721 F3000
G0 Y113.279 F7200
G1 X172.119 E366.24649 F3000
; Inset XP 
G1 F600 E359.74649 ; Retract
G0 X142.360 Y96.140 F7200
G1 F360 E366.24649
G1 Y113.860 E366.88301 F3000
G1 X124.640 E367.51952 F3000
G1 Y96.140 E368.15604 F3000
G1 X142.360 E368.79256 F3000
G0 X142.840 Y95.660 F7200
G1 Y114.340 E369.46357 F3000
G1 X124.160 E370.13457 F3000
G1 Y95.660 E370.80557 F3000
G1 X142.840 E371.47658 F3000
; Inset 0 
G0 X143.290 Y95.210 F7200
G1 Y114.790 E372.09199 F2400
G1 X123.710 E372.70741 F2400
G1 Y95.210 E373.32282 F2400
G1 X143.290 E373.93824 F2400
; Solid infill 
G0 X142.119 Y96.479 F7200
G1 X124.879 E374.55752 F3000
G0 Y96.959 F7200
G1 X142.119 E375.17679 F3000
G0 Y97.439 F7200
G1 X124.879 E375.79607 F3000
G0 Y97.919 F7200
G1 X142.119 E376.41535 F3000
G0 Y98.399 F7200
G1 X124.879 E377.03462 F3000
G0 Y98.879 F7200
G1 X142.119 E377.65390 F3000
G0 Y99.359 F7200
G1 X124.879 E378.27318 F3000
G0 Y99.839 F7200
G1 X142.119 E378.89246 F3000
G0 Y100.319 F7200
G1 X124.879 E379.51173 F3000
G0 Y100.799 F7200
G1 X142.119 E380.13101 F3000
G0 Y101.279 F7200
G1 X124.879 E380.75029 F3000
G0 Y101.759 F7200
G1 X142.119 E381.36956 F3000
G0 Y102.239 F7200
G1 X124.879 E381.98884 F3000
G0 Y102.719 F7200
G1 X142.119 E382.60812 F3000
G0 Y103.199 F7200
G1 X124.879 E383.22739 F3000
G0 Y103.679 F7200
G1 X142.119 E383.84667 F3000
G0 Y104.159 F7200
G1 X124.879 E384.46595 F3000
G0 Y104.639 F7200
G1 X142.119 E385.08523 F3000
G0 Y105.119 F7200
G1 X124.879 E385.70450 F3000
G0 Y105.599 F7200
G1 X142.119 E386.32378 F3000
G0 Y106.079 F7200
G1 X124.879 E386.94306 F3000
G0 Y106.559 F7200
G1 X142.119 E387.56233 F3000
G0 Y107.039 F7200
G1 X124.879 E388.18161 F3000
G0 Y107.519 F7200
G1 X142.119 E388.80089 F3000
G0 Y107.999 F7200
G1 X124.879 E389.42017 F3000
G0 Y108.479 F7200
G1 X142.119 E390.03944 F3000
G0 Y108.959 F7200
G1 X124.879 E390.65872 F3000
G0 Y109.439 F7200
G1 X142.119 E391.27800 F3000
G0 Y109.919 F7200
G1 X124.879 E391.89727 F3000
G0 Y110.399 F7200
G1 X142.119 E392.51655 F3000
G0 Y110.879 F7200
G1 X124.879 E393.13583 F3000
G0 Y111.359 F7200
G1 X142.119 E393.75511 F3000
G0 Y111.839 F7200
G1 X124.879 E394.37438 F3000
G0 Y112.319 F7200
G1 X142.119 E394.99366 F3000
G0 Y112.799 F7200
G1 X124.879 E395.61294 F3000
G0 Y113.279 F7200
G1 X142.119 E396.23221 F3000
; MACROLAYER:4
; LAYER:6
; TIME LEFT: 352.827 S
M532 L6
; Cellular infill 
G1 F600 E389.73221 ; Retract
G0 Z1.050 F1500
G0 X171.840 Y96.379 F7200
G1 F360 E396.23221
G1 Y113.619 E396.85149 F3000
G0 X170.880 F7200
G1 Y96.379 E397.47077 F3000
G0 X169.920 F7200
G1 Y113.619 E398.09005 F3000
G0 X168.960 F7200
G1 Y96.379 E398.70932 F3000
G0 X168 F7200
G1 Y113.619 E399.32860 F3000
G0 X167.040 F7200
G1 Y96.379 E399.94788 F3000
G0 X166.080 F7200
G1 Y113.619 E400.56715 F3000
G0 X165.120 F7200
G1 Y96.379 E401.18643 F3000
G0 X164.160 F7200
G1 Y113.619 E401.80571 F3000
G0 X163.200 F7200
G1 Y96.379 E402.42499 F3000
G0 X162.240 F7200
G1 Y113.619 E403.04426 F3000
G0 X161.280 F7200
G1 Y96.379 E403.66354 F3000
G0 X160.320 F7200
G1 Y113.619 E404.28282 F3000
G0 X159.360 F7200
G1 Y96.379 E404.90209 F3000
G0 X158.400 F7200
G1 Y113.619 E405.52137 F3000
G0 X157.440 F7200
G1 Y96.379 E406.14065 F3000
G0 X156.480 F7200
G1 Y113.619 E406.75992 F3000
G0 X155.520 F7200
G1 Y96.379 E407.37920 F3000
; Inset XP 
G0 X172.360 Y96.140 F7200
G1 Y113.860 E408.01572 F3000
G1 X154.640 E408.65224 F3000
G1 Y96.140 E409.28876 F3000
G1 X172.360 E409.92528 F3000
G0 X172.840 Y95.660 F7200
G1 Y114.340 E410.59628 F3000
G1 X154.160 E411.26729 F3000
G1 Y95.660 E411.93829 F3000
G1 X172.840 E412.60929 F3000
; Inset 0 
G0 X173.290 Y95.210 F7200
G1 Y114.790 E413.22471 F2400
G1 X153.710 E413.84012 F2400
G1 Y95.210 E414.45554 F2400
G1 X173.290 E415.07095 F2400
; Cellular infill 
G0 X172.725 Y95.775 F7200
G1 F600 E408.57095 ; Retract
G0 X142.080 Y96.379 F7200
G1 F360 E415.07095
G1 Y113.619 E415.69023 F3000
G0 X141.120 F7200
G1 Y96.379 E416.30951 F3000
G0 X140.160 F7200
G1 Y113.619 E416.92879 F3000
G0 X139.200 F7200
G1 Y96.379 E417.54806 F3000
G0 X138.240 F7200
G1 Y113.619 E418.16734 F3000
G0 X137.280 F7200
G1 Y96.379 E418.78662 F3000
G0 X136.320 F7200
G1 Y113.619 E419.40589 F3000
G0 X135.360 F7200
G1 Y96.379 E420.02517 F3000
G0 X134.400 F7200
G1 Y113.619 E420.64445 F3000
G0 X133.440 F7200
G1 Y96.379 E421.26373 F3000
G0 X132.480 F7200
G1 Y113.619 E421.88300 F3000
G0 X131.520 F7200
G1 Y96.379 E422.50228 F3000
G0 X130.560 F7200
G1 Y113.619 E423.12156 F3000
G0 X129.600 F7200
G1 Y96.379 E423.74083 F3000
G0 X128.640 F7200
G1 Y113.619 E424.36011 F3000
G0 X127.680 F7200
G1 Y96.379 E424.97939 F3000
G0 X126.720 F7200
G1 Y113.619 E425.59866 F3000
G0 X125.760 F7200
G1 Y96.379 E426.21794 F3000
; Inset XP 
G0 X142.360 Y96.140 F7200
G1 Y113.860 E426.85446 F3000
G1 X124.640 E427.49098 F3000
G1 Y96.140 E428.12750 F3000
G1 X142.360 E428.76402 F3000
G0 X142.840 Y95.660 F7200
G1 Y114.340 E429.43502 F3000
G1 X124.160 E430.10603 F3000
G1 Y95.660 E430.77703 F3000
G1 X142.840 E431.44803 F3000
; Inset 0 
G0 X143.290 Y95.210 F7200
G1 Y114.790 E432.06345 F2400
G1 X123.710 E432.67886 F2400
G1 Y95.210 E433.29428 F2400
G1 X143.290 E433.90969 F2400
; MACROLAYER:4
; LAYER:7
; TIME LEFT: 322.756 S
M532 L7
; Cellular infill 
G0 X142.725 Y95.775 F7200
G1 F600 E427.40969 ; Retract
G0 Z1.230 F1500
G0 X172.119 Y96.959 F7200
G1 F360 E433.90969
G1 X154.879 E434.52897 F3000
G0 Y97.919 F7200
G1 X172.119 E435.14825 F3000
G0 Y98.879 F7200
G1 X154.879 E435.76753 F3000
G0 Y99.839 F7200
G1 X172.119 E436.38680 F3000
G0 Y100.799 F7200
G1 X154.879 E437.00608 F3000
G0 Y101.759 F7200
G1 X172.119 E437.62536 F3000
G0 Y102.719 F7200
G1 X154.879 E438.24463 F3000
G0 Y103.679 F7200
G1 X172.119 E438.86391 F3000
G0 Y104.639 F7200
G1 X154.879 E439.48319 F3000
G0 Y105.599 F7200
G1 X172.119 E440.10247 F3000
G0 Y106.559 F7200
G1 X154.879 E440.72174 F3000
G0 Y107.519 F7200
G1 X172.119 E441.34102 F3000
G0 Y108.479 F7200
G1 X154.879 E441.96030 F3000
G0 Y109.439 F7200
G1 X172.119 E442.57957 F3000
G0 Y110.399 F7200
G1 X154.879 E443.19885 F3000
G0 Y111.359 F7200
G1 X172.119 E443.81813 F3000
G0 Y112.319 F7200
G1 X154.879 E444.43741 F3000
G0 Y113.279 F7200
G1 X172.119 E445.05668 F3000
; Inset XP 
G0 X172.360 Y96.140 F7200
G1 Y113.860 E445.69320 F3000
G1 X154.640 E446.32972 F3000
G1 Y96.140 E446.96624 F3000
G1 X172.360 E447.60276 F3000
G0 X172.840 Y95.660 F7200
G1 Y114.340 E448.27376 F3000
G1 X154.160 E448.94477 F3000
G1 Y95.660 E449.61577 F3000
G1 X172.840 E450.28677 F3000
; Inset 0 
G0 X173.290 Y95.210 F7200
G1 Y114.790 E450.90219 F2400
G1 X153.710 E451.51760 F2400
G1 Y95.210 E452.13302 F2400
G1 X173.290 E452.74843 F2400
; Cellular infill 
G0 X172.725 Y95.775 F7200
G1 F600 E446.24843 ; Retract
G0 X142.119 Y96.959 F7200
G1 F360 E452.74843
G1 X124.879 E453.36771 F3000
G0 Y97.919 F7200
G1 X142.119 E453.98699 F3000
G0 Y98.879 F7200
G1 X124.879 E454.60627 F3000
G0 Y99.839 F7200
G1 X142.119 E455.22554 F3000
G0 Y100.799 F7200
G1 X124.879 E455.84482 F3000
G0 Y101.759 F7200
G1 X142.119 E456.46410 F3000
G0 Y102.719 F7200
G1 X124.879 E457.08337 F3000
G0 Y103.679 F7200
G1 X142.119 E457.70265 F3000
G0 Y104.639 F7200
G1 X124.879 E458.32193 F3000
G0 Y105.599 F7200
G1 X142.119 E458.94121 F3000
G0 Y106.559 F7200
G1 X124.879 E459.56048 F3000
G0 Y107.519 F7200
G1 X142.119 E460.17976 F3000
G0 Y108.479 F7200
G1 X124.879 E460.79904 F3000
G0 Y109.439 F7200
G1 X142.119 E461.41831 F3000
G0 Y110.399 F7200
G1 X124.879 E462.03759 F3000
G0 Y111.359 F7200
G1 X142.119 E462.65687 F3000
G0 Y112.319 F7200
G1 X124.879 E463.27615 F3000
G0 Y113.279 F7200
G1 X142.119 E463.89542 F3000
; Inset XP 
G0 X142.360 Y96.140 F7200
G1 Y113.860 E464.53194 F3000
G1 X124.640 E465.16846 F3000
G1 Y96.140 E465.80498 F3000
G1 X142.360 E466.44150 F3000
G0 X142.840 Y95.660 F7200
G1 Y114.340 E467.11250 F3000
G1 X124.160 E467.78351 F3000
G1 Y95.660 E468.45451 F3000
G1 X142.840 E469.12551 F3000
; Inset 0 
G0 X143.290 Y95.210 F7200
G1 Y114.790 E469.74093 F2400
G1 X123.710 E470.35634 F2400
G1 Y95.210 E470.97176 F2400
G1 X143.290 E471.58717 F2400
; MACROLAYER:5
; LAYER:8
; TIME LEFT: 290.34 S
M532 L8
; Inset XP 
G0 X142.725 Y95.775 F7200
G1 F600 E465.08717 ; Retract
G0 Z1.410 F1500
G0 X172.360 Y96.140 F7200
G1 F360 E471.58717
G1 Y113.860 E472.22369 F3000
G1 X154.640 E472.86021 F3000
G1 Y96.140 E473.49673 F3000
G1 X172.360 E474.13325 F3000
G0 X172.840 Y95.660 F7200
G1 Y114.340 E474.80425 F3000
G1 X154.160 E475.47526 F3000
G1 Y95.660 E476.14626 F3000
G1 X172.840 E476.81726 F3000
; Inset 0 
G0 X173.290 Y95.210 F7200
G1 Y114.790 E477.43268 F2400
G1 X153.710 E478.04810 F2400
G1 Y95.210 E478.66351 F2400
G1 X173.290 E479.27893 F2400
; Solid infill 
G0 X171.840 Y96.379 F7200
G1 Y113.619 E479.89820 F3000
G0 X171.360 F7200
G1 Y96.379 E480.51748 F3000
G0 X170.880 F7200
G1 Y113.619 E481.13676 F3000
G0 X170.400 F7200
G1 Y96.379 E481.75603 F3000
G0 X169.920 F7200
G1 Y113.619 E482.37531 F3000
G0 X169.440 F7200
G1 Y96.379 E482.99459 F3000
G0 X168.960 F7200
G1 Y113.619 E483.61387 F3000
G0 X168.480 F7200
G1 Y96.379 E484.23314 F3000
G0 X168 F7200
G1 Y113.619 E484.85242 F3000
G0 X167.520 F7200
G1 Y96.379 E485.47170 F3000
G0 X167.040 F7200
G1 Y113.619 E486.09097 F3000
G0 X166.560 F7200
G1 Y96.379 E486.71025 F3000
G0 X166.080 F7200
G1 Y113.619 E487.32953 F3000
G0 X165.600 F7200
G1 Y96.379 E487.94881 F3000
G0 X165.120 F7200
G1 Y113.619 E488.56808 F3000
G0 X164.640 F7200
G1 Y96.379 E489.18736 F3000
G0 X164.160 F7200
G1 Y113.619 E489.80664 F3000
G0 X163.680 F7200
G1 Y96.379 E490.42591 F3000
G0 X163.200 F7200
G1 Y113.619 E491.04519 F3000
G0 X162.720 F7200
G1 Y96.379 E491.66447 F3000
G0 X162.240 F7200
G1 Y113.619 E492.28375 F3000
G0 X161.760 F7200
G1 Y96.379 E492.90302 F3000
G0 X161.280 F7200
G1 Y113.619 E493.52230 F3000
G0 X160.800 F7200
G1 Y96.379 E494.14158 F3000
G0 X160.320 F7200
G1 Y113.619 E494.76085 F3000
G0 X159.840 F7200
G1 Y96.379 E495.38013 F3000
G0 X159.360 F7200
G1 Y113.619 E495.99941 F3000
G0 X158.880 F7200
G1 Y96.379 E496.61869 F3000
G0 X158.400 F7200
G1 Y113.619 E497.23796 F3000
G0 X157.920 F7200
G1 Y96.379 E497.85724 F3000
G0 X157.440 F7200
G1 Y113.619 E498.47652 F3000
G0 X156.960 F7200
G1 Y96.379 E499.09579 F3000
G0 X156.480 F7200
G1 Y113.619 E499.71507 F3000
G0 X156 F7200
G1 Y96.379 E500.33435 F3000
G0 X155.520 F7200
G1 Y113.619 E500.95363 F3000
G0 X155.040 F7200
G1 Y96.379 E501.57290 F3000
; Inset XP 
G1 F600 E495.07290 ; Retract
G0 X142.360 Y96.140 F7200
G1 F360 E501.57290
G1 Y113.860 E502.20942 F3000
G1 X124.640 E502.84594 F3000
G1 Y96.140 E503.48246 F3000
G1 X142.360 E504.11898 F3000
G0 X142.840 Y95.660 F7200
G1 Y114.340 E504.78998 F3000
G1 X124.160 E505.46099 F3000
G1 Y95.660 E506.13199 F3000
G1 X142.840 E506.80299 F3000
; Inset 0 
G0 X143.290 Y95.210 F7200
G1 Y114.790 E507.41841 F2400
G1 X123.710 E508.03382 F2400
G1 Y95.210 E508.64924 F2400
G1 X143.290 E509.26465 F2400
; Solid infill 
G0 X142.080 Y96.379 F7200
G1 Y113.619 E509.88393 F3000
G0 X141.600 F7200
G1 Y96.379 E510.50321 F3000
G0 X141.120 F7200
G1 Y113.619 E511.12249 F3000
G0 X140.640 F7200
G1 Y96.379 E511.74176 F3000
G0 X140.160 F7200
G1 Y113.619 E512.36104 F3000
G0 X139.680 F7200
G1 Y96.379 E512.98032 F3000
G0 X139.200 F7200
G1 Y113.619 E513.59959 F3000
G0 X138.720 F7200
G1 Y96.379 E514.21887 F3000
G0 X138.240 F7200
G1 Y113.619 E514.83815 F3000
G0 X137.760 F7200
G1 Y96.379 E515.45743 F3000
G0 X137.280 F7200
G1 Y113.619 E516.07670 F3000
G0 X136.800 F7200
G1 Y96.379 E516.69598 F3000
G0 X136.320 F7200
G1 Y113.619 E517.31526 F3000
G0 X135.840 F7200
G1 Y96.379 E517.93453 F3000
G0 X135.360 F7200
G1 Y113.619 E518.55381 F3000
G0 X134.880 F7200
G1 Y96.379 E519.17309 F3000
G0 X134.400 F7200
G1 Y113.619 E519.79237 F3000
G0 X133.920 F7200
G1 Y96.379 E520.41164 F3000
G0 X133.440 F7200
G1 Y113.619 E521.03092 F3000
G0 X132.960 F7200
G1 Y96.379 E521.65020 F3000
G0 X132.480 F7200
G1 Y113.619 E522.26947 F3000
G0 X132 F7200
G1 Y96.379 E522.88875 F3000
G0 X131.520 F7200
G1 Y113.619 E523.50803 F3000
G0 X131.040 F7200
G1 Y96.379 E524.12730 F3000
G0 X130.560 F7200
G1 Y113.619 E524.74658 F3000
G0 X130.080 F7200
G1 Y96.379 E525.36586 F3000
G0 X129.600 F7200
G1 Y113.619 E525.98514 F3000
G0 X129.120 F7200
G1 Y96.379 E526.60441 F3000
G0 X128.640 F7200
G1 Y113.619 E527.22369 F3000
G0 X128.160 F7200
G1 Y96.379 E527.84297 F3000
G0 X127.680 F7200
G1 Y113.619 E528.46224 F3000
G0 X127.200 F7200
G1 Y96.379 E529.08152 F3000
G0 X126.720 F7200
G1 Y113.619 E529.70080 F3000
G0 X126.240 F7200
G1 Y96.379 E530.32008 F3000
G0 X125.760 F7200
G1 Y113.619 E530.93935 F3000
G0 X125.280 F7200
G1 Y96.379 E531.55863 F3000
; MACROLAYER:5
; LAYER:9
; TIME LEFT: 240.979 S
M532 L9
; Inset XP 
G1 F600 E525.05863 ; Retract
G0 Z1.590 F1500
G0 X172.360 Y96.140 F7200
G1 F360 E531.55863
G1 Y113.860 E532.19515 F3000
G1 X154.640 E532.83167 F3000
G1 Y96.140 E533.46819 F3000
G1 X172.360 E534.10471 F3000
G0 X172.840 Y95.660 F7200
G1 Y114.340 E534.77571 F3000
G1 X154.160 E535.44671 F3000
G1 Y95.660 E536.11772 F3000
G1 X172.840 E536.78872 F3000
; Inset 0 
G0 X173.290 Y95.210 F7200
G1 Y114.790 E537.40414 F2400
G1 X153.710 E538.01955 F2400
G1 Y95.210 E538.63497 F2400
G1 X173.290 E539.25038 F2400
; Solid infill 
G0 X172.119 Y96.479 F7200
G1 X154.879 E539.86966 F3000
G0 Y96.959 F7200
G1 X172.119 E540.48894 F3000
G0 Y97.439 F7200
G1 X154.879 E541.10821 F3000
G0 Y97.919 F7200
G1 X172.119 E541.72749 F3000
G0 Y98.399 F7200
G1 X154.879 E542.34677 F3000
G0 Y98.879 F7200
G1 X172.119 E542.96605 F3000
G0 Y99.359 F7200
G1 X154.879 E543.58532 F3000
G0 Y99.839 F7200
G1 X172.119 E544.20460 F3000
G0 Y100.319 F7200
G1 X154.879 E544.82388 F3000
G0 Y100.799 F7200
G1 X172.119 E545.44315 F3000
G0 Y101.279 F7200
G1 X154.879 E546.06243 F3000
G0 Y101.759 F7200
G1 X172.119 E546.68171 F3000
G0 Y102.239 F7200
G1 X154.879 E547.30098 F3000
G0 Y102.719 F7200
G1 X172.119 E547.92026 F3000
G0 Y103.199 F7200
G1 X154.879 E548.53954 F3000
G0 Y103.679 F7200
G1 X172.119 E549.15882 F3000
G0 Y104.159 F7200
G1 X154.879 E549.77809 F3000
G0 Y104.639 F7200
G1 X172.119 E550.39737 F3000
G0 Y105.119 F7200
G1 X154.879 E551.01665 F3000
G0 Y105.599 F7200
G1 X172.119 E551.63592 F3000
G0 Y106.079 F7200
G1 X154.879 E552.25520 F3000
G0 Y106.559 F7200
G1 X172.119 E552.87448 F3000
G0 Y107.039 F7200
G1 X154.879 E553.49376 F3000
G0 Y107.519 F7200
G1 X172.119 E554.11303 F3000
G0 Y107.999 F7200
G1 X154.879 E554.73231 F3000
G0 Y108.479 F7200
G1 X172.119 E555.35159 F3000
G0 Y108.959 F7200
G1 X154.879 E555.97086 F3000
G0 Y109.439 F7200
G1 X172.119 E556.59014 F3000
G0 Y109.919 F7200
G1 X154.879 E557.20942 F3000
G0 Y110.399 F7200
G1 X172.119 E557.82870 F3000
G0 Y110.879 F7200
G1 X154.879 E558.44797 F3000
G0 Y111.359 F7200
G1 X172.119 E559.06725 F3000
G0 Y111.839 F7200
G1 X154.879 E559.68653 F3000
G0 Y112.319 F7200
G1 X172.119 E560.30580 F3000
G0 Y112.799 F7200
G1 X154.879 E560.92508 F3000
G0 Y113.279 F7200
G1 X172.119 E561.54436 F3000
; Inset XP 
G1 F600 E555.04436 ; Retract
G0 X142.360 Y96.140 F7200
G1 F360 E561.54436
G1 Y113.860 E562.18088 F3000
G1 X124.640 E562.81740 F3000
G1 Y96.140 E563.45392 F3000
G1 X142.360 E564.09043 F3000
G0 X142.840 Y95.660 F7200
G1 Y114.340 E564.76144 F3000
G1 X124.160 E565.43244 F3000
G1 Y95.660 E566.10344 F3000
G1 X142.840 E566.77445 F3000
; Inset 0 
G0 X143.290 Y95.210 F7200
G1 Y114.790 E567.38986 F2400
G1 X123.710 E568.00528 F2400
G1 Y95.210 E568.62069 F2400
G1 X143.290 E569.23611 F2400
; Solid infill 
G0 X142.119 Y96.479 F7200
G1 X124.879 E569.85539 F3000
G0 Y96.959 F7200
G1 X142.119 E570.47466 F3000
G0 Y97.439 F7200
G1 X124.879 E571.09394 F3000
G0 Y97.919 F7200
G1 X142.119 E571.71322 F3000
G0 Y98.399 F7200
G1 X124.879 E572.33250 F3000
G0 Y98.879 F7200
G1 X142.119 E572.95177 F3000
G0 Y99.359 F7200
G1 X124.879 E573.57105 F3000
G0 Y99.839 F7200
G1 X142.119 E574.19033 F3000
G0 Y100.319 F7200
G1 X124.879 E574.80960 F3000
G0 Y100.799 F7200
G1 X142.119 E575.42888 F3000
G0 Y101.279 F7200
G1 X124.879 E576.04816 F3000
G0 Y101.759 F7200
G1 X142.119 E576.66744 F3000
G0 Y102.239 F7200
G1 X124.879 E577.28671 F3000
G0 Y102.719 F7200
G1 X142.119 E577.90599 F3000
G0 Y103.199 F7200
G1 X124.879 E578.52527 F3000
G0 Y103.679 F7200
G1 X142.119 E579.14454 F3000
G0 Y104.159 F7200
G1 X124.879 E579.76382 F3000
G0 Y104.639 F7200
G1 X142.119 E580.38310 F3000
G0 Y105.119 F7200
G1 X124.879 E581.00238 F3000
G0 Y105.599 F7200
G1 X142.119 E581.62165 F3000
G0 Y106.079 F7200
G1 X124.879 E582.24093 F3000
G0 Y106.559 F7200
G1 X142.119 E582.86021 F3000
G0 Y107.039 F7200
G1 X124.879 E583.47948 F3000
G0 Y107.519 F7200
G1 X142.119 E584.09876 F3000
G0 Y107.999 F7200
G1 X124.879 E584.71804 F3000
G0 Y108.479 F7200
G1 X142.119 E585.33732 F3000
G0 Y108.959 F7200
G1 X124.879 E585.95659 F3000
G0 Y109.439 F7200
G1 X142.119 E586.57587 F3000
G0 Y109.919 F7200
G1 X124.879 E587.19515 F3000
G0 Y110.399 F7200
G1 X142.119 E587.81442 F3000
G0 Y110.879 F7200
G1 X124.879 E588.43370 F3000
G0 Y111.359 F7200
G1 X142.119 E589.05298 F3000
G0 Y111.839 F7200
G1 X124.879 E589.67225 F3000
G0 Y112.319 F7200
G1 X142.119 E590.29153 F3000
G0 Y112.799 F7200
G1 X124.879 E590.91081 F3000
G0 Y113.279 F7200
G1 X142.119 E591.53009 F3000
; MACROLAYER:6
; LAYER:10
; TIME LEFT: 193.656 S
M532 L10
; Inset XP 
G1 F600 E585.03009 ; Retract
G0 Z1.770 F1500
G0 X172.360 Y96.140 F7200
G1 F360 E591.53009
G1 Y113.860 E592.16661 F3000
G1 X154.640 E592.80312 F3000
G1 Y96.140 E593.43964 F3000
G1 X172.360 E594.07616 F3000
G0 X172.840 Y95.660 F7200
G1 Y114.340 E594.74717 F3000
G1 X154.160 E595.41817 F3000
G1 Y95.660 E596.08917 F3000
G1 X172.840 E596.76018 F3000
; Inset 0 
G0 X173.290 Y95.210 F7200
G1 Y114.790 E597.37559 F2400
G1 X153.710 E597.99101 F2400
G1 Y95.210 E598.60642 F2400
G1 X173.290 E599.22184 F2400
; Solid infill 
G0 X171.840 Y96.379 F7200
G1 Y113.619 E599.84112 F3000
G0 X171.360 F7200
G1 Y96.379 E600.46039 F3000
G0 X170.880 F7200
G1 Y113.619 E601.07967 F3000
G0 X170.400 F7200
G1 Y96.379 E601.69895 F3000
G0 X169.920 F7200
G1 Y113.619 E602.31822 F3000
G0 X169.440 F7200
G1 Y96.379 E602.93750 F3000
G0 X168.960 F7200
G1 Y113.619 E603.55678 F3000
G0 X168.480 F7200
G1 Y96.379 E604.17606 F3000
G0 X168 F7200
G1 Y113.619 E604.79533 F3000
G0 X167.520 F7200
G1 Y96.379 E605.41461 F3000
G0 X167.040 F7200
G1 Y113.619 E606.03389 F3000
G0 X166.560 F7200
G1 Y96.379 E606.65316 F3000
G0 X166.080 F7200
G1 Y113.619 E607.27244 F3000
G0 X165.600 F7200
G1 Y96.379 E607.89172 F3000
G0 X165.120 F7200
G1 Y113.619 E608.51099 F3000
G0 X164.640 F7200
G1 Y96.379 E609.13027 F3000
G0 X164.160 F7200
G1 Y113.619 E609.74955 F3000
G0 X163.680 F7200
G1 Y96.379 E610.36883 F3000
G0 X163.200 F7200
G1 Y113.619 E610.98810 F3000
G0 X162.720 F7200
G1 Y96.379 E611.60738 F3000
G0 X162.240 F7200
G1 Y113.619 E612.22666 F3000
G0 X161.760 F7200
G1 Y96.379 E612.84593 F3000
G0 X161.280 F7200
G1 Y113.619 E613.46521 F3000
G0 X160.800 F7200
G1 Y96.379 E614.08449 F3000
G0 X160.320 F7200
G1 Y113.619 E614.70377 F3000
G0 X159.840 F7200
G1 Y96.379 E615.32304 F3000
G0 X159.360 F7200
G1 Y113.619 E615.94232 F3000
G0 X158.880 F7200
G1 Y96.379 E616.56160 F3000
G0 X158.400 F7200
G1 Y113.619 E617.18087 F3000
G0 X157.920 F7200
G1 Y96.379 E617.80015 F3000
G0 X157.440 F7200
G1 Y113.619 E618.41943 F3000
G0 X156.960 F7200
G1 Y96.379 E619.03871 F3000
G0 X156.480 F7200
G1 Y113.619 E619.65798 F3000
G0 X156 F7200
G1 Y96.379 E620.27726 F3000
G0 X155.520 F7200
G1 Y113.619 E620.89654 F3000
G0 X155.040 F7200
G1 Y96.379 E621.51581 F3000
; Inset XP 
G1 F600 E615.01581 ; Retract
G0 X142.360 Y96.140 F7200
G1 F360 E621.51581
G1 Y113.860 E622.15233 F3000
G1 X124.640 E622.78885 F3000
G1 Y96.140 E623.42537 F3000
G1 X142.360 E624.06189 F3000
G0 X142.840 Y95.660 F7200
G1 Y114.340 E624.73289 F3000
G1 X124.160 E625.40390 F3000
G1 Y95.660 E626.07490 F3000
G1 X142.840 E626.74590 F3000
; Inset 0 
G0 X143.290 Y95.210 F7200
G1 Y114.790 E627.36132 F2400
G1 X123.710 E627.97674 F2400
G1 Y95.210 E628.59215 F2400
G1 X143.290 E629.20757 F2400
; Solid infill 
G0 X142.080 Y96.379 F7200
G1 Y113.619 E629.82684 F3000
G0 X141.600 F7200
G1 Y96.379 E630.44612 F3000
G0 X141.120 F7200
G1 Y113.619 E631.06540 F3000
G0 X140.640 F7200
G1 Y96.379 E631.68467 F3000
G0 X140.160 F7200
G1 Y113.619 E632.30395 F3000
G0 X139.680 F7200
G1 Y96.379 E632.92323 F3000
G0 X139.200 F7200
G1 Y113.619 E633.54251 F3000
G0 X138.720 F7200
G1 Y96.379 E634.16178 F3000
G0 X138.240 F7200
G1 Y113.619 E634.78106 F3000
G0 X137.760 F7200
G1 Y96.379 E635.40034 F3000
G0 X137.280 F7200
G1 Y113.619 E636.01961 F3000
G0 X136.800 F7200
G1 Y96.379 E636.63889 F3000
G0 X136.320 F7200
G1 Y113.619 E637.25817 F3000
G0 X135.840 F7200
G1 Y96.379 E637.87745 F3000
G0 X135.360 F7200
G1 Y113.619 E638.49672 F3000
G0 X134.880 F7200
G1 Y96.379 E639.11600 F3000
G0 X134.400 F7200
G1 Y113.619 E639.73528 F3000
G0 X133.920 F7200
G1 Y96.379 E640.35455 F3000
G0 X133.440 F7200
G1 Y113.619 E640.97383 F3000
G0 X132.960 F7200
G1 Y96.379 E641.59311 F3000
G0 X132.480 F7200
G1 Y113.619 E642.21239 F3000
G0 X132 F7200
G1 Y96.379 E642.83166 F3000
G0 X131.520 F7200
G1 Y113.619 E643.45094 F3000
G0 X131.040 F7200
G1 Y96.379 E644.07022 F3000
G0 X130.560 F7200
G1 Y113.619 E644.68949 F3000
G0 X130.080 F7200
G1 Y96.379 E645.30877 F3000
G0 X129.600 F7200
G1 Y113.619 E645.92805 F3000
G0 X129.120 F7200
G1 Y96.379 E646.54733 F3000
G0 X128.640 F7200
G1 Y113.619 E647.16660 F3000
G0 X128.160 F7200
G1 Y96.379 E647.78588 F3000
G0 X127.680 F7200
G1 Y113.619 E648.40516 F3000
G0 X127.200 F7200
G1 Y96.379 E649.02443 F3000
G0 X126.720 F7200
G1 Y113.619 E649.64371 F3000
G0 X126.240 F7200
G1 Y96.379 E650.26299 F3000
G0 X125.760 F7200
G1 Y113.619 E650.88227 F3000
G0 X125.280 F7200
G1 Y96.379 E651.50154 F3000
; MACROLAYER:6
; LAYER:11
; TIME LEFT: 146.633 S
M532 L11
; Inset XP 
G1 F600 E645.00154 ; Retract
G0 Z1.950 F1500
G0 X172.360 Y96.140 F7200
G1 F360 E651.50154
G1 Y113.860 E652.13806 F3000
G1 X154.640 E652.77458 F3000
G1 Y96.140 E653.41110 F3000
G1 X172.360 E654.04762 F3000
G0 X172.840 Y95.660 F7200
G1 Y114.340 E654.71862 F3000
G1 X154.160 E655.38963 F3000
G1 Y95.660 E656.06063 F3000
G1 X172.840 E656.73163 F3000
; Inset 0 
G0 X173.290 Y95.210 F7200
G1 Y114.790 E657.34705 F2400
G1 X153.710 E657.96246 F2400
G1 Y95.210 E658.57788 F2400
G1 X173.290 E659.19329 F2400
; Solid infill 
G0 X172.119 Y96.479 F7200
G1 X154.879 E659.81257 F3000
G0 Y96.959 F7200
G1 X172.119 E660.43185 F3000
G0 Y97.439 F7200
G1 X154.879 E661.05113 F3000
G0 Y97.919 F7200
G1 X172.119 E661.67040 F3000
G0 Y98.399 F7200
G1 X154.879 E662.28968 F3000
G0 Y98.879 F7200
G1 X172.119 E662.90896 F3000
G0 Y99.359 F7200
G1 X154.879 E663.52823 F3000
G0 Y99.839 F7200
G1 X172.119 E664.14751 F3000
G0 Y100.319 F7200
G1 X154.879 E664.76679 F3000
G0 Y100.799 F7200
G1 X172.119 E665.38607 F3000
G0 Y101.279 F7200
G1 X154.879 E666.00534 F3000
G0 Y101.759 F7200
G1 X172.119 E666.62462 F3000
G0 Y102.239 F7200
G1 X154.879 E667.24390 F3000
G0 Y102.719 F7200
G1 X172.119 E667.86317 F3000
G0 Y103.199 F7200
G1 X154.879 E668.48245 F3000
G0 Y103.679 F7200
G1 X172.119 E669.10173 F3000
G0 Y104.159 F7200
G1 X154.879 E669.72101 F3000
G0 Y104.639 F7200
G1 X172.119 E670.34028 F3000
G0 Y105.119 F7200
G1 X154.879 E670.95956 F3000
G0 Y105.599 F7200
G1 X172.119 E671.57884 F3000
G0 Y106.079 F7200
G1 X154.879 E672.19811 F3000
G0 Y106.559 F7200
G1 X172.119 E672.81739 F3000
G0 Y107.039 F7200
G1 X154.879 E673.43667 F3000
G0 Y107.519 F7200
G1 X172.119 E674.05594 F3000
G0 Y107.999 F7200
G1 X154.879 E674.67522 F3000
G0 Y108.479 F7200
G1 X172.119 E675.29450 F3000
G0 Y108.959 F7200
G1 X154.879 E675.91378 F3000
G0 Y109.439 F7200
G1 X172.119 E676.53305 F3000
G0 Y109.919 F7200
G1 X154.879 E677.15233 F3000
G0 Y110.399 F7200
G1 X172.119 E677.77161 F3000
G0 Y110.879 F7200
G1 X154.879 E678.39088 F3000
G0 Y111.359 F7200
G1 X172.119 E679.01016 F3000
G0 Y111.839 F7200
G1 X154.879 E679.62944 F3000
G0 Y112.319 F7200
G1 X172.119 E680.24872 F3000
G0 Y112.799 F7200
G1 X154.879 E680.86799 F3000
G0 Y113.279 F7200
G1 X172.119 E681.48727 F3000
; Inset XP 
G1 F600 E674.98727 ; Retract
G0 X142.360 Y96.140 F7200
G1 F360 E681.48727
G1 Y113.860 E682.12379 F3000
G1 X124.640 E682.76031 F3000
G1 Y96.140 E683.39683 F3000
G1 X142.360 E684.03335 F3000
G0 X142.840 Y95.660 F7200
G1 Y114.340 E684.70435 F3000
G1 X124.160 E685.37535 F3000
G1 Y95.660 E686.04636 F3000
G1 X142.840 E686.71736 F3000
; Inset 0 
G0 X143.290 Y95.210 F7200
G1 Y114.790 E687.33278 F2400
G1 X123.710 E687.94819 F2400
G1 Y95.210 E688.56361 F2400
G1 X143.290 E689.17902 F2400
; Solid infill 
G0 X142.119 Y96.479 F7200
G1 X124.879 E689.79830 F3000
G0 Y96.959 F7200
G1 X142.119 E690.41758 F3000
G0 Y97.439 F7200
G1 X124.879 E691.03685 F3000
G0 Y97.919 F7200
G1 X142.119 E691.65613 F3000
G0 Y98.399 F7200
G1 X124.879 E692.27541 F3000
G0 Y98.879 F7200
G1 X142.119 E692.89468 F3000
G0 Y99.359 F7200
G1 X124.879 E693.51396 F3000
G0 Y99.839 F7200
G1 X142.119 E694.13324 F3000
G0 Y100.319 F7200
G1 X124.879 E694.75252 F3000
G0 Y100.799 F7200
G1 X142.119 E695.37179 F3000
G0 Y101.279 F7200
G1 X124.879 E695.99107 F3000
G0 Y101.759 F7200
G1 X142.119 E696.61035 F3000
G0 Y102.239 F7200
G1 X124.879 E697.22962 F3000
G0 Y102.719 F7200
G1 X142.119 E697.84890 F3000
G0 Y103.199 F7200
G1 X124.879 E698.46818 F3000
G0 Y103.679 F7200
G1 X142.119 E699.08746 F3000
G0 Y104.159 F7200
G1 X124.879 E699.70673 F3000
G0 Y104.639 F7200
G1 X142.119 E700.32601 F3000
G0 Y105.119 F7200
G1 X124.879 E700.94529 F3000
G0 Y105.599 F7200
G1 X142.119 E701.56456 F3000
G0 Y106.079 F7200
G1 X124.879 E702.18384 F3000
G0 Y106.559 F7200
G1 X142.119 E702.80312 F3000
G0 Y107.039 F7200
G1 X124.879 E703.42240 F3000
G0 Y107.519 F7200
G1 X142.119 E704.04167 F3000
G0 Y107.999 F7200
G1 X124.879 E704.66095 F3000
G0 Y108.479 F7200
G1 X142.119 E705.28023 F3000
G0 Y108.959 F7200
G1 X124.879 E705.89950 F3000
G0 Y109.439 F7200
G1 X142.119 E706.51878 F3000
G0 Y109.919 F7200
G1 X124.879 E707.13806 F3000
G0 Y110.399 F7200
G1 X142.119 E707.75734 F3000
G0 Y110.879 F7200
G1 X124.879 E708.37661 F3000
G0 Y111.359 F7200
G1 X142.119 E708.99589 F3000
G0 Y111.839 F7200
G1 X124.879 E709.61517 F3000
G0 Y112.319 F7200
G1 X142.119 E710.23444 F3000
G0 Y112.799 F7200
G1 X124.879 E710.85372 F3000
G0 Y113.279 F7200
G1 X142.119 E711.47300 F3000
; MACROLAYER:7
; LAYER:12
; TIME LEFT: 99.31 S
M532 L12
; Inset XP 
G1 F600 E704.97300 ; Retract
G0 Z2.130 F1500
G0 X172.360 Y96.140 F7200
G1 F360 E711.47300
G1 Y113.860 E712.10952 F3000
G1 X154.640 E712.74604 F3000
G1 Y96.140 E713.38256 F3000
G1 X172.360 E714.01907 F3000
G0 X172.840 Y95.660 F7200
G1 Y114.340 E714.69008 F3000
G1 X154.160 E715.36108 F3000
G1 Y95.660 E716.03208 F3000
G1 X172.840 E716.70309 F3000
; Inset 0 
G0 X173.290 Y95.210 F7200
G1 Y114.790 E717.31850 F2400
G1 X153.710 E717.93392 F2400
G1 Y95.210 E718.54933 F2400
G1 X173.290 E719.16475 F2400
; Solid infill 
G0 X171.840 Y96.379 F7200
G1 Y113.619 E719.78403 F3000
G0 X171.360 F7200
G1 Y96.379 E720.40330 F3000
G0 X170.880 F7200
G1 Y113.619 E721.02258 F3000
G0 X170.400 F7200
G1 Y96.379 E721.64186 F3000
G0 X169.920 F7200
G1 Y113.619 E722.26114 F3000
G0 X169.440 F7200
G1 Y96.379 E722.88041 F3000
G0 X168.960 F7200
G1 Y113.619 E723.49969 F3000
G0 X168.480 F7200
G1 Y96.379 E724.11897 F3000
G0 X168 F7200
G1 Y113.619 E724.73824 F3000
G0 X167.520 F7200
G1 Y96.379 E725.35752 F3000
G0 X167.040 F7200
G1 Y113.619 E725.97680 F3000
G0 X166.560 F7200
G1 Y96.379 E726.59608 F3000
G0 X166.080 F7200
G1 Y113.619 E727.21535 F3000
G0 X165.600 F7200
G1 Y96.379 E727.83463 F3000
G0 X165.120 F7200
G1 Y113.619 E728.45391 F3000
G0 X164.640 F7200
G1 Y96.379 E729.07318 F3000
G0 X164.160 F7200
G1 Y113.619 E729.69246 F3000
G0 X163.680 F7200
G1 Y96.379 E730.31174 F3000
G0 X163.200 F7200
G1 Y113.619 E730.93102 F3000
G0 X162.720 F7200
G1 Y96.379 E731.55029 F3000
G0 X162.240 F7200
G1 Y113.619 E732.16957 F3000
G0 X161.760 F7200
G1 Y96.379 E732.78885 F3000
G0 X161.280 F7200
G1 Y113.619 E733.40812 F3000
G0 X160.800 F7200
G1 Y96.379 E734.02740 F3000
G0 X160.320 F7200
G1 Y113.619 E734.64668 F3000
G0 X159.840 F7200
G1 Y96.379 E735.26595 F3000
G0 X159.360 F7200
G1 Y113.619 E735.88523 F3000
G0 X158.880 F7200
G1 Y96.379 E736.50451 F3000
G0 X158.400 F7200
G1 Y113.619 E737.12379 F3000
G0 X157.920 F7200
G1 Y96.379 E737.74306 F3000
G0 X157.440 F7200
G1 Y113.619 E738.36234 F3000
G0 X156.960 F7200
G1 Y96.379 E738.98162 F3000
G0 X156.480 F7200
G1 Y113.619 E739.60089 F3000
G0 X156 F7200
G1 Y96.379 E740.22017 F3000
G0 X155.520 F7200
G1 Y113.619 E740.83945 F3000
G0 X155.040 F7200
G1 Y96.379 E741.45873 F3000
; Inset XP 
G1 F600 E734.95873 ; Retract
G0 X142.360 Y96.140 F7200
G1 F360 E741.45873
G1 Y113.860 E742.09525 F3000
G1 X124.640 E742.73176 F3000
G1 Y96.140 E743.36828 F3000
G1 X142.360 E744.00480 F3000
G0 X142.840 Y95.660 F7200
G1 Y114.340 E744.67581 F3000
G1 X124.160 E745.34681 F3000
G1 Y95.660 E746.01781 F3000
G1 X142.840 E746.68882 F3000
; Inset 0 
G0 X143.290 Y95.210 F7200
G1 Y114.790 E747.30423 F2400
G1 X123.710 E747.91965 F2400
G1 Y95.210 E748.53506 F2400
G1 X143.290 E749.15048 F2400
; Solid infill 
G0 X142.080 Y96.379 F7200
G1 Y113.619 E749.76976 F3000
G0 X141.600 F7200
G1 Y96.379 E750.38903 F3000
G0 X141.120 F7200
G1 Y113.619 E751.00831 F3000
G0 X140.640 F7200
G1 Y96.379 E751.62759 F3000
G0 X140.160 F7200
G1 Y113.619 E752.24686 F3000
G0 X139.680 F7200
G1 Y96.379 E752.86614 F3000
G0 X139.200 F7200
G1 Y113.619 E753.48542 F3000
G0 X138.720 F7200
G1 Y96.379 E754.10469 F3000
G0 X138.240 F7200
G1 Y113.619 E754.72397 F3000
G0 X137.760 F7200
G1 Y96.379 E755.34325 F3000
G0 X137.280 F7200
G1 Y113.619 E755.96253 F3000
G0 X136.800 F7200
G1 Y96.379 E756.58180 F3000
G0 X136.320 F7200
G1 Y113.619 E757.20108 F3000
G0 X135.840 F7200
G1 Y96.379 E757.82036 F3000
G0 X135.360 F7200
G1 Y113.619 E758.43963 F3000
G0 X134.880 F7200
G1 Y96.379 E759.05891 F3000
G0 X134.400 F7200
G1 Y113.619 E759.67819 F3000
G0 X133.920 F7200
G1 Y96.379 E760.29747 F3000
G0 X133.440 F7200
G1 Y113.619 E760.91674 F3000
G0 X132.960 F7200
G1 Y96.379 E761.53602 F3000
G0 X132.480 F7200
G1 Y113.619 E762.15530 F3000
G0 X132 F7200
G1 Y96.379 E762.77457 F3000
G0 X131.520 F7200
G1 Y113.619 E763.39385 F3000
G0 X131.040 F7200
G1 Y96.379 E764.01313 F3000
G0 X130.560 F7200
G1 Y113.619 E764.63241 F3000
G0 X130.080 F7200
G1 Y96.379 E765.25168 F3000
G0 X129.600 F7200
G1 Y113.619 E765.87096 F3000
G0 X129.120 F7200
G1 Y96.379 E766.49024 F3000
G0 X128.640 F7200
G1 Y113.619 E767.10951 F3000
G0 X128.160 F7200
G1 Y96.379 E767.72879 F3000
G0 X127.680 F7200
G1 Y113.619 E768.34807 F3000
G0 X127.200 F7200
G1 Y96.379 E768.96735 F3000
G0 X126.720 F7200
G1 Y113.619 E769.58662 F3000
G0 X126.240 F7200
G1 Y96.379 E770.20590 F3000
G0 X125.760 F7200
G1 Y113.619 E770.82518 F3000
G0 X125.280 F7200
G1 Y96.379 E771.44445 F3000
; MACROLAYER:7
; LAYER:13
; TIME LEFT: 52.288 S
M532 L13
; Inset XP 
G1 F600 E764.94445 ; Retract
G0 Z2.310 F1500
G0 X172.360 Y96.140 F7200
G1 F360 E771.44445
G1 Y113.860 E772.08097 F3000
G1 X154.640 E772.71749 F3000
G1 Y96.140 E773.35401 F3000
G1 X172.360 E773.99053 F3000
G0 X172.840 Y95.660 F7200
G1 Y114.340 E774.66153 F3000
G1 X154.160 E775.33254 F3000
G1 Y95.660 E776.00354 F3000
G1 X172.840 E776.67454 F3000
; Inset 0 
G0 X173.290 Y95.210 F7200
G1 Y114.790 E777.28996 F2400
G1 X153.710 E777.90537 F2400
G1 Y95.210 E778.52079 F2400
G1 X173.290 E779.13621 F2400
; Solid infill 
G0 X172.119 Y96.479 F7200
G1 X154.879 E779.75548 F3000
G0 Y96.959 F7200
G1 X172.119 E780.37476 F3000
G0 Y97.439 F7200
G1 X154.879 E780.99404 F3000
G0 Y97.919 F7200
G1 X172.119 E781.61331 F3000
G0 Y98.399 F7200
G1 X154.879 E782.23259 F3000
G0 Y98.879 F7200
G1 X172.119 E782.85187 F3000
G0 Y99.359 F7200
G1 X154.879 E783.47115 F3000
G0 Y99.839 F7200
G1 X172.119 E784.09042 F3000
G0 Y100.319 F7200
G1 X154.879 E784.70970 F3000
G0 Y100.799 F7200
G1 X172.119 E785.32898 F3000
G0 Y101.279 F7200
G1 X154.879 E785.94825 F3000
G0 Y101.759 F7200
G1 X172.119 E786.56753 F3000
G0 Y102.239 F7200
G1 X154.879 E787.18681 F3000
G0 Y102.719 F7200
G1 X172.119 E787.80609 F3000
G0 Y103.199 F7200
G1 X154.879 E788.42536 F3000
G0 Y103.679 F7200
G1 X172.119 E789.04464 F3000
G0 Y104.159 F7200
G1 X154.879 E789.66392 F3000
G0 Y104.639 F7200
G1 X172.119 E790.28319 F3000
G0 Y105.119 F7200
G1 X154.879 E790.90247 F3000
G0 Y105.599 F7200
G1 X172.119 E791.52175 F3000
G0 Y106.079 F7200
G1 X154.879 E792.14103 F3000
G0 Y106.559 F7200
G1 X172.119 E792.76030 F3000
G0 Y107.039 F7200
G1 X154.879 E793.37958 F3000
G0 Y107.519 F7200
G1 X172.119 E793.99886 F3000
G0 Y107.999 F7200
G1 X154.879 E794.61813 F3000
G0 Y108.479 F7200
G1 X172.119 E795.23741 F3000
G0 Y108.959 F7200
G1 X154.879 E795.85669 F3000
G0 Y109.439 F7200
