; Generated with Anisoprint Aura v2.6.1.3 on 06/23/2025 at 16:37
; Printer Processor Type: MARLIN
; LAYER_COUNT: 13
; PRINTING_MODE: Plastic Only
M530 L13
M104 S220 T0
M140 S60 
G21 
G90 
M82 
G28
M530 S1
G1 Z10 F900
M190 S60 
; Start change extruder 
M400
M109 S220 T0
T0 R ; switch extruder type to:PLASTIC
; End change extruder 
G92 E0 ; reset extrusion
; MACROLAYER:1
; LAYER:1
; TIME LEFT: 779.642 S
M532 L1
M400
M106 P1 S63
G0 Z0.150 F1500
G0 X114.549 Y88.397 F7200
G1 X115.287 Y87.495 E0.03923 F1200
G1 X116.009 Y86.778 E0.07348 F1200
G1 X116.900 Y86.043 E0.11238 F1200
G1 X117.734 Y85.485 E0.14615 F1200
G1 X118.654 Y84.987 E0.18138 F1200
G1 X119.740 Y84.532 E0.22101 F1200
G1 X120.885 Y84.188 E0.26126 F1200
G1 X122.049 Y83.971 E0.30113 F1200
G1 X123.170 Y83.879 E0.33898 F1200
G1 X173.724 Y83.874 E2.04143 F1200
G1 X175.169 Y84 E2.09026 F1200
G1 X176.192 Y84.206 E2.12539 F1200
G1 X177.312 Y84.550 E2.16482 F1200
G1 X178.381 Y85.002 E2.20388 F1200
G1 X179.256 Y85.480 E2.23746 F1200
G1 X180.103 Y86.049 E2.27181 F1200
G1 X181.005 Y86.787 E2.31104 F1200
G1 X181.722 Y87.509 E2.34529 F1200
G1 X182.457 Y88.400 E2.38419 F1200
G1 X183.015 Y89.234 E2.41796 F1200
G1 X183.513 Y90.154 E2.45319 F1200
G1 X183.968 Y91.240 E2.49282 F1200
G1 X184.312 Y92.385 E2.53307 F1200
G1 X184.525 Y93.519 E2.57189 F1200
G1 X184.621 Y94.555 E2.60692 F1200
G1 X184.630 Y95.005 E2.62207 F1200
G1 X184.591 Y115.868 E3.32465 F1200
G1 X184.469 Y116.854 E3.35809 F1200
G1 X184.257 Y117.841 E3.39207 F1200
G1 X183.950 Y118.812 E3.42635 F1200
G1 X183.498 Y119.881 E3.46542 F1200
G1 X183.020 Y120.756 E3.49899 F1200
G1 X182.451 Y121.603 E3.53334 F1200
G1 X181.713 Y122.505 E3.57257 F1200
G1 X180.991 Y123.222 E3.60682 F1200
G1 X180.100 Y123.957 E3.64572 F1200
G1 X179.266 Y124.515 E3.67949 F1200
G1 X178.346 Y125.013 E3.71472 F1200
G1 X177.260 Y125.468 E3.75436 F1200
G1 X176.115 Y125.812 E3.79460 F1200
G1 X174.981 Y126.025 E3.83343 F1200
G1 X173.945 Y126.121 E3.86845 F1200
G1 X173.500 Y126.130 E3.88344 F1200
G1 X122.632 Y126.091 E5.59646 F1200
G1 X121.646 Y125.969 E5.62990 F1200
G1 X120.659 Y125.757 E5.66388 F1200
G1 X119.688 Y125.450 E5.69816 F1200
G1 X118.619 Y124.998 E5.73723 F1200
G1 X117.744 Y124.520 E5.77080 F1200
G1 X116.897 Y123.951 E5.80515 F1200
G1 X115.995 Y123.213 E5.84438 F1200
G1 X115.278 Y122.491 E5.87863 F1200
G1 X114.543 Y121.600 E5.91753 F1200
G1 X113.985 Y120.766 E5.95130 F1200
G1 X113.487 Y119.846 E5.98653 F1200
G1 X113.032 Y118.760 E6.02617 F1200
G1 X112.688 Y117.615 E6.06641 F1200
G1 X112.475 Y116.481 E6.10524 F1200
G1 X112.379 Y115.445 E6.14026 F1200
G1 X112.370 Y114.995 E6.15541 F1200
G1 X112.409 Y94.132 E6.85799 F1200
G1 X112.531 Y93.146 E6.89143 F1200
G1 X112.743 Y92.159 E6.92541 F1200
G1 X113.050 Y91.188 E6.95969 F1200
G1 X113.502 Y90.119 E6.99876 F1200
G1 X113.980 Y89.244 E7.03233 F1200
G1 X114.549 Y88.397 E7.06668 F1200
G0 X114.968 Y88.738 F7200
G1 X115.669 Y87.877 E7.10406 F1200
G1 X116.353 Y87.194 E7.13659 F1200
G1 X117.202 Y86.491 E7.17370 F1200
G1 X117.992 Y85.959 E7.20576 F1200
G1 X118.864 Y85.485 E7.23917 F1200
G1 X119.897 Y85.049 E7.27692 F1200
G1 X120.986 Y84.719 E7.31521 F1200
G1 X122.094 Y84.509 E7.35316 F1200
G1 X123.170 Y84.419 E7.38950 F1200
G1 X173.724 Y84.414 E9.09195 F1200
G1 X175.064 Y84.530 E9.13724 F1200
G1 X176.035 Y84.723 E9.17055 F1200
G1 X177.103 Y85.048 E9.20813 F1200
G1 X178.123 Y85.476 E9.24538 F1200
G1 X178.956 Y85.929 E9.27730 F1200
G1 X179.762 Y86.468 E9.30993 F1200
G1 X180.623 Y87.169 E9.34731 F1200
G1 X181.306 Y87.853 E9.37985 F1200
G1 X182.009 Y88.702 E9.41696 F1200
G1 X182.541 Y89.492 E9.44902 F1200
G1 X183.015 Y90.364 E9.48242 F1200
G1 X183.451 Y91.397 E9.52017 F1200
G1 X183.781 Y92.486 E9.55846 F1200
G1 X183.987 Y93.570 E9.59561 F1200
G1 X184.081 Y94.566 E9.62928 F1200
G1 X184.090 Y95.004 E9.64403 F1200
G1 X184.055 Y115.803 E10.34446 F1200
G1 X183.941 Y116.742 E10.37628 F1200
G1 X183.742 Y117.679 E10.40851 F1200
G1 X183.452 Y118.603 E10.44111 F1200
G1 X183.024 Y119.623 E10.47835 F1200
G1 X182.571 Y120.456 E10.51028 F1200
G1 X182.032 Y121.262 E10.54291 F1200
G1 X181.331 Y122.123 E10.58029 F1200
G1 X180.647 Y122.806 E10.61282 F1200
G1 X179.798 Y123.509 E10.64993 F1200
G1 X179.008 Y124.041 E10.68199 F1200
G1 X178.136 Y124.515 E10.71540 F1200
G1 X177.103 Y124.951 E10.75315 F1200
G1 X176.014 Y125.281 E10.79144 F1200
G1 X174.930 Y125.487 E10.82858 F1200
G1 X173.934 Y125.581 E10.86226 F1200
G1 X173.500 Y125.590 E10.87687 F1200
G1 X122.697 Y125.555 E12.58771 F1200
G1 X121.758 Y125.441 E12.61953 F1200
G1 X120.821 Y125.242 E12.65176 F1200
G1 X119.897 Y124.952 E12.68436 F1200
G1 X118.877 Y124.524 E12.72161 F1200
G1 X118.044 Y124.071 E12.75353 F1200
G1 X117.238 Y123.532 E12.78616 F1200
G1 X116.377 Y122.831 E12.82354 F1200
G1 X115.694 Y122.147 E12.85607 F1200
G1 X114.991 Y121.298 E12.89318 F1200
G1 X114.459 Y120.508 E12.92524 F1200
G1 X113.985 Y119.636 E12.95865 F1200
G1 X113.549 Y118.603 E12.99640 F1200
G1 X113.219 Y117.514 E13.03469 F1200
G1 X113.013 Y116.430 E13.07183 F1200
G1 X112.919 Y115.434 E13.10551 F1200
G1 X112.910 Y114.996 E13.12026 F1200
G1 X112.945 Y94.197 E13.82068 F1200
G1 X113.059 Y93.258 E13.85251 F1200
G1 X113.258 Y92.321 E13.88474 F1200
G1 X113.548 Y91.397 E13.91733 F1200
G1 X113.976 Y90.377 E13.95458 F1200
G1 X114.429 Y89.544 E13.98651 F1200
G1 X114.968 Y88.738 E14.01914 F1200
G0 X115.387 Y89.078 F7200
G1 X116.052 Y88.258 E14.05467 F1200
G1 X116.698 Y87.609 E14.08548 F1200
G1 X117.504 Y86.938 E14.12077 F1200
G1 X118.251 Y86.433 E14.15111 F1200
G1 X119.075 Y85.982 E14.18273 F1200
G1 X120.055 Y85.565 E14.21860 F1200
G1 X121.088 Y85.249 E14.25497 F1200
G1 X122.140 Y85.047 E14.29104 F1200
G1 X123.170 Y84.959 E14.32582 F1200
G1 X173.724 Y84.954 E16.02827 F1200
G1 X174.960 Y85.060 E16.07003 F1200
G1 X175.879 Y85.240 E16.10155 F1200
G1 X176.895 Y85.546 E16.13728 F1200
G1 X177.866 Y85.951 E16.17271 F1200
G1 X178.657 Y86.379 E16.20298 F1200
G1 X179.422 Y86.887 E16.23390 F1200
G1 X180.242 Y87.552 E16.26943 F1200
G1 X180.891 Y88.198 E16.30024 F1200
G1 X181.562 Y89.004 E16.33553 F1200
G1 X182.067 Y89.751 E16.36587 F1200
G1 X182.518 Y90.575 E16.39750 F1200
G1 X182.935 Y91.555 E16.43336 F1200
G1 X183.251 Y92.588 E16.46973 F1200
G1 X183.449 Y93.622 E16.50516 F1200
G1 X183.541 Y94.577 E16.53745 F1200
G1 X183.550 Y95.003 E16.55180 F1200
G1 X183.519 Y115.739 E17.25010 F1200
G1 X183.413 Y116.631 E17.28034 F1200
G1 X183.226 Y117.519 E17.31089 F1200
G1 X182.954 Y118.395 E17.34177 F1200
G1 X182.549 Y119.366 E17.37720 F1200
G1 X182.121 Y120.157 E17.40747 F1200
G1 X181.613 Y120.922 E17.43838 F1200
G1 X180.948 Y121.742 E17.47391 F1200
G1 X180.302 Y122.391 E17.50473 F1200
G1 X179.496 Y123.062 E17.54002 F1200
G1 X178.749 Y123.567 E17.57036 F1200
G1 X177.925 Y124.018 E17.60198 F1200
G1 X176.945 Y124.435 E17.63785 F1200
G1 X175.912 Y124.751 E17.67422 F1200
G1 X174.878 Y124.949 E17.70964 F1200
G1 X173.923 Y125.041 E17.74194 F1200
G1 X173.500 Y125.050 E17.75618 F1200
G1 X122.761 Y125.019 E19.46486 F1200
G1 X121.869 Y124.913 E19.49511 F1200
G1 X120.981 Y124.726 E19.52565 F1200
G1 X120.105 Y124.454 E19.55653 F1200
G1 X119.134 Y124.049 E19.59196 F1200
G1 X118.343 Y123.621 E19.62223 F1200
G1 X117.578 Y123.113 E19.65315 F1200
G1 X116.758 Y122.448 E19.68867 F1200
G1 X116.109 Y121.802 E19.71949 F1200
G1 X115.438 Y120.996 E19.75478 F1200
G1 X114.933 Y120.249 E19.78512 F1200
G1 X114.482 Y119.425 E19.81674 F1200
G1 X114.065 Y118.445 E19.85261 F1200
G1 X113.749 Y117.412 E19.88898 F1200
G1 X113.551 Y116.378 E19.92441 F1200
G1 X113.459 Y115.423 E19.95670 F1200
G1 X113.450 Y114.997 E19.97105 F1200
G1 X113.481 Y94.261 E20.66935 F1200
G1 X113.587 Y93.369 E20.69959 F1200
G1 X113.774 Y92.481 E20.73014 F1200
G1 X114.046 Y91.605 E20.76102 F1200
G1 X114.451 Y90.634 E20.79644 F1200
G1 X114.879 Y89.843 E20.82672 F1200
G1 X115.387 Y89.078 E20.85763 F1200
G0 X115.807 Y89.417 F7200
G1 X116.435 Y88.638 E20.89131 F1200
G1 X117.045 Y88.023 E20.92047 F1200
G1 X117.807 Y87.385 E20.95391 F1200
G1 X118.512 Y86.906 E20.98260 F1200
G1 X119.287 Y86.478 E21.01241 F1200
G1 X120.215 Y86.081 E21.04639 F1200
G1 X121.191 Y85.779 E21.08077 F1200
G1 X122.187 Y85.585 E21.11492 F1200
G1 X123.170 Y85.499 E21.14812 F1200
G1 X173.724 Y85.494 E22.85057 F1200
G1 X174.857 Y85.590 E22.88886 F1200
G1 X175.725 Y85.758 E22.91863 F1200
G1 X176.689 Y86.045 E22.95247 F1200
G1 X177.610 Y86.426 E22.98602 F1200
G1 X178.360 Y86.830 E23.01467 F1200
G1 X179.083 Y87.307 E23.04384 F1200
G1 X179.862 Y87.935 E23.07751 F1200
G1 X180.477 Y88.545 E23.10668 F1200
G1 X181.115 Y89.307 E23.14012 F1200
G1 X181.594 Y90.012 E23.16881 F1200
G1 X182.022 Y90.787 E23.19861 F1200
G1 X182.419 Y91.715 E23.23259 F1200
G1 X182.721 Y92.691 E23.26697 F1200
G1 X182.912 Y93.674 E23.30068 F1200
G1 X183.001 Y94.589 E23.33163 F1200
G1 X183.010 Y95.002 E23.34554 F1200
G1 X182.983 Y115.676 E24.04175 F1200
G1 X182.884 Y116.521 E24.07038 F1200
G1 X182.710 Y117.360 E24.09921 F1200
G1 X182.455 Y118.189 E24.12840 F1200
G1 X182.074 Y119.110 E24.16194 F1200
G1 X181.670 Y119.860 E24.19060 F1200
G1 X181.193 Y120.583 E24.21977 F1200
G1 X180.565 Y121.362 E24.25344 F1200
G1 X179.955 Y121.977 E24.28260 F1200
G1 X179.193 Y122.615 E24.31604 F1200
G1 X178.488 Y123.094 E24.34474 F1200
G1 X177.713 Y123.522 E24.37454 F1200
G1 X176.785 Y123.919 E24.40852 F1200
G1 X175.809 Y124.221 E24.44290 F1200
G1 X174.826 Y124.412 E24.47661 F1200
G1 X173.911 Y124.501 E24.50756 F1200
G1 X173.500 Y124.510 E24.52140 F1200
G1 X122.824 Y124.483 E26.22796 F1200
G1 X121.979 Y124.384 E26.25658 F1200
G1 X121.140 Y124.210 E26.28541 F1200
G1 X120.311 Y123.955 E26.31461 F1200
G1 X119.390 Y123.574 E26.34815 F1200
G1 X118.640 Y123.170 E26.37681 F1200
G1 X117.917 Y122.693 E26.40597 F1200
G1 X117.138 Y122.065 E26.43965 F1200
G1 X116.523 Y121.455 E26.46881 F1200
G1 X115.885 Y120.693 E26.50225 F1200
G1 X115.406 Y119.988 E26.53094 F1200
G1 X114.978 Y119.213 E26.56074 F1200
G1 X114.581 Y118.285 E26.59472 F1200
G1 X114.279 Y117.309 E26.62911 F1200
G1 X114.088 Y116.326 E26.66282 F1200
G1 X113.999 Y115.411 E26.69376 F1200
G1 X113.990 Y114.998 E26.70767 F1200
G1 X114.017 Y94.324 E27.40389 F1200
G1 X114.116 Y93.479 E27.43251 F1200
G1 X114.290 Y92.640 E27.46134 F1200
G1 X114.545 Y91.811 E27.49054 F1200
G1 X114.926 Y90.890 E27.52408 F1200
G1 X115.330 Y90.140 E27.55273 F1200
G1 X115.807 Y89.417 E27.58190 F1200
G0 X116.229 Y89.754 F7200
G1 X116.819 Y89.017 E27.61369 F1200
G1 X117.392 Y88.436 E27.64117 F1200
G1 X118.112 Y87.831 E27.67282 F1200
G1 X118.774 Y87.378 E27.69983 F1200
G1 X119.501 Y86.974 E27.72782 F1200
G1 X120.376 Y86.596 E27.75991 F1200
G1 X121.296 Y86.309 E27.79234 F1200
G1 X122.235 Y86.123 E27.82457 F1200
G1 X123.170 Y86.039 E27.85615 F1200
G1 X173.724 Y86.034 E29.55861 F1200
G1 X174.756 Y86.121 E29.59346 F1200
G1 X175.572 Y86.276 E29.62141 F1200
G1 X176.484 Y86.545 E29.65340 F1200
G1 X177.355 Y86.902 E29.68509 F1200
G1 X178.064 Y87.281 E29.71213 F1200
G1 X178.746 Y87.729 E29.73958 F1200
G1 X179.483 Y88.319 E29.77137 F1200
G1 X180.064 Y88.892 E29.79885 F1200
G1 X180.669 Y89.612 E29.83050 F1200
G1 X181.122 Y90.274 E29.85751 F1200
G1 X181.526 Y91.001 E29.88550 F1200
G1 X181.904 Y91.876 E29.91759 F1200
G1 X182.191 Y92.796 E29.95002 F1200
G1 X182.375 Y93.727 E29.98198 F1200
G1 X182.461 Y94.601 E30.01155 F1200
G1 X182.470 Y95.001 E30.02502 F1200
G1 X182.446 Y115.615 E30.71921 F1200
G1 X182.355 Y116.413 E30.74625 F1200
G1 X182.193 Y117.203 E30.77340 F1200
G1 X181.955 Y117.984 E30.80088 F1200
G1 X181.598 Y118.855 E30.83256 F1200
G1 X181.219 Y119.564 E30.85961 F1200
G1 X180.771 Y120.246 E30.88705 F1200
G1 X180.181 Y120.983 E30.91884 F1200
G1 X179.608 Y121.564 E30.94632 F1200
G1 X178.888 Y122.169 E30.97798 F1200
G1 X178.226 Y122.622 E31.00498 F1200
G1 X177.499 Y123.026 E31.03297 F1200
G1 X176.624 Y123.404 E31.06506 F1200
G1 X175.704 Y123.691 E31.09749 F1200
G1 X174.773 Y123.875 E31.12945 F1200
G1 X173.899 Y123.961 E31.15902 F1200
G1 X173.500 Y123.970 E31.17245 F1200
G1 X122.885 Y123.946 E32.87696 F1200
G1 X122.087 Y123.855 E32.90400 F1200
G1 X121.297 Y123.693 E32.93114 F1200
G1 X120.516 Y123.455 E32.95862 F1200
G1 X119.645 Y123.098 E32.99031 F1200
G1 X118.936 Y122.719 E33.01735 F1200
G1 X118.254 Y122.271 E33.04480 F1200
G1 X117.517 Y121.681 E33.07659 F1200
G1 X116.936 Y121.108 E33.10407 F1200
G1 X116.331 Y120.388 E33.13573 F1200
G1 X115.878 Y119.726 E33.16273 F1200
G1 X115.474 Y118.999 E33.19072 F1200
G1 X115.096 Y118.124 E33.22281 F1200
G1 X114.809 Y117.204 E33.25524 F1200
G1 X114.625 Y116.273 E33.28720 F1200
G1 X114.539 Y115.399 E33.31677 F1200
G1 X114.530 Y114.999 E33.33024 F1200
G1 X114.554 Y94.385 E34.02443 F1200
G1 X114.645 Y93.587 E34.05147 F1200
G1 X114.807 Y92.797 E34.07862 F1200
G1 X115.045 Y92.016 E34.10610 F1200
G1 X115.402 Y91.145 E34.13779 F1200
G1 X115.781 Y90.436 E34.16483 F1200
G1 X116.229 Y89.754 E34.19227 F1200
G0 X116.652 Y90.090 F7200
G1 X117.205 Y89.395 E34.22218 F1200
G1 X117.741 Y88.848 E34.24794 F1200
G1 X118.418 Y88.276 E34.27778 F1200
G1 X119.038 Y87.849 E34.30310 F1200
G1 X119.716 Y87.469 E34.32927 F1200
G1 X120.539 Y87.111 E34.35947 F1200
G1 X121.402 Y86.838 E34.38995 F1200
G1 X122.285 Y86.661 E34.42026 F1200
G1 X123.170 Y86.579 E34.45016 F1200
G1 X173.724 Y86.574 E36.15261 F1200
G1 X174.657 Y86.652 E36.18413 F1200
G1 X175.421 Y86.794 E36.21030 F1200
G1 X176.281 Y87.045 E36.24044 F1200
G1 X177.102 Y87.379 E36.27028 F1200
G1 X177.769 Y87.733 E36.29570 F1200
G1 X178.410 Y88.152 E36.32146 F1200
G1 X179.105 Y88.705 E36.35137 F1200
G1 X179.652 Y89.241 E36.37713 F1200
G1 X180.224 Y89.918 E36.40697 F1200
G1 X180.651 Y90.538 E36.43229 F1200
G1 X181.031 Y91.216 E36.45846 F1200
G1 X181.389 Y92.039 E36.48867 F1200
G1 X181.662 Y92.902 E36.51914 F1200
G1 X181.838 Y93.780 E36.54928 F1200
G1 X181.921 Y94.614 E36.57750 F1200
G1 X181.930 Y95 E36.59050 F1200
G1 X181.909 Y115.556 E37.28274 F1200
G1 X181.826 Y116.306 E37.30813 F1200
G1 X181.676 Y117.047 E37.33359 F1200
G1 X181.455 Y117.781 E37.35939 F1200
G1 X181.121 Y118.602 E37.38923 F1200
G1 X180.767 Y119.269 E37.41465 F1200
G1 X180.348 Y119.910 E37.44041 F1200
G1 X179.795 Y120.605 E37.47032 F1200
G1 X179.259 Y121.152 E37.49608 F1200
G1 X178.582 Y121.724 E37.52592 F1200
G1 X177.962 Y122.151 E37.55124 F1200
G1 X177.284 Y122.531 E37.57741 F1200
G1 X176.461 Y122.889 E37.60761 F1200
G1 X175.598 Y123.162 E37.63809 F1200
G1 X174.720 Y123.338 E37.66823 F1200
G1 X173.886 Y123.421 E37.69645 F1200
G1 X173.500 Y123.430 E37.70945 F1200
G1 X122.944 Y123.409 E39.41197 F1200
G1 X122.194 Y123.326 E39.43736 F1200
G1 X121.453 Y123.176 E39.46282 F1200
G1 X120.719 Y122.955 E39.48861 F1200
G1 X119.898 Y122.621 E39.51845 F1200
G1 X119.231 Y122.267 E39.54388 F1200
G1 X118.590 Y121.848 E39.56964 F1200
G1 X117.895 Y121.295 E39.59954 F1200
G1 X117.348 Y120.759 E39.62530 F1200
G1 X116.776 Y120.082 E39.65514 F1200
G1 X116.349 Y119.462 E39.68047 F1200
G1 X115.969 Y118.784 E39.70663 F1200
G1 X115.611 Y117.961 E39.73684 F1200
G1 X115.338 Y117.098 E39.76732 F1200
G1 X115.162 Y116.220 E39.79746 F1200
G1 X115.079 Y115.386 E39.82568 F1200
G1 X115.070 Y115 E39.83868 F1200
G1 X115.091 Y94.444 E40.53092 F1200
G1 X115.174 Y93.694 E40.55631 F1200
G1 X115.324 Y92.953 E40.58177 F1200
G1 X115.545 Y92.219 E40.60756 F1200
G1 X115.879 Y91.398 E40.63740 F1200
G1 X116.233 Y90.731 E40.66283 F1200
G1 X116.652 Y90.090 E40.68859 F1200
G0 X117.075 Y90.425 F7200
G1 X117.592 Y89.772 E40.71661 F1200
G1 X118.091 Y89.259 E40.74068 F1200
G1 X118.725 Y88.720 E40.76870 F1200
G1 X119.304 Y88.319 E40.79241 F1200
G1 X119.933 Y87.963 E40.81672 F1200
G1 X120.703 Y87.625 E40.84501 F1200
G1 X121.510 Y87.367 E40.87354 F1200
G1 X122.337 Y87.199 E40.90192 F1200
G1 X123.170 Y87.119 E40.93008 F1200
G1 X173.724 Y87.114 E42.63253 F1200
G1 X174.560 Y87.183 E42.66075 F1200
G1 X175.271 Y87.313 E42.68506 F1200
G1 X176.079 Y87.546 E42.71335 F1200
G1 X176.850 Y87.857 E42.74133 F1200
G1 X177.475 Y88.186 E42.76511 F1200
G1 X178.075 Y88.575 E42.78919 F1200
G1 X178.728 Y89.092 E42.81721 F1200
G1 X179.241 Y89.591 E42.84128 F1200
G1 X179.780 Y90.225 E42.86930 F1200
G1 X180.181 Y90.804 E42.89301 F1200
G1 X180.537 Y91.433 E42.91732 F1200
G1 X180.875 Y92.203 E42.94561 F1200
G1 X181.133 Y93.010 E42.97414 F1200
G1 X181.301 Y93.834 E43.00242 F1200
G1 X181.381 Y94.627 E43.02926 F1200
G1 X181.390 Y95 E43.04182 F1200
G1 X181.372 Y115.499 E43.73215 F1200
G1 X181.297 Y116.200 E43.75589 F1200
G1 X181.158 Y116.893 E43.77966 F1200
G1 X180.954 Y117.579 E43.80374 F1200
G1 X180.643 Y118.350 E43.83173 F1200
G1 X180.314 Y118.975 E43.85550 F1200
G1 X179.925 Y119.575 E43.87958 F1200
G1 X179.408 Y120.228 E43.90760 F1200
G1 X178.909 Y120.741 E43.93168 F1200
G1 X178.275 Y121.280 E43.95969 F1200
G1 X177.696 Y121.681 E43.98340 F1200
G1 X177.067 Y122.037 E44.00772 F1200
G1 X176.297 Y122.375 E44.03600 F1200
G1 X175.490 Y122.633 E44.06453 F1200
G1 X174.666 Y122.801 E44.09282 F1200
G1 X173.873 Y122.881 E44.11965 F1200
G1 X173.500 Y122.890 E44.13222 F1200
G1 X123.001 Y122.872 E45.83281 F1200
G1 X122.300 Y122.797 E45.85656 F1200
G1 X121.607 Y122.658 E45.88033 F1200
G1 X120.921 Y122.454 E45.90441 F1200
G1 X120.150 Y122.143 E45.93239 F1200
G1 X119.525 Y121.814 E45.95617 F1200
G1 X118.925 Y121.425 E45.98025 F1200
G1 X118.272 Y120.908 E46.00827 F1200
G1 X117.759 Y120.409 E46.03234 F1200
G1 X117.220 Y119.775 E46.06036 F1200
G1 X116.819 Y119.196 E46.08407 F1200
G1 X116.463 Y118.567 E46.10838 F1200
G1 X116.125 Y117.797 E46.13667 F1200
G1 X115.867 Y116.990 E46.16520 F1200
G1 X115.699 Y116.166 E46.19348 F1200
G1 X115.619 Y115.373 E46.22032 F1200
G1 X115.610 Y115 E46.23288 F1200
G1 X115.628 Y94.501 E46.92321 F1200
G1 X115.703 Y93.800 E46.94695 F1200
G1 X115.842 Y93.107 E46.97072 F1200
G1 X116.046 Y92.421 E46.99480 F1200
G1 X116.357 Y91.650 E47.02279 F1200
G1 X116.686 Y91.025 E47.04656 F1200
G1 X117.075 Y90.425 E47.07064 F1200
G0 X117.499 Y90.759 F7200
G1 X117.981 Y90.147 E47.09687 F1200
G1 X118.442 Y89.669 E47.11923 F1200
G1 X119.034 Y89.163 E47.14543 F1200
G1 X119.572 Y88.788 E47.16749 F1200
G1 X120.152 Y88.457 E47.18995 F1200
G1 X120.869 Y88.139 E47.21635 F1200
G1 X121.620 Y87.896 E47.24292 F1200
G1 X122.390 Y87.736 E47.26939 F1200
G1 X123.170 Y87.659 E47.29576 F1200
G1 X173.724 Y87.654 E48.99821 F1200
G1 X174.465 Y87.715 E49.02323 F1200
G1 X175.123 Y87.832 E49.04573 F1200
G1 X175.878 Y88.047 E49.07217 F1200
G1 X176.600 Y88.336 E49.09833 F1200
G1 X177.183 Y88.640 E49.12046 F1200
G1 X177.741 Y88.999 E49.14278 F1200
G1 X178.353 Y89.481 E49.16902 F1200
G1 X178.831 Y89.942 E49.19138 F1200
G1 X179.337 Y90.534 E49.21758 F1200
G1 X179.712 Y91.072 E49.23964 F1200
G1 X180.043 Y91.652 E49.26210 F1200
G1 X180.361 Y92.369 E49.28850 F1200
G1 X180.604 Y93.120 E49.31507 F1200
G1 X180.764 Y93.889 E49.34151 F1200
G1 X180.841 Y94.641 E49.36693 F1200
G1 X180.850 Y95 E49.37902 F1200
G1 X180.835 Y115.443 E50.06746 F1200
G1 X180.767 Y116.096 E50.08955 F1200
G1 X180.640 Y116.741 E50.11167 F1200
G1 X180.453 Y117.378 E50.13400 F1200
G1 X180.164 Y118.100 E50.16017 F1200
G1 X179.860 Y118.683 E50.18229 F1200
G1 X179.501 Y119.241 E50.20462 F1200
G1 X179.019 Y119.853 E50.23085 F1200
G1 X178.558 Y120.331 E50.25321 F1200
G1 X177.966 Y120.837 E50.27941 F1200
G1 X177.428 Y121.212 E50.30147 F1200
G1 X176.848 Y121.543 E50.32393 F1200
G1 X176.131 Y121.861 E50.35033 F1200
G1 X175.380 Y122.104 E50.37690 F1200
G1 X174.611 Y122.264 E50.40334 F1200
G1 X173.859 Y122.341 E50.42876 F1200
G1 X173.500 Y122.350 E50.44085 F1200
G1 X123.057 Y122.335 E52.13957 F1200
G1 X122.404 Y122.267 E52.16166 F1200
G1 X121.759 Y122.140 E52.18378 F1200
G1 X121.122 Y121.953 E52.20611 F1200
G1 X120.400 Y121.664 E52.23228 F1200
G1 X119.817 Y121.360 E52.25440 F1200
G1 X119.259 Y121.001 E52.27673 F1200
G1 X118.647 Y120.519 E52.30296 F1200
G1 X118.169 Y120.058 E52.32532 F1200
G1 X117.663 Y119.466 E52.35152 F1200
G1 X117.288 Y118.928 E52.37358 F1200
G1 X116.957 Y118.348 E52.39604 F1200
G1 X116.639 Y117.631 E52.42244 F1200
G1 X116.396 Y116.880 E52.44901 F1200
G1 X116.236 Y116.111 E52.47545 F1200
G1 X116.159 Y115.359 E52.50088 F1200
G1 X116.150 Y115 E52.51297 F1200
G1 X116.165 Y94.557 E53.20140 F1200
G1 X116.233 Y93.904 E53.22349 F1200
G1 X116.360 Y93.259 E53.24562 F1200
G1 X116.547 Y92.622 E53.26795 F1200
G1 X116.836 Y91.900 E53.29411 F1200
G1 X117.140 Y91.317 E53.31624 F1200
G1 X117.499 Y90.759 E53.33856 F1200
G0 X117.925 Y91.091 F7200
G1 X118.371 Y90.520 E53.36294 F1200
G1 X118.794 Y90.078 E53.38352 F1200
G1 X119.344 Y89.605 E53.40794 F1200
G1 X119.842 Y89.256 E53.42841 F1200
G1 X120.373 Y88.950 E53.44902 F1200
G1 X121.038 Y88.652 E53.47354 F1200
G1 X121.732 Y88.424 E53.49812 F1200
G1 X122.445 Y88.273 E53.52264 F1200
G1 X123.170 Y88.199 E53.54715 F1200
G1 X173.724 Y88.194 E55.24960 F1200
G1 X174.373 Y88.247 E55.27153 F1200
G1 X174.977 Y88.352 E55.29217 F1200
G1 X175.679 Y88.549 E55.31672 F1200
G1 X176.352 Y88.816 E55.34110 F1200
G1 X176.892 Y89.095 E55.36154 F1200
G1 X177.409 Y89.425 E55.38218 F1200
G1 X177.980 Y89.871 E55.40657 F1200
G1 X178.422 Y90.294 E55.42714 F1200
G1 X178.895 Y90.844 E55.45156 F1200
G1 X179.244 Y91.342 E55.47203 F1200
G1 X179.550 Y91.873 E55.49264 F1200
G1 X179.848 Y92.538 E55.51716 F1200
G1 X180.076 Y93.232 E55.54174 F1200
G1 X180.227 Y93.945 E55.56626 F1200
G1 X180.301 Y94.655 E55.59027 F1200
G1 X180.310 Y95 E55.60189 F1200
G1 X180.298 Y115.389 E56.28850 F1200
G1 X180.237 Y115.993 E56.30895 F1200
G1 X180.121 Y116.591 E56.32945 F1200
G1 X179.951 Y117.179 E56.35006 F1200
G1 X179.684 Y117.852 E56.37444 F1200
G1 X179.405 Y118.392 E56.39489 F1200
G1 X179.075 Y118.909 E56.41553 F1200
G1 X178.629 Y119.480 E56.43991 F1200
G1 X178.206 Y119.922 E56.46049 F1200
G1 X177.656 Y120.395 E56.48490 F1200
G1 X177.158 Y120.744 E56.50538 F1200
G1 X176.627 Y121.050 E56.52599 F1200
G1 X175.962 Y121.348 E56.55050 F1200
G1 X175.268 Y121.576 E56.57509 F1200
G1 X174.555 Y121.727 E56.59960 F1200
G1 X173.845 Y121.801 E56.62361 F1200
G1 X173.500 Y121.810 E56.63523 F1200
G1 X123.111 Y121.798 E58.33212 F1200
G1 X122.507 Y121.737 E58.35257 F1200
G1 X121.909 Y121.621 E58.37307 F1200
G1 X121.321 Y121.451 E58.39368 F1200
G1 X120.648 Y121.184 E58.41807 F1200
G1 X120.108 Y120.905 E58.43851 F1200
G1 X119.591 Y120.575 E58.45915 F1200
G1 X119.020 Y120.129 E58.48353 F1200
G1 X118.578 Y119.706 E58.50411 F1200
G1 X118.105 Y119.156 E58.52852 F1200
G1 X117.756 Y118.658 E58.54900 F1200
G1 X117.450 Y118.127 E58.56961 F1200
G1 X117.152 Y117.462 E58.59412 F1200
G1 X116.924 Y116.768 E58.61871 F1200
G1 X116.773 Y116.055 E58.64322 F1200
G1 X116.699 Y115.345 E58.66723 F1200
G1 X116.690 Y115 E58.67885 F1200
G1 X116.702 Y94.611 E59.36547 F1200
G1 X116.763 Y94.007 E59.38591 F1200
G1 X116.879 Y93.409 E59.40642 F1200
G1 X117.049 Y92.821 E59.42703 F1200
G1 X117.316 Y92.148 E59.45141 F1200
G1 X117.595 Y91.608 E59.47185 F1200
G1 X117.925 Y91.091 E59.49250 F1200
G0 X118.351 Y91.422 F7200
G1 X118.763 Y90.892 E59.51509 F1200
G1 X119.148 Y90.486 E59.53392 F1200
G1 X119.656 Y90.046 E59.55655 F1200
G1 X120.113 Y89.723 E59.57537 F1200
G1 X120.597 Y89.442 E59.59420 F1200
G1 X121.208 Y89.164 E59.61679 F1200
G1 X121.846 Y88.952 E59.63942 F1200
G1 X122.502 Y88.810 E59.66202 F1200
G1 X123.170 Y88.739 E59.68462 F1200
G1 X173.724 Y88.734 E61.38707 F1200
G1 X174.282 Y88.779 E61.40589 F1200
G1 X174.834 Y88.873 E61.42472 F1200
G1 X175.481 Y89.051 E61.44731 F1200
G1 X176.106 Y89.297 E61.46991 F1200
G1 X176.604 Y89.552 E61.48873 F1200
G1 X177.078 Y89.851 E61.50759 F1200
G1 X177.608 Y90.263 E61.53019 F1200
G1 X178.014 Y90.648 E61.54901 F1200
G1 X178.454 Y91.156 E61.57164 F1200
G1 X178.777 Y91.613 E61.59047 F1200
G1 X179.058 Y92.097 E61.60929 F1200
G1 X179.336 Y92.708 E61.63189 F1200
G1 X179.548 Y93.346 E61.65452 F1200
G1 X179.690 Y94.002 E61.67712 F1200
G1 X179.761 Y94.670 E61.69971 F1200
G1 X179.770 Y95 E61.71083 F1200
G1 X179.761 Y115.336 E62.39566 F1200
G1 X179.706 Y115.893 E62.41448 F1200
G1 X179.602 Y116.443 E62.43331 F1200
G1 X179.449 Y116.981 E62.45213 F1200
G1 X179.203 Y117.606 E62.47473 F1200
G1 X178.948 Y118.104 E62.49356 F1200
G1 X178.649 Y118.578 E62.51241 F1200
G1 X178.237 Y119.108 E62.53501 F1200
G1 X177.852 Y119.514 E62.55384 F1200
G1 X177.344 Y119.954 E62.57647 F1200
G1 X176.887 Y120.277 E62.59529 F1200
G1 X176.403 Y120.558 E62.61412 F1200
G1 X175.792 Y120.836 E62.63671 F1200
G1 X175.154 Y121.048 E62.65934 F1200
G1 X174.498 Y121.190 E62.68194 F1200
G1 X173.830 Y121.261 E62.70453 F1200
G1 X173.500 Y121.270 E62.71565 F1200
G1 X123.164 Y121.261 E64.41076 F1200
G1 X122.607 Y121.206 E64.42958 F1200
G1 X122.057 Y121.102 E64.44841 F1200
G1 X121.519 Y120.949 E64.46723 F1200
G1 X120.894 Y120.703 E64.48983 F1200
G1 X120.396 Y120.448 E64.50865 F1200
G1 X119.922 Y120.149 E64.52751 F1200
G1 X119.392 Y119.737 E64.55011 F1200
G1 X118.986 Y119.352 E64.56893 F1200
G1 X118.546 Y118.844 E64.59156 F1200
G1 X118.223 Y118.387 E64.61039 F1200
G1 X117.942 Y117.903 E64.62921 F1200
G1 X117.664 Y117.292 E64.65181 F1200
G1 X117.452 Y116.654 E64.67444 F1200
G1 X117.310 Y115.998 E64.69704 F1200
G1 X117.239 Y115.330 E64.71963 F1200
G1 X117.230 Y115 E64.73075 F1200
G1 X117.239 Y94.664 E65.41558 F1200
G1 X117.294 Y94.107 E65.43440 F1200
G1 X117.398 Y93.557 E65.45323 F1200
G1 X117.551 Y93.019 E65.47205 F1200
G1 X117.797 Y92.394 E65.49465 F1200
G1 X118.052 Y91.896 E65.51347 F1200
G1 X118.351 Y91.422 E65.53233 F1200
; Inset XP 
G1 F600 E59.03233 ; Retract
G0 X172.132 Y96.368 F7200
G1 F360 E65.53233
G1 Y113.632 E66.15247 F1200
G1 X124.868 E67.85024 F1200
G1 Y96.368 E68.47038 F1200
G1 X172.132 E70.16815 F1200
G0 X172.708 Y95.792 F7200
G1 Y114.208 E70.82967 F1200
G1 X124.292 E72.56881 F1200
G1 Y95.792 E73.23034 F1200
G1 X172.708 E74.96948 F1200
; Inset 0 
G0 X173.248 Y95.252 F7200
G1 Y114.748 E75.58226 F1200
G1 X123.752 E77.13796 F1200
G1 Y95.252 E77.75073 F1200
G1 X173.248 E79.30643 F1200
; Solid infill 
G0 X171.844 Y96.767 F7200
G1 X125.156 E80.98351 F1200
G0 Y97.343 F7200
G1 X171.844 E82.66059 F1200
G0 Y97.919 F7200
G1 X125.156 E84.33767 F1200
G0 Y98.495 F7200
G1 X171.844 E86.01474 F1200
G0 Y99.071 F7200
G1 X125.156 E87.69182 F1200
G0 Y99.647 F7200
G1 X171.844 E89.36890 F1200
G0 Y100.223 F7200
G1 X125.156 E91.04597 F1200
G0 Y100.799 F7200
G1 X171.844 E92.72305 F1200
G0 Y101.375 F7200
G1 X125.156 E94.40013 F1200
G0 Y101.951 F7200
G1 X171.844 E96.07721 F1200
G0 Y102.527 F7200
G1 X125.156 E97.75428 F1200
G0 Y103.103 F7200
G1 X171.844 E99.43136 F1200
G0 Y103.679 F7200
G1 X125.156 E101.10844 F1200
G0 Y104.255 F7200
G1 X171.844 E102.78551 F1200
G0 Y104.831 F7200
G1 X125.156 E104.46259 F1200
G0 Y105.407 F7200
G1 X171.844 E106.13967 F1200
G0 Y105.983 F7200
G1 X125.156 E107.81675 F1200
G0 Y106.559 F7200
G1 X171.844 E109.49382 F1200
G0 Y107.135 F7200
G1 X125.156 E111.17090 F1200
G0 Y107.711 F7200
G1 X171.844 E112.84798 F1200
G0 Y108.287 F7200
G1 X125.156 E114.52505 F1200
G0 Y108.863 F7200
G1 X171.844 E116.20213 F1200
G0 Y109.439 F7200
G1 X125.156 E117.87921 F1200
G0 Y110.015 F7200
G1 X171.844 E119.55629 F1200
G0 Y110.591 F7200
G1 X125.156 E121.23336 F1200
G0 Y111.167 F7200
G1 X171.844 E122.91044 F1200
G0 Y111.743 F7200
G1 X125.156 E124.58752 F1200
G0 Y112.319 F7200
G1 X171.844 E126.26459 F1200
G0 Y112.895 F7200
G1 X125.156 E127.94167 F1200
; MACROLAYER:2
; LAYER:2
; TIME LEFT: 606.8 S
M532 L2
; Inset XP 
G1 F600 E121.44167 ; Retract
G0 Z0.330 F1500
G0 X142.360 Y96.140 F7200
G1 F360 E127.94167
G1 Y113.860 E128.57819 F3000
G1 X124.640 E129.21471 F3000
G1 Y96.140 E129.85123 F3000
G1 X142.360 E130.48775 F3000
G0 X142.840 Y95.660 F7200
G1 Y114.340 E131.15875 F3000
G1 X124.160 E131.82975 F3000
G1 Y95.660 E132.50076 F3000
G1 X142.840 E133.17176 F3000
; Inset XP 
G1 F600 E126.67176 ; Retract
G0 X172.360 Y96.140 F7200
G1 F360 E133.17176
G1 Y113.860 E133.80828 F3000
G1 X154.640 E134.44480 F3000
G1 Y96.140 E135.08132 F3000
G1 X172.360 E135.71784 F3000
G0 X172.840 Y95.660 F7200
G1 Y114.340 E136.38884 F3000
G1 X154.160 E137.05984 F3000
G1 Y95.660 E137.73085 F3000
G1 X172.840 E138.40185 F3000
; Inset 0 
G0 X173.290 Y95.210 F7200
G1 Y114.790 E139.01727 F2400
G1 X123.710 E140.57561 F2400
G1 Y95.210 E141.19102 F2400
G1 X173.290 E142.74936 F2400
; Micro infill 
G0 X153.720 Y95.419 F7200
G1 Y114.579 E143.35158 F2400
G0 X153.300 F7200
G1 Y95.419 E143.95379 F2400
G0 X152.880 F7200
G1 Y114.579 E144.55601 F2400
G0 X152.460 F7200
G1 Y95.419 E145.15822 F2400
G0 X152.040 F7200
G1 Y114.579 E145.76044 F2400
G0 X151.620 F7200
G1 Y95.419 E146.36265 F2400
G0 X151.200 F7200
G1 Y114.579 E146.96487 F2400
G0 X150.780 F7200
G1 Y95.419 E147.56708 F2400
G0 X150.360 F7200
G1 Y114.579 E148.16929 F2400
G0 X149.940 F7200
G1 Y95.419 E148.77151 F2400
G0 X149.520 F7200
G1 Y114.579 E149.37372 F2400
G0 X149.100 F7200
G1 Y95.419 E149.97594 F2400
G0 X148.680 F7200
G1 Y114.579 E150.57815 F2400
G0 X148.260 F7200
G1 Y95.419 E151.18037 F2400
G0 X147.840 F7200
G1 Y114.579 E151.78258 F2400
G0 X147.420 F7200
G1 Y95.419 E152.38480 F2400
G0 X147 F7200
G1 Y114.579 E152.98701 F2400
G0 X146.580 F7200
G1 Y95.419 E153.58923 F2400
G0 X146.160 F7200
G1 Y114.579 E154.19144 F2400
G0 X145.740 F7200
G1 Y95.419 E154.79366 F2400
G0 X145.320 F7200
G1 Y114.579 E155.39587 F2400
G0 X144.900 F7200
G1 Y95.419 E155.99809 F2400
G0 X144.480 F7200
G1 Y114.579 E156.60030 F2400
G0 X144.060 F7200
G1 Y95.419 E157.20251 F2400
G0 X143.640 F7200
G1 Y114.579 E157.80473 F2400
G0 X143.220 F7200
G1 Y95.419 E158.40694 F2400
; Solid infill 
G0 X142.080 Y96.379 F7200
G1 Y113.619 E159.02622 F3000
G0 X141.600 F7200
G1 Y96.379 E159.64550 F3000
G0 X141.120 F7200
G1 Y113.619 E160.26478 F3000
G0 X140.640 F7200
G1 Y96.379 E160.88405 F3000
G0 X140.160 F7200
G1 Y113.619 E161.50333 F3000
G0 X139.680 F7200
G1 Y96.379 E162.12261 F3000
G0 X139.200 F7200
G1 Y113.619 E162.74188 F3000
G0 X138.720 F7200
G1 Y96.379 E163.36116 F3000
G0 X138.240 F7200
G1 Y113.619 E163.98044 F3000
G0 X137.760 F7200
G1 Y96.379 E164.59972 F3000
G0 X137.280 F7200
G1 Y113.619 E165.21899 F3000
G0 X136.800 F7200
G1 Y96.379 E165.83827 F3000
G0 X136.320 F7200
G1 Y113.619 E166.45755 F3000
G0 X135.840 F7200
G1 Y96.379 E167.07682 F3000
G0 X135.360 F7200
G1 Y113.619 E167.69610 F3000
G0 X134.880 F7200
G1 Y96.379 E168.31538 F3000
G0 X134.400 F7200
G1 Y113.619 E168.93465 F3000
G0 X133.920 F7200
G1 Y96.379 E169.55393 F3000
G0 X133.440 F7200
G1 Y113.619 E170.17321 F3000
G0 X132.960 F7200
G1 Y96.379 E170.79249 F3000
G0 X132.480 F7200
G1 Y113.619 E171.41176 F3000
G0 X132 F7200
G1 Y96.379 E172.03104 F3000
G0 X131.520 F7200
G1 Y113.619 E172.65032 F3000
G0 X131.040 F7200
G1 Y96.379 E173.26959 F3000
G0 X130.560 F7200
G1 Y113.619 E173.88887 F3000
G0 X130.080 F7200
G1 Y96.379 E174.50815 F3000
G0 X129.600 F7200
G1 Y113.619 E175.12743 F3000
G0 X129.120 F7200
G1 Y96.379 E175.74670 F3000
G0 X128.640 F7200
G1 Y113.619 E176.36598 F3000
G0 X128.160 F7200
G1 Y96.379 E176.98526 F3000
G0 X127.680 F7200
G1 Y113.619 E177.60453 F3000
G0 X127.200 F7200
G1 Y96.379 E178.22381 F3000
G0 X126.720 F7200
G1 Y113.619 E178.84309 F3000
G0 X126.240 F7200
G1 Y96.379 E179.46237 F3000
G0 X125.760 F7200
G1 Y113.619 E180.08164 F3000
G0 X125.280 F7200
G1 Y96.379 E180.70092 F3000
G1 F600 E174.20092 ; Retract
G0 X155.040 F7200
G1 F360 E180.70092
G1 Y113.619 E181.32020 F3000
G0 X155.520 F7200
G1 Y96.379 E181.93947 F3000
G0 X156 F7200
G1 Y113.619 E182.55875 F3000
G0 X156.480 F7200
G1 Y96.379 E183.17803 F3000
G0 X156.960 F7200
G1 Y113.619 E183.79731 F3000
G0 X157.440 F7200
G1 Y96.379 E184.41658 F3000
G0 X157.920 F7200
G1 Y113.619 E185.03586 F3000
G0 X158.400 F7200
G1 Y96.379 E185.65514 F3000
G0 X158.880 F7200
G1 Y113.619 E186.27441 F3000
G0 X159.360 F7200
G1 Y96.379 E186.89369 F3000
G0 X159.840 F7200
G1 Y113.619 E187.51297 F3000
G0 X160.320 F7200
G1 Y96.379 E188.13225 F3000
G0 X160.800 F7200
G1 Y113.619 E188.75152 F3000
G0 X161.280 F7200
G1 Y96.379 E189.37080 F3000
G0 X161.760 F7200
G1 Y113.619 E189.99008 F3000
G0 X162.240 F7200
G1 Y96.379 E190.60935 F3000
G0 X162.720 F7200
G1 Y113.619 E191.22863 F3000
G0 X163.200 F7200
G1 Y96.379 E191.84791 F3000
G0 X163.680 F7200
G1 Y113.619 E192.46718 F3000
G0 X164.160 F7200
G1 Y96.379 E193.08646 F3000
G0 X164.640 F7200
G1 Y113.619 E193.70574 F3000
G0 X165.120 F7200
G1 Y96.379 E194.32502 F3000
G0 X165.600 F7200
G1 Y113.619 E194.94429 F3000
G0 X166.080 F7200
G1 Y96.379 E195.56357 F3000
G0 X166.560 F7200
G1 Y113.619 E196.18285 F3000
G0 X167.040 F7200
G1 Y96.379 E196.80212 F3000
G0 X167.520 F7200
G1 Y113.619 E197.42140 F3000
G0 X168 F7200
G1 Y96.379 E198.04068 F3000
G0 X168.480 F7200
G1 Y113.619 E198.65996 F3000
G0 X168.960 F7200
G1 Y96.379 E199.27923 F3000
G0 X169.440 F7200
G1 Y113.619 E199.89851 F3000
G0 X169.920 F7200
G1 Y96.379 E200.51779 F3000
G0 X170.400 F7200
G1 Y113.619 E201.13706 F3000
G0 X170.880 F7200
G1 Y96.379 E201.75634 F3000
G0 X171.360 F7200
G1 Y113.619 E202.37562 F3000
G0 X171.840 F7200
G1 Y96.379 E202.99490 F3000
; MACROLAYER:2
; LAYER:3
; TIME LEFT: 527.922 S
M532 L3
; Inset XP 
M400
M106 P1 S255
G1 F600 E196.49490 ; Retract
G0 Z0.510 F1500
G0 X142.360 Y96.140 F7200
G1 F360 E202.99490
G1 Y113.860 E203.63141 F3000
G1 X124.640 E204.26793 F3000
G1 Y96.140 E204.90445 F3000
G1 X142.360 E205.54097 F3000
G0 X142.840 Y95.660 F7200
G1 Y114.340 E206.21198 F3000
G1 X124.160 E206.88298 F3000
G1 Y95.660 E207.55398 F3000
G1 X142.840 E208.22499 F3000
; Inset 0 
G0 X143.290 Y95.210 F7200
G1 Y114.790 E208.84040 F2400
G1 X123.710 E209.45582 F2400
G1 Y95.210 E210.07123 F2400
G1 X143.290 E210.68665 F2400
; Solid infill 
G0 X142.119 Y96.479 F7200
G1 X124.879 E211.30592 F3000
G0 Y96.959 F7200
G1 X142.119 E211.92520 F3000
G0 Y97.439 F7200
G1 X124.879 E212.54448 F3000
G0 Y97.919 F7200
G1 X142.119 E213.16376 F3000
G0 Y98.399 F7200
G1 X124.879 E213.78303 F3000
G0 Y98.879 F7200
G1 X142.119 E214.40231 F3000
G0 Y99.359 F7200
G1 X124.879 E215.02159 F3000
G0 Y99.839 F7200
G1 X142.119 E215.64086 F3000
G0 Y100.319 F7200
G1 X124.879 E216.26014 F3000
G0 Y100.799 F7200
G1 X142.119 E216.87942 F3000
G0 Y101.279 F7200
G1 X124.879 E217.49870 F3000
G0 Y101.759 F7200
G1 X142.119 E218.11797 F3000
G0 Y102.239 F7200
G1 X124.879 E218.73725 F3000
G0 Y102.719 F7200
G1 X142.119 E219.35653 F3000
G0 Y103.199 F7200
G1 X124.879 E219.97580 F3000
G0 Y103.679 F7200
G1 X142.119 E220.59508 F3000
G0 Y104.159 F7200
G1 X124.879 E221.21436 F3000
G0 Y104.639 F7200
G1 X142.119 E221.83364 F3000
G0 Y105.119 F7200
G1 X124.879 E222.45291 F3000
G0 Y105.599 F7200
G1 X142.119 E223.07219 F3000
G0 Y106.079 F7200
G1 X124.879 E223.69147 F3000
G0 Y106.559 F7200
G1 X142.119 E224.31074 F3000
G0 Y107.039 F7200
G1 X124.879 E224.93002 F3000
G0 Y107.519 F7200
G1 X142.119 E225.54930 F3000
G0 Y107.999 F7200
G1 X124.879 E226.16858 F3000
G0 Y108.479 F7200
G1 X142.119 E226.78785 F3000
G0 Y108.959 F7200
G1 X124.879 E227.40713 F3000
G0 Y109.439 F7200
G1 X142.119 E228.02641 F3000
G0 Y109.919 F7200
G1 X124.879 E228.64568 F3000
G0 Y110.399 F7200
G1 X142.119 E229.26496 F3000
G0 Y110.879 F7200
G1 X124.879 E229.88424 F3000
G0 Y111.359 F7200
G1 X142.119 E230.50352 F3000
G0 Y111.839 F7200
G1 X124.879 E231.12279 F3000
G0 Y112.319 F7200
G1 X142.119 E231.74207 F3000
G0 Y112.799 F7200
G1 X124.879 E232.36135 F3000
G0 Y113.279 F7200
G1 X142.119 E232.98062 F3000
; Inset XP 
G1 F600 E226.48062 ; Retract
G0 X172.360 Y96.140 F7200
G1 F360 E232.98062
G1 Y113.860 E233.61714 F3000
G1 X154.640 E234.25366 F3000
G1 Y96.140 E234.89018 F3000
G1 X172.360 E235.52670 F3000
G0 X172.840 Y95.660 F7200
G1 Y114.340 E236.19770 F3000
G1 X154.160 E236.86871 F3000
G1 Y95.660 E237.53971 F3000
G1 X172.840 E238.21071 F3000
; Inset 0 
G0 X173.290 Y95.210 F7200
G1 Y114.790 E238.82613 F2400
G1 X153.710 E239.44154 F2400
G1 Y95.210 E240.05696 F2400
G1 X173.290 E240.67238 F2400
; Solid infill 
G0 X172.119 Y96.479 F7200
G1 X154.879 E241.29165 F3000
G0 Y96.959 F7200
G1 X172.119 E241.91093 F3000
G0 Y97.439 F7200
G1 X154.879 E242.53021 F3000
G0 Y97.919 F7200
G1 X172.119 E243.14948 F3000
G0 Y98.399 F7200
G1 X154.879 E243.76876 F3000
G0 Y98.879 F7200
G1 X172.119 E244.38804 F3000
G0 Y99.359 F7200
G1 X154.879 E245.00732 F3000
G0 Y99.839 F7200
G1 X172.119 E245.62659 F3000
G0 Y100.319 F7200
G1 X154.879 E246.24587 F3000
G0 Y100.799 F7200
G1 X172.119 E246.86515 F3000
G0 Y101.279 F7200
G1 X154.879 E247.48442 F3000
G0 Y101.759 F7200
G1 X172.119 E248.10370 F3000
G0 Y102.239 F7200
G1 X154.879 E248.72298 F3000
G0 Y102.719 F7200
G1 X172.119 E249.34226 F3000
G0 Y103.199 F7200
G1 X154.879 E249.96153 F3000
G0 Y103.679 F7200
G1 X172.119 E250.58081 F3000
G0 Y104.159 F7200
G1 X154.879 E251.20009 F3000
G0 Y104.639 F7200
G1 X172.119 E251.81936 F3000
G0 Y105.119 F7200
G1 X154.879 E252.43864 F3000
G0 Y105.599 F7200
G1 X172.119 E253.05792 F3000
G0 Y106.079 F7200
G1 X154.879 E253.67719 F3000
G0 Y106.559 F7200
G1 X172.119 E254.29647 F3000
G0 Y107.039 F7200
G1 X154.879 E254.91575 F3000
G0 Y107.519 F7200
G1 X172.119 E255.53503 F3000
G0 Y107.999 F7200
G1 X154.879 E256.15430 F3000
G0 Y108.479 F7200
G1 X172.119 E256.77358 F3000
G0 Y108.959 F7200
G1 X154.879 E257.39286 F3000
G0 Y109.439 F7200
G1 X172.119 E258.01213 F3000
G0 Y109.919 F7200
G1 X154.879 E258.63141 F3000
G0 Y110.399 F7200
G1 X172.119 E259.25069 F3000
G0 Y110.879 F7200
G1 X154.879 E259.86997 F3000
G0 Y111.359 F7200
G1 X172.119 E260.48924 F3000
G0 Y111.839 F7200
G1 X154.879 E261.10852 F3000
G0 Y112.319 F7200
G1 X172.119 E261.72780 F3000
G0 Y112.799 F7200
G1 X154.879 E262.34707 F3000
G0 Y113.279 F7200
G1 X172.119 E262.96635 F3000
; MACROLAYER:3
; LAYER:4
; TIME LEFT: 480.736 S
M532 L4
; Inset XP 
G1 F600 E256.46635 ; Retract
G0 Z0.690 F1500
G0 X142.360 Y96.140 F7200
G1 F360 E262.96635
G1 Y113.860 E263.60287 F3000
G1 X124.640 E264.23939 F3000
G1 Y96.140 E264.87591 F3000
G1 X142.360 E265.51243 F3000
G0 X142.840 Y95.660 F7200
G1 Y114.340 E266.18343 F3000
G1 X124.160 E266.85443 F3000
G1 Y95.660 E267.52544 F3000
G1 X142.840 E268.19644 F3000
; Inset 0 
G0 X143.290 Y95.210 F7200
G1 Y114.790 E268.81186 F2400
G1 X123.710 E269.42727 F2400
G1 Y95.210 E270.04269 F2400
G1 X143.290 E270.65810 F2400
; Solid infill 
G0 X142.080 Y96.379 F7200
G1 Y113.619 E271.27738 F3000
G0 X141.600 F7200
G1 Y96.379 E271.89666 F3000
G0 X141.120 F7200
G1 Y113.619 E272.51593 F3000
G0 X140.640 F7200
G1 Y96.379 E273.13521 F3000
G0 X140.160 F7200
G1 Y113.619 E273.75449 F3000
G0 X139.680 F7200
G1 Y96.379 E274.37377 F3000
G0 X139.200 F7200
G1 Y113.619 E274.99304 F3000
G0 X138.720 F7200
G1 Y96.379 E275.61232 F3000
G0 X138.240 F7200
G1 Y113.619 E276.23160 F3000
G0 X137.760 F7200
G1 Y96.379 E276.85087 F3000
G0 X137.280 F7200
G1 Y113.619 E277.47015 F3000
G0 X136.800 F7200
G1 Y96.379 E278.08943 F3000
G0 X136.320 F7200
G1 Y113.619 E278.70871 F3000
G0 X135.840 F7200
G1 Y96.379 E279.32798 F3000
G0 X135.360 F7200
G1 Y113.619 E279.94726 F3000
G0 X134.880 F7200
G1 Y96.379 E280.56654 F3000
G0 X134.400 F7200
G1 Y113.619 E281.18581 F3000
G0 X133.920 F7200
G1 Y96.379 E281.80509 F3000
G0 X133.440 F7200
G1 Y113.619 E282.42437 F3000
G0 X132.960 F7200
G1 Y96.379 E283.04365 F3000
G0 X132.480 F7200
G1 Y113.619 E283.66292 F3000
G0 X132 F7200
G1 Y96.379 E284.28220 F3000
G0 X131.520 F7200
G1 Y113.619 E284.90148 F3000
G0 X131.040 F7200
G1 Y96.379 E285.52075 F3000
G0 X130.560 F7200
G1 Y113.619 E286.14003 F3000
G0 X130.080 F7200
G1 Y96.379 E286.75931 F3000
G0 X129.600 F7200
G1 Y113.619 E287.37859 F3000
G0 X129.120 F7200
G1 Y96.379 E287.99786 F3000
G0 X128.640 F7200
G1 Y113.619 E288.61714 F3000
G0 X128.160 F7200
G1 Y96.379 E289.23642 F3000
G0 X127.680 F7200
G1 Y113.619 E289.85569 F3000
G0 X127.200 F7200
G1 Y96.379 E290.47497 F3000
G0 X126.720 F7200
G1 Y113.619 E291.09425 F3000
G0 X126.240 F7200
G1 Y96.379 E291.71353 F3000
G0 X125.760 F7200
G1 Y113.619 E292.33280 F3000
G0 X125.280 F7200
G1 Y96.379 E292.95208 F3000
; Inset XP 
G1 F600 E286.45208 ; Retract
G0 X172.360 Y96.140 F7200
G1 F360 E292.95208
G1 Y113.860 E293.58860 F3000
G1 X154.640 E294.22512 F3000
G1 Y96.140 E294.86164 F3000
G1 X172.360 E295.49816 F3000
G0 X172.840 Y95.660 F7200
G1 Y114.340 E296.16916 F3000
G1 X154.160 E296.84016 F3000
G1 Y95.660 E297.51117 F3000
G1 X172.840 E298.18217 F3000
; Inset 0 
G0 X173.290 Y95.210 F7200
G1 Y114.790 E298.79758 F2400
G1 X153.710 E299.41300 F2400
G1 Y95.210 E300.02842 F2400
G1 X173.290 E300.64383 F2400
; Solid infill 
G0 X171.840 Y96.379 F7200
G1 Y113.619 E301.26311 F3000
G0 X171.360 F7200
G1 Y96.379 E301.88239 F3000
G0 X170.880 F7200
G1 Y113.619 E302.50166 F3000
G0 X170.400 F7200
G1 Y96.379 E303.12094 F3000
G0 X169.920 F7200
G1 Y113.619 E303.74022 F3000
G0 X169.440 F7200
G1 Y96.379 E304.35949 F3000
G0 X168.960 F7200
G1 Y113.619 E304.97877 F3000
G0 X168.480 F7200
G1 Y96.379 E305.59805 F3000
G0 X168 F7200
G1 Y113.619 E306.21733 F3000
G0 X167.520 F7200
G1 Y96.379 E306.83660 F3000
G0 X167.040 F7200
G1 Y113.619 E307.45588 F3000
G0 X166.560 F7200
G1 Y96.379 E308.07516 F3000
G0 X166.080 F7200
G1 Y113.619 E308.69443 F3000
G0 X165.600 F7200
G1 Y96.379 E309.31371 F3000
G0 X165.120 F7200
G1 Y113.619 E309.93299 F3000
G0 X164.640 F7200
G1 Y96.379 E310.55227 F3000
G0 X164.160 F7200
G1 Y113.619 E311.17154 F3000
G0 X163.680 F7200
G1 Y96.379 E311.79082 F3000
G0 X163.200 F7200
G1 Y113.619 E312.41010 F3000
G0 X162.720 F7200
G1 Y96.379 E313.02937 F3000
G0 X162.240 F7200
G1 Y113.619 E313.64865 F3000
G0 X161.760 F7200
G1 Y96.379 E314.26793 F3000
G0 X161.280 F7200
G1 Y113.619 E314.88721 F3000
G0 X160.800 F7200
G1 Y96.379 E315.50648 F3000
G0 X160.320 F7200
G1 Y113.619 E316.12576 F3000
G0 X159.840 F7200
G1 Y96.379 E316.74504 F3000
G0 X159.360 F7200
G1 Y113.619 E317.36431 F3000
G0 X158.880 F7200
G1 Y96.379 E317.98359 F3000
G0 X158.400 F7200
G1 Y113.619 E318.60287 F3000
G0 X157.920 F7200
G1 Y96.379 E319.22214 F3000
G0 X157.440 F7200
G1 Y113.619 E319.84142 F3000
G0 X156.960 F7200
G1 Y96.379 E320.46070 F3000
G0 X156.480 F7200
G1 Y113.619 E321.07998 F3000
G0 X156 F7200
G1 Y96.379 E321.69925 F3000
G0 X155.520 F7200
G1 Y113.619 E322.31853 F3000
G0 X155.040 F7200
G1 Y96.379 E322.93781 F3000
; MACROLAYER:3
; LAYER:5
; TIME LEFT: 433.432 S
M532 L5
; Inset XP 
G1 F600 E316.43781 ; Retract
G0 Z0.870 F1500
G0 X142.360 Y96.140 F7200
G1 F360 E322.93781
G1 Y113.860 E323.57433 F3000
G1 X124.640 E324.21085 F3000
G1 Y96.140 E324.84736 F3000
G1 X142.360 E325.48388 F3000
G0 X142.840 Y95.660 F7200
G1 Y114.340 E326.15489 F3000
G1 X124.160 E326.82589 F3000
G1 Y95.660 E327.49689 F3000
G1 X142.840 E328.16790 F3000
; Inset 0 
G0 X143.290 Y95.210 F7200
G1 Y114.790 E328.78331 F2400
G1 X123.710 E329.39873 F2400
G1 Y95.210 E330.01414 F2400
G1 X143.290 E330.62956 F2400
; Solid infill 
G0 X142.119 Y96.479 F7200
G1 X124.879 E331.24884 F3000
G0 Y96.959 F7200
G1 X142.119 E331.86811 F3000
G0 Y97.439 F7200
G1 X124.879 E332.48739 F3000
G0 Y97.919 F7200
G1 X142.119 E333.10667 F3000
G0 Y98.399 F7200
G1 X124.879 E333.72595 F3000
G0 Y98.879 F7200
G1 X142.119 E334.34522 F3000
G0 Y99.359 F7200
G1 X124.879 E334.96450 F3000
G0 Y99.839 F7200
G1 X142.119 E335.58378 F3000
G0 Y100.319 F7200
G1 X124.879 E336.20305 F3000
G0 Y100.799 F7200
G1 X142.119 E336.82233 F3000
G0 Y101.279 F7200
G1 X124.879 E337.44161 F3000
G0 Y101.759 F7200
G1 X142.119 E338.06088 F3000
G0 Y102.239 F7200
G1 X124.879 E338.68016 F3000
G0 Y102.719 F7200
G1 X142.119 E339.29944 F3000
G0 Y103.199 F7200
G1 X124.879 E339.91872 F3000
G0 Y103.679 F7200
G1 X142.119 E340.53799 F3000
G0 Y104.159 F7200
G1 X124.879 E341.15727 F3000
G0 Y104.639 F7200
G1 X142.119 E341.77655 F3000
G0 Y105.119 F7200
G1 X124.879 E342.39582 F3000
G0 Y105.599 F7200
G1 X142.119 E343.01510 F3000
G0 Y106.079 F7200
G1 X124.879 E343.63438 F3000
G0 Y106.559 F7200
G1 X142.119 E344.25366 F3000
G0 Y107.039 F7200
G1 X124.879 E344.87293 F3000
G0 Y107.519 F7200
G1 X142.119 E345.49221 F3000
G0 Y107.999 F7200
G1 X124.879 E346.11149 F3000
G0 Y108.479 F7200
G1 X142.119 E346.73076 F3000
G0 Y108.959 F7200
G1 X124.879 E347.35004 F3000
G0 Y109.439 F7200
G1 X142.119 E347.96932 F3000
G0 Y109.919 F7200
G1 X124.879 E348.58860 F3000
G0 Y110.399 F7200
G1 X142.119 E349.20787 F3000
G0 Y110.879 F7200
G1 X124.879 E349.82715 F3000
G0 Y111.359 F7200
G1 X142.119 E350.44643 F3000
G0 Y111.839 F7200
G1 X124.879 E351.06570 F3000
G0 Y112.319 F7200
G1 X142.119 E351.68498 F3000
G0 Y112.799 F7200
G1 X124.879 E352.30426 F3000
G0 Y113.279 F7200
G1 X142.119 E352.92354 F3000
; Inset XP 
G1 F600 E346.42354 ; Retract
G0 X172.360 Y96.140 F7200
G1 F360 E352.92354
G1 Y113.860 E353.56005 F3000
G1 X154.640 E354.19657 F3000
G1 Y96.140 E354.83309 F3000
G1 X172.360 E355.46961 F3000
G0 X172.840 Y95.660 F7200
G1 Y114.340 E356.14062 F3000
G1 X154.160 E356.81162 F3000
G1 Y95.660 E357.48262 F3000
G1 X172.840 E358.15363 F3000
; Inset 0 
G0 X173.290 Y95.210 F7200
G1 Y114.790 E358.76904 F2400
G1 X153.710 E359.38446 F2400
G1 Y95.210 E359.99987 F2400
G1 X173.290 E360.61529 F2400
; Solid infill 
G0 X172.119 Y96.479 F7200
G1 X154.879 E361.23456 F3000
G0 Y96.959 F7200
G1 X172.119 E361.85384 F3000
G0 Y97.439 F7200
G1 X154.879 E362.47312 F3000
G0 Y97.919 F7200
G1 X172.119 E363.09240 F3000
G0 Y98.399 F7200
G1 X154.879 E363.71167 F3000
G0 Y98.879 F7200
G1 X172.119 E364.33095 F3000
G0 Y99.359 F7200
G1 X154.879 E364.95023 F3000
G0 Y99.839 F7200
G1 X172.119 E365.56950 F3000
G0 Y100.319 F7200
G1 X154.879 E366.18878 F3000
G0 Y100.799 F7200
G1 X172.119 E366.80806 F3000
G0 Y101.279 F7200
G1 X154.879 E367.42734 F3000
G0 Y101.759 F7200
G1 X172.119 E368.04661 F3000
G0 Y102.239 F7200
G1 X154.879 E368.66589 F3000
G0 Y102.719 F7200
G1 X172.119 E369.28517 F3000
G0 Y103.199 F7200
G1 X154.879 E369.90444 F3000
G0 Y103.679 F7200
G1 X172.119 E370.52372 F3000
G0 Y104.159 F7200
G1 X154.879 E371.14300 F3000
G0 Y104.639 F7200
G1 X172.119 E371.76228 F3000
G0 Y105.119 F7200
G1 X154.879 E372.38155 F3000
G0 Y105.599 F7200
G1 X172.119 E373.00083 F3000
G0 Y106.079 F7200
G1 X154.879 E373.62011 F3000
G0 Y106.559 F7200
G1 X172.119 E374.23938 F3000
G0 Y107.039 F7200
G1 X154.879 E374.85866 F3000
G0 Y107.519 F7200
G1 X172.119 E375.47794 F3000
G0 Y107.999 F7200
G1 X154.879 E376.09722 F3000
G0 Y108.479 F7200
G1 X172.119 E376.71649 F3000
G0 Y108.959 F7200
G1 X154.879 E377.33577 F3000
G0 Y109.439 F7200
G1 X172.119 E377.95505 F3000
G0 Y109.919 F7200
G1 X154.879 E378.57432 F3000
G0 Y110.399 F7200
G1 X172.119 E379.19360 F3000
G0 Y110.879 F7200
G1 X154.879 E379.81288 F3000
G0 Y111.359 F7200
G1 X172.119 E380.43215 F3000
G0 Y111.839 F7200
G1 X154.879 E381.05143 F3000
G0 Y112.319 F7200
G1 X172.119 E381.67071 F3000
G0 Y112.799 F7200
G1 X154.879 E382.28999 F3000
G0 Y113.279 F7200
G1 X172.119 E382.90926 F3000
; MACROLAYER:4
; LAYER:6
; TIME LEFT: 386.391 S
M532 L6
; Cellular infill 
G1 F600 E376.40926 ; Retract
G0 Z1.050 F1500
G0 X125.280 Y96.379 F7200
G1 F360 E382.90926
G1 Y113.619 E383.52854 F3000
G0 X125.760 F7200
G1 Y96.379 E384.14782 F3000
G0 X126.240 F7200
G1 Y113.619 E384.76709 F3000
G0 X126.720 F7200
G1 Y96.379 E385.38637 F3000
G0 X127.200 F7200
G1 Y113.619 E386.00565 F3000
G0 X127.680 F7200
G1 Y96.379 E386.62493 F3000
G0 X128.160 F7200
G1 Y113.619 E387.24420 F3000
G0 X128.640 F7200
G1 Y96.379 E387.86348 F3000
G0 X129.120 F7200
G1 Y113.619 E388.48276 F3000
G0 X129.600 F7200
G1 Y96.379 E389.10203 F3000
G0 X130.080 F7200
G1 Y113.619 E389.72131 F3000
G0 X130.560 F7200
G1 Y96.379 E390.34059 F3000
G0 X131.040 F7200
G1 Y113.619 E390.95987 F3000
G0 X131.520 F7200
G1 Y96.379 E391.57914 F3000
G0 X132 F7200
G1 Y113.619 E392.19842 F3000
G0 X132.480 F7200
G1 Y96.379 E392.81770 F3000
G0 X132.960 F7200
G1 Y113.619 E393.43697 F3000
G0 X133.440 F7200
G1 Y96.379 E394.05625 F3000
G0 X133.920 F7200
G1 Y113.619 E394.67553 F3000
G0 X134.400 F7200
G1 Y96.379 E395.29481 F3000
G0 X134.880 F7200
G1 Y113.619 E395.91408 F3000
G0 X135.360 F7200
G1 Y96.379 E396.53336 F3000
G0 X135.840 F7200
G1 Y113.619 E397.15264 F3000
G0 X136.320 F7200
G1 Y96.379 E397.77191 F3000
G0 X136.800 F7200
G1 Y113.619 E398.39119 F3000
G0 X137.280 F7200
G1 Y96.379 E399.01047 F3000
G0 X137.760 F7200
G1 Y113.619 E399.62975 F3000
G0 X138.240 F7200
G1 Y96.379 E400.24902 F3000
G0 X138.720 F7200
G1 Y113.619 E400.86830 F3000
G0 X139.200 F7200
G1 Y96.379 E401.48758 F3000
G0 X139.680 F7200
G1 Y113.619 E402.10685 F3000
G0 X140.160 F7200
G1 Y96.379 E402.72613 F3000
G0 X140.640 F7200
G1 Y113.619 E403.34541 F3000
G0 X141.120 F7200
G1 Y96.379 E403.96469 F3000
G0 X141.600 F7200
G1 Y113.619 E404.58396 F3000
G0 X142.080 F7200
G1 Y96.379 E405.20324 F3000
; Inset XP 
G0 X142.360 Y96.140 F7200
G1 Y113.860 E405.83976 F3000
G1 X124.640 E406.47628 F3000
G1 Y96.140 E407.11280 F3000
G1 X142.360 E407.74932 F3000
G0 X142.840 Y95.660 F7200
G1 Y114.340 E408.42032 F3000
G1 X124.160 E409.09132 F3000
G1 Y95.660 E409.76233 F3000
G1 X142.840 E410.43333 F3000
; Inset 0 
G0 X143.290 Y95.210 F7200
G1 Y114.790 E411.04874 F2400
G1 X123.710 E411.66416 F2400
G1 Y95.210 E412.27958 F2400
G1 X143.290 E412.89499 F2400
; Cellular infill 
G0 X142.725 Y95.775 F7200
G1 F600 E406.39499 ; Retract
G0 X155.040 Y96.379 F7200
G1 F360 E412.89499
G1 Y113.619 E413.51427 F3000
G0 X155.520 F7200
G1 Y96.379 E414.13355 F3000
G0 X156 F7200
G1 Y113.619 E414.75282 F3000
G0 X156.480 F7200
G1 Y96.379 E415.37210 F3000
G0 X156.960 F7200
G1 Y113.619 E415.99138 F3000
G0 X157.440 F7200
G1 Y96.379 E416.61065 F3000
G0 X157.920 F7200
G1 Y113.619 E417.22993 F3000
G0 X158.400 F7200
G1 Y96.379 E417.84921 F3000
G0 X158.880 F7200
G1 Y113.619 E418.46849 F3000
G0 X159.360 F7200
G1 Y96.379 E419.08776 F3000
G0 X159.840 F7200
G1 Y113.619 E419.70704 F3000
G0 X160.320 F7200
G1 Y96.379 E420.32632 F3000
G0 X160.800 F7200
G1 Y113.619 E420.94559 F3000
G0 X161.280 F7200
G1 Y96.379 E421.56487 F3000
G0 X161.760 F7200
G1 Y113.619 E422.18415 F3000
G0 X162.240 F7200
G1 Y96.379 E422.80343 F3000
G0 X162.720 F7200
G1 Y113.619 E423.42270 F3000
G0 X163.200 F7200
G1 Y96.379 E424.04198 F3000
G0 X163.680 F7200
G1 Y113.619 E424.66126 F3000
G0 X164.160 F7200
G1 Y96.379 E425.28053 F3000
G0 X164.640 F7200
G1 Y113.619 E425.89981 F3000
G0 X165.120 F7200
G1 Y96.379 E426.51909 F3000
G0 X165.600 F7200
G1 Y113.619 E427.13836 F3000
G0 X166.080 F7200
G1 Y96.379 E427.75764 F3000
G0 X166.560 F7200
G1 Y113.619 E428.37692 F3000
G0 X167.040 F7200
G1 Y96.379 E428.99620 F3000
G0 X167.520 F7200
G1 Y113.619 E429.61547 F3000
G0 X168 F7200
G1 Y96.379 E430.23475 F3000
G0 X168.480 F7200
G1 Y113.619 E430.85403 F3000
G0 X168.960 F7200
G1 Y96.379 E431.47330 F3000
G0 X169.440 F7200
G1 Y113.619 E432.09258 F3000
G0 X169.920 F7200
G1 Y96.379 E432.71186 F3000
G0 X170.400 F7200
G1 Y113.619 E433.33114 F3000
G0 X170.880 F7200
G1 Y96.379 E433.95041 F3000
G0 X171.360 F7200
G1 Y113.619 E434.56969 F3000
G0 X171.840 F7200
G1 Y96.379 E435.18897 F3000
; Inset XP 
G0 X172.360 Y96.140 F7200
G1 Y113.860 E435.82549 F3000
G1 X154.640 E436.46201 F3000
G1 Y96.140 E437.09852 F3000
G1 X172.360 E437.73504 F3000
G0 X172.840 Y95.660 F7200
G1 Y114.340 E438.40605 F3000
G1 X154.160 E439.07705 F3000
G1 Y95.660 E439.74805 F3000
G1 X172.840 E440.41906 F3000
; Inset 0 
G0 X173.290 Y95.210 F7200
G1 Y114.790 E441.03447 F2400
G1 X153.710 E441.64989 F2400
G1 Y95.210 E442.26530 F2400
G1 X173.290 E442.88072 F2400
; MACROLAYER:4
; LAYER:7
; TIME LEFT: 341.401 S
M532 L7
; Cellular infill 
G0 X172.725 Y95.775 F7200
G1 F600 E436.38072 ; Retract
G0 Z1.230 F1500
G0 X124.879 Y96.479 F7200
G1 F360 E442.88072
G1 X142.119 E443.50000 F3000
G0 Y96.959 F7200
G1 X124.879 E444.11927 F3000
G0 Y97.439 F7200
G1 X142.119 E444.73855 F3000
G0 Y97.919 F7200
G1 X124.879 E445.35783 F3000
G0 Y98.399 F7200
G1 X142.119 E445.97710 F3000
G0 Y98.879 F7200
G1 X124.879 E446.59638 F3000
G0 Y99.359 F7200
G1 X142.119 E447.21566 F3000
G0 Y99.839 F7200
G1 X124.879 E447.83494 F3000
G0 Y100.319 F7200
G1 X142.119 E448.45421 F3000
G0 Y100.799 F7200
G1 X124.879 E449.07349 F3000
G0 Y101.279 F7200
G1 X142.119 E449.69277 F3000
G0 Y101.759 F7200
G1 X124.879 E450.31204 F3000
G0 Y102.239 F7200
G1 X142.119 E450.93132 F3000
G0 Y102.719 F7200
G1 X124.879 E451.55060 F3000
G0 Y103.199 F7200
G1 X142.119 E452.16988 F3000
G0 Y103.679 F7200
G1 X124.879 E452.78915 F3000
G0 Y104.159 F7200
G1 X142.119 E453.40843 F3000
G0 Y104.639 F7200
G1 X124.879 E454.02771 F3000
G0 Y105.119 F7200
G1 X142.119 E454.64698 F3000
G0 Y105.599 F7200
G1 X124.879 E455.26626 F3000
G0 Y106.079 F7200
G1 X142.119 E455.88554 F3000
G0 Y106.559 F7200
G1 X124.879 E456.50482 F3000
G0 Y107.039 F7200
G1 X142.119 E457.12409 F3000
G0 Y107.519 F7200
G1 X124.879 E457.74337 F3000
G0 Y107.999 F7200
G1 X142.119 E458.36265 F3000
G0 Y108.479 F7200
G1 X124.879 E458.98192 F3000
G0 Y108.959 F7200
G1 X142.119 E459.60120 F3000
G0 Y109.439 F7200
G1 X124.879 E460.22048 F3000
G0 Y109.919 F7200
G1 X142.119 E460.83976 F3000
G0 Y110.399 F7200
G1 X124.879 E461.45903 F3000
G0 Y110.879 F7200
G1 X142.119 E462.07831 F3000
G0 Y111.359 F7200
G1 X124.879 E462.69759 F3000
G0 Y111.839 F7200
G1 X142.119 E463.31686 F3000
G0 Y112.319 F7200
G1 X124.879 E463.93614 F3000
G0 Y112.799 F7200
G1 X142.119 E464.55542 F3000
G0 Y113.279 F7200
G1 X124.879 E465.17470 F3000
; Inset XP 
G1 F600 E458.67470 ; Retract
G0 X142.360 Y96.140 F7200
G1 F360 E465.17470
G1 Y113.860 E465.81121 F3000
G1 X124.640 E466.44773 F3000
G1 Y96.140 E467.08425 F3000
G1 X142.360 E467.72077 F3000
G0 X142.840 Y95.660 F7200
G1 Y114.340 E468.39178 F3000
G1 X124.160 E469.06278 F3000
G1 Y95.660 E469.73378 F3000
G1 X142.840 E470.40478 F3000
; Inset 0 
G0 X143.290 Y95.210 F7200
G1 Y114.790 E471.02020 F2400
G1 X123.710 E471.63562 F2400
G1 Y95.210 E472.25103 F2400
G1 X143.290 E472.86645 F2400
; Cellular infill 
G0 X142.725 Y95.775 F7200
G1 F600 E466.36645 ; Retract
G0 X154.879 Y96.479 F7200
G1 F360 E472.86645
G1 X172.119 E473.48572 F3000
G0 Y96.959 F7200
G1 X154.879 E474.10500 F3000
G0 Y97.439 F7200
G1 X172.119 E474.72428 F3000
G0 Y97.919 F7200
G1 X154.879 E475.34356 F3000
G0 Y98.399 F7200
G1 X172.119 E475.96283 F3000
G0 Y98.879 F7200
G1 X154.879 E476.58211 F3000
G0 Y99.359 F7200
G1 X172.119 E477.20139 F3000
G0 Y99.839 F7200
G1 X154.879 E477.82066 F3000
G0 Y100.319 F7200
G1 X172.119 E478.43994 F3000
G0 Y100.799 F7200
G1 X154.879 E479.05922 F3000
G0 Y101.279 F7200
G1 X172.119 E479.67850 F3000
G0 Y101.759 F7200
G1 X154.879 E480.29777 F3000
G0 Y102.239 F7200
G1 X172.119 E480.91705 F3000
G0 Y102.719 F7200
G1 X154.879 E481.53633 F3000
G0 Y103.199 F7200
G1 X172.119 E482.15560 F3000
G0 Y103.679 F7200
G1 X154.879 E482.77488 F3000
G0 Y104.159 F7200
G1 X172.119 E483.39416 F3000
G0 Y104.639 F7200
G1 X154.879 E484.01344 F3000
G0 Y105.119 F7200
G1 X172.119 E484.63271 F3000
G0 Y105.599 F7200
G1 X154.879 E485.25199 F3000
G0 Y106.079 F7200
G1 X172.119 E485.87127 F3000
G0 Y106.559 F7200
G1 X154.879 E486.49054 F3000
G0 Y107.039 F7200
G1 X172.119 E487.10982 F3000
G0 Y107.519 F7200
G1 X154.879 E487.72910 F3000
G0 Y107.999 F7200
G1 X172.119 E488.34837 F3000
G0 Y108.479 F7200
G1 X154.879 E488.96765 F3000
G0 Y108.959 F7200
G1 X172.119 E489.58693 F3000
G0 Y109.439 F7200
G1 X154.879 E490.20621 F3000
G0 Y109.919 F7200
G1 X172.119 E490.82548 F3000
G0 Y110.399 F7200
G1 X154.879 E491.44476 F3000
G0 Y110.879 F7200
G1 X172.119 E492.06404 F3000
G0 Y111.359 F7200
G1 X154.879 E492.68331 F3000
G0 Y111.839 F7200
G1 X172.119 E493.30259 F3000
G0 Y112.319 F7200
G1 X154.879 E493.92187 F3000
G0 Y112.799 F7200
G1 X172.119 E494.54115 F3000
G0 Y113.279 F7200
G1 X154.879 E495.16042 F3000
; Inset XP 
G1 F600 E488.66042 ; Retract
G0 X172.360 Y96.140 F7200
G1 F360 E495.16042
G1 Y113.860 E495.79694 F3000
G1 X154.640 E496.43346 F3000
G1 Y96.140 E497.06998 F3000
G1 X172.360 E497.70650 F3000
G0 X172.840 Y95.660 F7200
G1 Y114.340 E498.37750 F3000
G1 X154.160 E499.04851 F3000
G1 Y95.660 E499.71951 F3000
G1 X172.840 E500.39051 F3000
; Inset 0 
G0 X173.290 Y95.210 F7200
G1 Y114.790 E501.00593 F2400
G1 X153.710 E501.62134 F2400
G1 Y95.210 E502.23676 F2400
G1 X173.290 E502.85218 F2400
; MACROLAYER:5
; LAYER:8
; TIME LEFT: 291.169 S
M532 L8
; Inset XP 
G0 X172.725 Y95.775 F7200
G1 F600 E496.35218 ; Retract
G0 Z1.410 F1500
G0 X142.360 Y96.140 F7200
G1 F360 E502.85218
G1 Y113.860 E503.48869 F3000
G1 X124.640 E504.12521 F3000
G1 Y96.140 E504.76173 F3000
G1 X142.360 E505.39825 F3000
G0 X142.840 Y95.660 F7200
G1 Y114.340 E506.06926 F3000
G1 X124.160 E506.74026 F3000
G1 Y95.660 E507.41126 F3000
G1 X142.840 E508.08226 F3000
; Inset 0 
G0 X143.290 Y95.210 F7200
G1 Y114.790 E508.69768 F2400
G1 X123.710 E509.31310 F2400
G1 Y95.210 E509.92851 F2400
G1 X143.290 E510.54393 F2400
; Solid infill 
G0 X142.080 Y96.379 F7200
G1 Y113.619 E511.16320 F3000
G0 X141.600 F7200
G1 Y96.379 E511.78248 F3000
G0 X141.120 F7200
G1 Y113.619 E512.40176 F3000
G0 X140.640 F7200
G1 Y96.379 E513.02104 F3000
G0 X140.160 F7200
G1 Y113.619 E513.64031 F3000
G0 X139.680 F7200
G1 Y96.379 E514.25959 F3000
G0 X139.200 F7200
G1 Y113.619 E514.87887 F3000
G0 X138.720 F7200
G1 Y96.379 E515.49814 F3000
G0 X138.240 F7200
G1 Y113.619 E516.11742 F3000
G0 X137.760 F7200
G1 Y96.379 E516.73670 F3000
G0 X137.280 F7200
G1 Y113.619 E517.35598 F3000
G0 X136.800 F7200
G1 Y96.379 E517.97525 F3000
G0 X136.320 F7200
G1 Y113.619 E518.59453 F3000
G0 X135.840 F7200
G1 Y96.379 E519.21381 F3000
G0 X135.360 F7200
G1 Y113.619 E519.83308 F3000
G0 X134.880 F7200
G1 Y96.379 E520.45236 F3000
G0 X134.400 F7200
G1 Y113.619 E521.07164 F3000
G0 X133.920 F7200
G1 Y96.379 E521.69092 F3000
G0 X133.440 F7200
G1 Y113.619 E522.31019 F3000
G0 X132.960 F7200
G1 Y96.379 E522.92947 F3000
G0 X132.480 F7200
G1 Y113.619 E523.54875 F3000
G0 X132 F7200
G1 Y96.379 E524.16802 F3000
G0 X131.520 F7200
G1 Y113.619 E524.78730 F3000
G0 X131.040 F7200
G1 Y96.379 E525.40658 F3000
G0 X130.560 F7200
G1 Y113.619 E526.02586 F3000
G0 X130.080 F7200
G1 Y96.379 E526.64513 F3000
G0 X129.600 F7200
G1 Y113.619 E527.26441 F3000
G0 X129.120 F7200
G1 Y96.379 E527.88369 F3000
G0 X128.640 F7200
G1 Y113.619 E528.50296 F3000
G0 X128.160 F7200
G1 Y96.379 E529.12224 F3000
G0 X127.680 F7200
G1 Y113.619 E529.74152 F3000
G0 X127.200 F7200
G1 Y96.379 E530.36079 F3000
G0 X126.720 F7200
G1 Y113.619 E530.98007 F3000
G0 X126.240 F7200
G1 Y96.379 E531.59935 F3000
G0 X125.760 F7200
G1 Y113.619 E532.21863 F3000
G0 X125.280 F7200
G1 Y96.379 E532.83790 F3000
; Inset XP 
G1 F600 E526.33790 ; Retract
G0 X172.360 Y96.140 F7200
G1 F360 E532.83790
G1 Y113.860 E533.47442 F3000
G1 X154.640 E534.11094 F3000
G1 Y96.140 E534.74746 F3000
G1 X172.360 E535.38398 F3000
G0 X172.840 Y95.660 F7200
G1 Y114.340 E536.05498 F3000
G1 X154.160 E536.72599 F3000
G1 Y95.660 E537.39699 F3000
G1 X172.840 E538.06799 F3000
; Inset 0 
G0 X173.290 Y95.210 F7200
G1 Y114.790 E538.68341 F2400
G1 X153.710 E539.29882 F2400
G1 Y95.210 E539.91424 F2400
G1 X173.290 E540.52966 F2400
; Solid infill 
G0 X171.840 Y96.379 F7200
G1 Y113.619 E541.14893 F3000
G0 X171.360 F7200
G1 Y96.379 E541.76821 F3000
G0 X170.880 F7200
G1 Y113.619 E542.38749 F3000
G0 X170.400 F7200
G1 Y96.379 E543.00676 F3000
G0 X169.920 F7200
G1 Y113.619 E543.62604 F3000
G0 X169.440 F7200
G1 Y96.379 E544.24532 F3000
G0 X168.960 F7200
G1 Y113.619 E544.86460 F3000
G0 X168.480 F7200
G1 Y96.379 E545.48387 F3000
G0 X168 F7200
G1 Y113.619 E546.10315 F3000
G0 X167.520 F7200
G1 Y96.379 E546.72243 F3000
G0 X167.040 F7200
G1 Y113.619 E547.34170 F3000
G0 X166.560 F7200
G1 Y96.379 E547.96098 F3000
G0 X166.080 F7200
G1 Y113.619 E548.58026 F3000
G0 X165.600 F7200
G1 Y96.379 E549.19953 F3000
G0 X165.120 F7200
G1 Y113.619 E549.81881 F3000
G0 X164.640 F7200
G1 Y96.379 E550.43809 F3000
G0 X164.160 F7200
G1 Y113.619 E551.05737 F3000
G0 X163.680 F7200
G1 Y96.379 E551.67664 F3000
G0 X163.200 F7200
G1 Y113.619 E552.29592 F3000
G0 X162.720 F7200
G1 Y96.379 E552.91520 F3000
G0 X162.240 F7200
G1 Y113.619 E553.53447 F3000
G0 X161.760 F7200
G1 Y96.379 E554.15375 F3000
G0 X161.280 F7200
G1 Y113.619 E554.77303 F3000
G0 X160.800 F7200
G1 Y96.379 E555.39231 F3000
G0 X160.320 F7200
G1 Y113.619 E556.01158 F3000
G0 X159.840 F7200
G1 Y96.379 E556.63086 F3000
G0 X159.360 F7200
G1 Y113.619 E557.25014 F3000
G0 X158.880 F7200
G1 Y96.379 E557.86941 F3000
G0 X158.400 F7200
G1 Y113.619 E558.48869 F3000
G0 X157.920 F7200
G1 Y96.379 E559.10797 F3000
G0 X157.440 F7200
G1 Y113.619 E559.72725 F3000
G0 X156.960 F7200
G1 Y96.379 E560.34652 F3000
G0 X156.480 F7200
G1 Y113.619 E560.96580 F3000
G0 X156 F7200
G1 Y96.379 E561.58508 F3000
G0 X155.520 F7200
G1 Y113.619 E562.20435 F3000
G0 X155.040 F7200
G1 Y96.379 E562.82363 F3000
; MACROLAYER:5
; LAYER:9
; TIME LEFT: 240.696 S
M532 L9
; Inset XP 
G1 F600 E556.32363 ; Retract
G0 Z1.590 F1500
G0 X142.360 Y96.140 F7200
G1 F360 E562.82363
G1 Y113.860 E563.46015 F3000
G1 X124.640 E564.09667 F3000
G1 Y96.140 E564.73319 F3000
G1 X142.360 E565.36971 F3000
G0 X142.840 Y95.660 F7200
G1 Y114.340 E566.04071 F3000
G1 X124.160 E566.71171 F3000
G1 Y95.660 E567.38272 F3000
G1 X142.840 E568.05372 F3000
; Inset 0 
G0 X143.290 Y95.210 F7200
G1 Y114.790 E568.66914 F2400
G1 X123.710 E569.28455 F2400
G1 Y95.210 E569.89997 F2400
G1 X143.290 E570.51538 F2400
; Solid infill 
G0 X142.119 Y96.479 F7200
G1 X124.879 E571.13466 F3000
G0 Y96.959 F7200
G1 X142.119 E571.75394 F3000
G0 Y97.439 F7200
G1 X124.879 E572.37321 F3000
G0 Y97.919 F7200
G1 X142.119 E572.99249 F3000
G0 Y98.399 F7200
G1 X124.879 E573.61177 F3000
G0 Y98.879 F7200
G1 X142.119 E574.23105 F3000
G0 Y99.359 F7200
G1 X124.879 E574.85032 F3000
G0 Y99.839 F7200
G1 X142.119 E575.46960 F3000
G0 Y100.319 F7200
G1 X124.879 E576.08888 F3000
G0 Y100.799 F7200
G1 X142.119 E576.70815 F3000
G0 Y101.279 F7200
G1 X124.879 E577.32743 F3000
G0 Y101.759 F7200
G1 X142.119 E577.94671 F3000
G0 Y102.239 F7200
G1 X124.879 E578.56599 F3000
G0 Y102.719 F7200
G1 X142.119 E579.18526 F3000
G0 Y103.199 F7200
G1 X124.879 E579.80454 F3000
G0 Y103.679 F7200
G1 X142.119 E580.42382 F3000
G0 Y104.159 F7200
G1 X124.879 E581.04309 F3000
G0 Y104.639 F7200
G1 X142.119 E581.66237 F3000
G0 Y105.119 F7200
G1 X124.879 E582.28165 F3000
G0 Y105.599 F7200
G1 X142.119 E582.90093 F3000
G0 Y106.079 F7200
G1 X124.879 E583.52020 F3000
G0 Y106.559 F7200
G1 X142.119 E584.13948 F3000
G0 Y107.039 F7200
G1 X124.879 E584.75876 F3000
G0 Y107.519 F7200
G1 X142.119 E585.37803 F3000
G0 Y107.999 F7200
G1 X124.879 E585.99731 F3000
G0 Y108.479 F7200
G1 X142.119 E586.61659 F3000
G0 Y108.959 F7200
G1 X124.879 E587.23587 F3000
G0 Y109.439 F7200
G1 X142.119 E587.85514 F3000
G0 Y109.919 F7200
G1 X124.879 E588.47442 F3000
G0 Y110.399 F7200
G1 X142.119 E589.09370 F3000
G0 Y110.879 F7200
G1 X124.879 E589.71297 F3000
G0 Y111.359 F7200
G1 X142.119 E590.33225 F3000
G0 Y111.839 F7200
G1 X124.879 E590.95153 F3000
G0 Y112.319 F7200
G1 X142.119 E591.57080 F3000
G0 Y112.799 F7200
G1 X124.879 E592.19008 F3000
G0 Y113.279 F7200
G1 X142.119 E592.80936 F3000
; Inset XP 
G1 F600 E586.30936 ; Retract
G0 X172.360 Y96.140 F7200
G1 F360 E592.80936
G1 Y113.860 E593.44588 F3000
G1 X154.640 E594.08240 F3000
G1 Y96.140 E594.71892 F3000
G1 X172.360 E595.35544 F3000
G0 X172.840 Y95.660 F7200
G1 Y114.340 E596.02644 F3000
G1 X154.160 E596.69744 F3000
G1 Y95.660 E597.36845 F3000
G1 X172.840 E598.03945 F3000
; Inset 0 
G0 X173.290 Y95.210 F7200
G1 Y114.790 E598.65486 F2400
G1 X153.710 E599.27028 F2400
G1 Y95.210 E599.88570 F2400
G1 X173.290 E600.50111 F2400
; Solid infill 
G0 X172.119 Y96.479 F7200
G1 X154.879 E601.12039 F3000
G0 Y96.959 F7200
G1 X172.119 E601.73967 F3000
G0 Y97.439 F7200
G1 X154.879 E602.35894 F3000
G0 Y97.919 F7200
G1 X172.119 E602.97822 F3000
G0 Y98.399 F7200
G1 X154.879 E603.59750 F3000
G0 Y98.879 F7200
G1 X172.119 E604.21677 F3000
G0 Y99.359 F7200
G1 X154.879 E604.83605 F3000
G0 Y99.839 F7200
G1 X172.119 E605.45533 F3000
G0 Y100.319 F7200
G1 X154.879 E606.07461 F3000
G0 Y100.799 F7200
G1 X172.119 E606.69388 F3000
G0 Y101.279 F7200
G1 X154.879 E607.31316 F3000
G0 Y101.759 F7200
G1 X172.119 E607.93244 F3000
G0 Y102.239 F7200
G1 X154.879 E608.55171 F3000
G0 Y102.719 F7200
G1 X172.119 E609.17099 F3000
G0 Y103.199 F7200
G1 X154.879 E609.79027 F3000
G0 Y103.679 F7200
G1 X172.119 E610.40955 F3000
G0 Y104.159 F7200
G1 X154.879 E611.02882 F3000
G0 Y104.639 F7200
G1 X172.119 E611.64810 F3000
G0 Y105.119 F7200
G1 X154.879 E612.26738 F3000
G0 Y105.599 F7200
G1 X172.119 E612.88665 F3000
G0 Y106.079 F7200
G1 X154.879 E613.50593 F3000
G0 Y106.559 F7200
G1 X172.119 E614.12521 F3000
G0 Y107.039 F7200
G1 X154.879 E614.74448 F3000
G0 Y107.519 F7200
G1 X172.119 E615.36376 F3000
G0 Y107.999 F7200
G1 X154.879 E615.98304 F3000
G0 Y108.479 F7200
G1 X172.119 E616.60232 F3000
G0 Y108.959 F7200
G1 X154.879 E617.22159 F3000
G0 Y109.439 F7200
G1 X172.119 E617.84087 F3000
G0 Y109.919 F7200
G1 X154.879 E618.46015 F3000
G0 Y110.399 F7200
G1 X172.119 E619.07942 F3000
G0 Y110.879 F7200
G1 X154.879 E619.69870 F3000
G0 Y111.359 F7200
G1 X172.119 E620.31798 F3000
G0 Y111.839 F7200
G1 X154.879 E620.93726 F3000
G0 Y112.319 F7200
G1 X172.119 E621.55653 F3000
G0 Y112.799 F7200
G1 X154.879 E622.17581 F3000
G0 Y113.279 F7200
G1 X172.119 E622.79509 F3000
; MACROLAYER:6
; LAYER:10
; TIME LEFT: 193.656 S
M532 L10
; Inset XP 
G1 F600 E616.29509 ; Retract
G0 Z1.770 F1500
G0 X142.360 Y96.140 F7200
G1 F360 E622.79509
G1 Y113.860 E623.43161 F3000
G1 X124.640 E624.06813 F3000
G1 Y96.140 E624.70464 F3000
G1 X142.360 E625.34116 F3000
G0 X142.840 Y95.660 F7200
G1 Y114.340 E626.01217 F3000
G1 X124.160 E626.68317 F3000
G1 Y95.660 E627.35417 F3000
G1 X142.840 E628.02518 F3000
; Inset 0 
G0 X143.290 Y95.210 F7200
G1 Y114.790 E628.64059 F2400
G1 X123.710 E629.25601 F2400
G1 Y95.210 E629.87142 F2400
G1 X143.290 E630.48684 F2400
; Solid infill 
G0 X142.080 Y96.379 F7200
G1 Y113.619 E631.10612 F3000
G0 X141.600 F7200
G1 Y96.379 E631.72539 F3000
G0 X141.120 F7200
G1 Y113.619 E632.34467 F3000
G0 X140.640 F7200
G1 Y96.379 E632.96395 F3000
G0 X140.160 F7200
G1 Y113.619 E633.58322 F3000
G0 X139.680 F7200
G1 Y96.379 E634.20250 F3000
G0 X139.200 F7200
G1 Y113.619 E634.82178 F3000
G0 X138.720 F7200
G1 Y96.379 E635.44106 F3000
G0 X138.240 F7200
G1 Y113.619 E636.06033 F3000
G0 X137.760 F7200
G1 Y96.379 E636.67961 F3000
G0 X137.280 F7200
G1 Y113.619 E637.29889 F3000
G0 X136.800 F7200
G1 Y96.379 E637.91816 F3000
G0 X136.320 F7200
G1 Y113.619 E638.53744 F3000
G0 X135.840 F7200
G1 Y96.379 E639.15672 F3000
G0 X135.360 F7200
G1 Y113.619 E639.77600 F3000
G0 X134.880 F7200
G1 Y96.379 E640.39527 F3000
G0 X134.400 F7200
G1 Y113.619 E641.01455 F3000
G0 X133.920 F7200
G1 Y96.379 E641.63383 F3000
G0 X133.440 F7200
G1 Y113.619 E642.25310 F3000
G0 X132.960 F7200
G1 Y96.379 E642.87238 F3000
G0 X132.480 F7200
G1 Y113.619 E643.49166 F3000
G0 X132 F7200
G1 Y96.379 E644.11094 F3000
G0 X131.520 F7200
G1 Y113.619 E644.73021 F3000
G0 X131.040 F7200
G1 Y96.379 E645.34949 F3000
G0 X130.560 F7200
G1 Y113.619 E645.96877 F3000
G0 X130.080 F7200
G1 Y96.379 E646.58804 F3000
G0 X129.600 F7200
G1 Y113.619 E647.20732 F3000
G0 X129.120 F7200
G1 Y96.379 E647.82660 F3000
G0 X128.640 F7200
G1 Y113.619 E648.44588 F3000
G0 X128.160 F7200
G1 Y96.379 E649.06515 F3000
G0 X127.680 F7200
G1 Y113.619 E649.68443 F3000
G0 X127.200 F7200
G1 Y96.379 E650.30371 F3000
G0 X126.720 F7200
G1 Y113.619 E650.92298 F3000
G0 X126.240 F7200
G1 Y96.379 E651.54226 F3000
G0 X125.760 F7200
G1 Y113.619 E652.16154 F3000
G0 X125.280 F7200
G1 Y96.379 E652.78082 F3000
; Inset XP 
G1 F600 E646.28082 ; Retract
G0 X172.360 Y96.140 F7200
G1 F360 E652.78082
G1 Y113.860 E653.41733 F3000
G1 X154.640 E654.05385 F3000
G1 Y96.140 E654.69037 F3000
G1 X172.360 E655.32689 F3000
G0 X172.840 Y95.660 F7200
G1 Y114.340 E655.99790 F3000
G1 X154.160 E656.66890 F3000
G1 Y95.660 E657.33990 F3000
G1 X172.840 E658.01090 F3000
; Inset 0 
G0 X173.290 Y95.210 F7200
G1 Y114.790 E658.62632 F2400
G1 X153.710 E659.24174 F2400
G1 Y95.210 E659.85715 F2400
G1 X173.290 E660.47257 F2400
; Solid infill 
G0 X171.840 Y96.379 F7200
G1 Y113.619 E661.09184 F3000
G0 X171.360 F7200
G1 Y96.379 E661.71112 F3000
G0 X170.880 F7200
G1 Y113.619 E662.33040 F3000
G0 X170.400 F7200
G1 Y96.379 E662.94968 F3000
G0 X169.920 F7200
G1 Y113.619 E663.56895 F3000
G0 X169.440 F7200
G1 Y96.379 E664.18823 F3000
G0 X168.960 F7200
G1 Y113.619 E664.80751 F3000
G0 X168.480 F7200
G1 Y96.379 E665.42678 F3000
G0 X168 F7200
G1 Y113.619 E666.04606 F3000
G0 X167.520 F7200
G1 Y96.379 E666.66534 F3000
G0 X167.040 F7200
G1 Y113.619 E667.28462 F3000
G0 X166.560 F7200
G1 Y96.379 E667.90389 F3000
G0 X166.080 F7200
G1 Y113.619 E668.52317 F3000
G0 X165.600 F7200
G1 Y96.379 E669.14245 F3000
G0 X165.120 F7200
G1 Y113.619 E669.76172 F3000
G0 X164.640 F7200
G1 Y96.379 E670.38100 F3000
G0 X164.160 F7200
G1 Y113.619 E671.00028 F3000
G0 X163.680 F7200
G1 Y96.379 E671.61956 F3000
G0 X163.200 F7200
G1 Y113.619 E672.23883 F3000
G0 X162.720 F7200
G1 Y96.379 E672.85811 F3000
G0 X162.240 F7200
G1 Y113.619 E673.47739 F3000
G0 X161.760 F7200
G1 Y96.379 E674.09666 F3000
G0 X161.280 F7200
G1 Y113.619 E674.71594 F3000
G0 X160.800 F7200
G1 Y96.379 E675.33522 F3000
G0 X160.320 F7200
G1 Y113.619 E675.95449 F3000
G0 X159.840 F7200
G1 Y96.379 E676.57377 F3000
G0 X159.360 F7200
G1 Y113.619 E677.19305 F3000
G0 X158.880 F7200
G1 Y96.379 E677.81233 F3000
G0 X158.400 F7200
G1 Y113.619 E678.43160 F3000
G0 X157.920 F7200
G1 Y96.379 E679.05088 F3000
G0 X157.440 F7200
G1 Y113.619 E679.67016 F3000
G0 X156.960 F7200
G1 Y96.379 E680.28943 F3000
G0 X156.480 F7200
G1 Y113.619 E680.90871 F3000
G0 X156 F7200
G1 Y96.379 E681.52799 F3000
G0 X155.520 F7200
G1 Y113.619 E682.14727 F3000
G0 X155.040 F7200
G1 Y96.379 E682.76654 F3000
; MACROLAYER:6
; LAYER:11
; TIME LEFT: 146.351 S
M532 L11
; Inset XP 
G1 F600 E676.26654 ; Retract
G0 Z1.950 F1500
G0 X142.360 Y96.140 F7200
G1 F360 E682.76654
G1 Y113.860 E683.40306 F3000
G1 X124.640 E684.03958 F3000
G1 Y96.140 E684.67610 F3000
G1 X142.360 E685.31262 F3000
G0 X142.840 Y95.660 F7200
G1 Y114.340 E685.98362 F3000
G1 X124.160 E686.65463 F3000
G1 Y95.660 E687.32563 F3000
G1 X142.840 E687.99663 F3000
; Inset 0 
G0 X143.290 Y95.210 F7200
G1 Y114.790 E688.61205 F2400
G1 X123.710 E689.22746 F2400
G1 Y95.210 E689.84288 F2400
G1 X143.290 E690.45830 F2400
; Solid infill 
G0 X142.119 Y96.479 F7200
G1 X124.879 E691.07757 F3000
G0 Y96.959 F7200
G1 X142.119 E691.69685 F3000
G0 Y97.439 F7200
G1 X124.879 E692.31613 F3000
G0 Y97.919 F7200
G1 X142.119 E692.93540 F3000
G0 Y98.399 F7200
G1 X124.879 E693.55468 F3000
G0 Y98.879 F7200
G1 X142.119 E694.17396 F3000
G0 Y99.359 F7200
G1 X124.879 E694.79323 F3000
G0 Y99.839 F7200
G1 X142.119 E695.41251 F3000
G0 Y100.319 F7200
G1 X124.879 E696.03179 F3000
G0 Y100.799 F7200
G1 X142.119 E696.65107 F3000
G0 Y101.279 F7200
G1 X124.879 E697.27034 F3000
G0 Y101.759 F7200
G1 X142.119 E697.88962 F3000
G0 Y102.239 F7200
G1 X124.879 E698.50890 F3000
G0 Y102.719 F7200
G1 X142.119 E699.12817 F3000
G0 Y103.199 F7200
G1 X124.879 E699.74745 F3000
G0 Y103.679 F7200
G1 X142.119 E700.36673 F3000
G0 Y104.159 F7200
G1 X124.879 E700.98601 F3000
G0 Y104.639 F7200
G1 X142.119 E701.60528 F3000
G0 Y105.119 F7200
G1 X124.879 E702.22456 F3000
G0 Y105.599 F7200
G1 X142.119 E702.84384 F3000
G0 Y106.079 F7200
G1 X124.879 E703.46311 F3000
G0 Y106.559 F7200
G1 X142.119 E704.08239 F3000
G0 Y107.039 F7200
G1 X124.879 E704.70167 F3000
G0 Y107.519 F7200
G1 X142.119 E705.32095 F3000
G0 Y107.999 F7200
G1 X124.879 E705.94022 F3000
G0 Y108.479 F7200
G1 X142.119 E706.55950 F3000
G0 Y108.959 F7200
G1 X124.879 E707.17878 F3000
G0 Y109.439 F7200
G1 X142.119 E707.79805 F3000
G0 Y109.919 F7200
G1 X124.879 E708.41733 F3000
G0 Y110.399 F7200
G1 X142.119 E709.03661 F3000
G0 Y110.879 F7200
G1 X124.879 E709.65589 F3000
G0 Y111.359 F7200
G1 X142.119 E710.27516 F3000
G0 Y111.839 F7200
G1 X124.879 E710.89444 F3000
G0 Y112.319 F7200
G1 X142.119 E711.51372 F3000
G0 Y112.799 F7200
G1 X124.879 E712.13299 F3000
G0 Y113.279 F7200
G1 X142.119 E712.75227 F3000
; Inset XP 
G1 F600 E706.25227 ; Retract
G0 X172.360 Y96.140 F7200
G1 F360 E712.75227
G1 Y113.860 E713.38879 F3000
G1 X154.640 E714.02531 F3000
G1 Y96.140 E714.66183 F3000
G1 X172.360 E715.29835 F3000
G0 X172.840 Y95.660 F7200
G1 Y114.340 E715.96935 F3000
G1 X154.160 E716.64035 F3000
G1 Y95.660 E717.31136 F3000
G1 X172.840 E717.98236 F3000
; Inset 0 
G0 X173.290 Y95.210 F7200
G1 Y114.790 E718.59778 F2400
G1 X153.710 E719.21319 F2400
G1 Y95.210 E719.82861 F2400
G1 X173.290 E720.44402 F2400
; Solid infill 
G0 X172.119 Y96.479 F7200
G1 X154.879 E721.06330 F3000
G0 Y96.959 F7200
G1 X172.119 E721.68258 F3000
G0 Y97.439 F7200
G1 X154.879 E722.30185 F3000
G0 Y97.919 F7200
G1 X172.119 E722.92113 F3000
G0 Y98.399 F7200
G1 X154.879 E723.54041 F3000
G0 Y98.879 F7200
G1 X172.119 E724.15969 F3000
G0 Y99.359 F7200
G1 X154.879 E724.77896 F3000
G0 Y99.839 F7200
G1 X172.119 E725.39824 F3000
G0 Y100.319 F7200
G1 X154.879 E726.01752 F3000
G0 Y100.799 F7200
G1 X172.119 E726.63679 F3000
G0 Y101.279 F7200
G1 X154.879 E727.25607 F3000
G0 Y101.759 F7200
G1 X172.119 E727.87535 F3000
G0 Y102.239 F7200
G1 X154.879 E728.49463 F3000
G0 Y102.719 F7200
G1 X172.119 E729.11390 F3000
G0 Y103.199 F7200
G1 X154.879 E729.73318 F3000
G0 Y103.679 F7200
G1 X172.119 E730.35246 F3000
G0 Y104.159 F7200
G1 X154.879 E730.97173 F3000
G0 Y104.639 F7200
G1 X172.119 E731.59101 F3000
G0 Y105.119 F7200
G1 X154.879 E732.21029 F3000
G0 Y105.599 F7200
G1 X172.119 E732.82957 F3000
G0 Y106.079 F7200
G1 X154.879 E733.44884 F3000
G0 Y106.559 F7200
G1 X172.119 E734.06812 F3000
G0 Y107.039 F7200
G1 X154.879 E734.68740 F3000
G0 Y107.519 F7200
G1 X172.119 E735.30667 F3000
G0 Y107.999 F7200
G1 X154.879 E735.92595 F3000
G0 Y108.479 F7200
G1 X172.119 E736.54523 F3000
G0 Y108.959 F7200
G1 X154.879 E737.16451 F3000
G0 Y109.439 F7200
G1 X172.119 E737.78378 F3000
G0 Y109.919 F7200
G1 X154.879 E738.40306 F3000
G0 Y110.399 F7200
G1 X172.119 E739.02234 F3000
G0 Y110.879 F7200
G1 X154.879 E739.64161 F3000
G0 Y111.359 F7200
G1 X172.119 E740.26089 F3000
G0 Y111.839 F7200
G1 X154.879 E740.88017 F3000
G0 Y112.319 F7200
G1 X172.119 E741.49944 F3000
G0 Y112.799 F7200
G1 X154.879 E742.11872 F3000
G0 Y113.279 F7200
G1 X172.119 E742.73800 F3000
; MACROLAYER:7
; LAYER:12
; TIME LEFT: 99.31 S
M532 L12
; Inset XP 
G1 F600 E736.23800 ; Retract
G0 Z2.130 F1500
G0 X142.360 Y96.140 F7200
G1 F360 E742.73800
G1 Y113.860 E743.37452 F3000
G1 X124.640 E744.01104 F3000
G1 Y96.140 E744.64756 F3000
G1 X142.360 E745.28408 F3000
G0 X142.840 Y95.660 F7200
G1 Y114.340 E745.95508 F3000
G1 X124.160 E746.62608 F3000
G1 Y95.660 E747.29709 F3000
G1 X142.840 E747.96809 F3000
; Inset 0 
G0 X143.290 Y95.210 F7200
G1 Y114.790 E748.58350 F2400
G1 X123.710 E749.19892 F2400
G1 Y95.210 E749.81434 F2400
G1 X143.290 E750.42975 F2400
; Solid infill 
G0 X142.080 Y96.379 F7200
G1 Y113.619 E751.04903 F3000
G0 X141.600 F7200
G1 Y96.379 E751.66831 F3000
G0 X141.120 F7200
G1 Y113.619 E752.28758 F3000
G0 X140.640 F7200
G1 Y96.379 E752.90686 F3000
G0 X140.160 F7200
G1 Y113.619 E753.52614 F3000
G0 X139.680 F7200
G1 Y96.379 E754.14541 F3000
G0 X139.200 F7200
G1 Y113.619 E754.76469 F3000
G0 X138.720 F7200
G1 Y96.379 E755.38397 F3000
G0 X138.240 F7200
G1 Y113.619 E756.00325 F3000
G0 X137.760 F7200
G1 Y96.379 E756.62252 F3000
G0 X137.280 F7200
G1 Y113.619 E757.24180 F3000
G0 X136.800 F7200
G1 Y96.379 E757.86108 F3000
G0 X136.320 F7200
G1 Y113.619 E758.48035 F3000
G0 X135.840 F7200
G1 Y96.379 E759.09963 F3000
G0 X135.360 F7200
G1 Y113.619 E759.71891 F3000
G0 X134.880 F7200
G1 Y96.379 E760.33818 F3000
G0 X134.400 F7200
G1 Y113.619 E760.95746 F3000
G0 X133.920 F7200
G1 Y96.379 E761.57674 F3000
G0 X133.440 F7200
G1 Y113.619 E762.19602 F3000
G0 X132.960 F7200
G1 Y96.379 E762.81529 F3000
G0 X132.480 F7200
G1 Y113.619 E763.43457 F3000
G0 X132 F7200
G1 Y96.379 E764.05385 F3000
G0 X131.520 F7200
G1 Y113.619 E764.67312 F3000
G0 X131.040 F7200
G1 Y96.379 E765.29240 F3000
G0 X130.560 F7200
G1 Y113.619 E765.91168 F3000
G0 X130.080 F7200
G1 Y96.379 E766.53096 F3000
G0 X129.600 F7200
G1 Y113.619 E767.15023 F3000
G0 X129.120 F7200
G1 Y96.379 E767.76951 F3000
G0 X128.640 F7200
G1 Y113.619 E768.38879 F3000
G0 X128.160 F7200
G1 Y96.379 E769.00806 F3000
G0 X127.680 F7200
G1 Y113.619 E769.62734 F3000
G0 X127.200 F7200
G1 Y96.379 E770.24662 F3000
G0 X126.720 F7200
G1 Y113.619 E770.86590 F3000
G0 X126.240 F7200
G1 Y96.379 E771.48517 F3000
G0 X125.760 F7200
G1 Y113.619 E772.10445 F3000
G0 X125.280 F7200
G1 Y96.379 E772.72373 F3000
; Inset XP 
G1 F600 E766.22373 ; Retract
G0 X172.360 Y96.140 F7200
G1 F360 E772.72373
G1 Y113.860 E773.36025 F3000
G1 X154.640 E773.99677 F3000
G1 Y96.140 E774.63328 F3000
G1 X172.360 E775.26980 F3000
G0 X172.840 Y95.660 F7200
G1 Y114.340 E775.94081 F3000
G1 X154.160 E776.61181 F3000
G1 Y95.660 E777.28281 F3000
G1 X172.840 E777.95382 F3000
; Inset 0 
G0 X173.290 Y95.210 F7200
G1 Y114.790 E778.56923 F2400
G1 X153.710 E779.18465 F2400
G1 Y95.210 E779.80006 F2400
G1 X173.290 E780.41548 F2400
; Solid infill 
G0 X171.840 Y96.379 F7200
G1 Y113.619 E781.03476 F3000
G0 X171.360 F7200
G1 Y96.379 E781.65403 F3000
G0 X170.880 F7200
G1 Y113.619 E782.27331 F3000
G0 X170.400 F7200
G1 Y96.379 E782.89259 F3000
G0 X169.920 F7200
G1 Y113.619 E783.51186 F3000
G0 X169.440 F7200
G1 Y96.379 E784.13114 F3000
G0 X168.960 F7200
G1 Y113.619 E784.75042 F3000
G0 X168.480 F7200
G1 Y96.379 E785.36970 F3000
G0 X168 F7200
G1 Y113.619 E785.98897 F3000
G0 X167.520 F7200
G1 Y96.379 E786.60825 F3000
G0 X167.040 F7200
G1 Y113.619 E787.22753 F3000
G0 X166.560 F7200
G1 Y96.379 E787.84680 F3000
G0 X166.080 F7200
G1 Y113.619 E788.46608 F3000
G0 X165.600 F7200
G1 Y96.379 E789.08536 F3000
G0 X165.120 F7200
G1 Y113.619 E789.70464 F3000
G0 X164.640 F7200
G1 Y96.379 E790.32391 F3000
G0 X164.160 F7200
G1 Y113.619 E790.94319 F3000
G0 X163.680 F7200
G1 Y96.379 E791.56247 F3000
G0 X163.200 F7200
G1 Y113.619 E792.18174 F3000
G0 X162.720 F7200
G1 Y96.379 E792.80102 F3000
G0 X162.240 F7200
G1 Y113.619 E793.42030 F3000
G0 X161.760 F7200
G1 Y96.379 E794.03958 F3000
G0 X161.280 F7200
G1 Y113.619 E794.65885 F3000
G0 X160.800 F7200
G1 Y96.379 E795.27813 F3000
G0 X160.320 F7200
G1 Y113.619 E795.89741 F3000
G0 X159.840 F7200
G1 Y96.379 E796.51668 F3000
G0 X159.360 F7200
G1 Y113.619 E797.13596 F3000
G0 X158.880 F7200
G1 Y96.379 E797.75524 F3000
G0 X158.400 F7200
G1 Y113.619 E798.37452 F3000
G0 X157.920 F7200
G1 Y96.379 E798.99379 F3000
G0 X157.440 F7200
G1 Y113.619 E799.61307 F3000
G0 X156.960 F7200
G1 Y96.379 E800.23235 F3000
G0 X156.480 F7200
G1 Y113.619 E800.85162 F3000
G0 X156 F7200
G1 Y96.379 E801.47090 F3000
G0 X155.520 F7200
G1 Y113.619 E802.09018 F3000
G0 X155.040 F7200
G1 Y96.379 E802.70945 F3000
; MACROLAYER:7
; LAYER:13
; TIME LEFT: 52.005 S
M532 L13
; Inset XP 
G1 F600 E796.20945 ; Retract
G0 Z2.310 F1500
G0 X142.360 Y96.140 F7200
G1 F360 E802.70945
G1 Y113.860 E803.34597 F3000
G1 X124.640 E803.98249 F3000
G1 Y96.140 E804.61901 F3000
G1 X142.360 E805.25553 F3000
G0 X142.840 Y95.660 F7200
G1 Y114.340 E805.92653 F3000
G1 X124.160 E806.59754 F3000
G1 Y95.660 E807.26854 F3000
G1 X142.840 E807.93954 F3000
; Inset 0 
G0 X143.290 Y95.210 F7200
G1 Y114.790 E808.55496 F2400
G1 X123.710 E809.17038 F2400
G1 Y95.210 E809.78579 F2400
G1 X143.290 E810.40121 F2400
; Solid infill 
G0 X142.119 Y96.479 F7200
G1 X124.879 E811.02048 F3000
G0 Y96.959 F7200
G1 X142.119 E811.63976 F3000
G0 Y97.439 F7200
G1 X124.879 E812.25904 F3000
G0 Y97.919 F7200
G1 X142.119 E812.87832 F3000
G0 Y98.399 F7200
G1 X124.879 E813.49759 F3000
G0 Y98.879 F7200
G1 X142.119 E814.11687 F3000
G0 Y99.359 F7200
G1 X124.879 E814.73615 F3000
G0 Y99.839 F7200
G1 X142.119 E815.35542 F3000
G0 Y100.319 F7200
G1 X124.879 E815.97470 F3000
G0 Y100.799 F7200
G1 X142.119 E816.59398 F3000
G0 Y101.279 F7200
G1 X124.879 E817.21326 F3000
G0 Y101.759 F7200
G1 X142.119 E817.83253 F3000
G0 Y102.239 F7200
G1 X124.879 E818.45181 F3000
G0 Y102.719 F7200
G1 X142.119 E819.07109 F3000
G0 Y103.199 F7200
G1 X124.879 E819.69036 F3000
G0 Y103.679 F7200
G1 X142.119 E820.30964 F3000
G0 Y104.159 F7200
G1 X124.879 E820.92892 F3000
G0 Y104.639 F7200
G1 X142.119 E821.54819 F3000
G0 Y105.119 F7200
G1 X124.879 E822.16747 F3000
G0 Y105.599 F7200
G1 X142.119 E822.78675 F3000
G0 Y106.079 F7200
G1 X124.879 E823.40603 F3000
G0 Y106.559 F7200
G1 X142.119 E824.02530 F3000
G0 Y107.039 F7200
G1 X124.879 E824.64458 F3000
G0 Y107.519 F7200
G1 X142.119 E825.26386 F3000
G0 Y107.999 F7200
G1 X124.879 E825.88313 F3000
G0 Y108.479 F7200
G1 X142.119 E826.50241 F3000
G0 Y108.959 F7200
G1 X124.879 E827.12169 F3000
G0 Y109.439 F7200
G1 X142.119 E827.74097 F3000
G0 Y109.919 F7200
G1 X124.879 E828.36024 F3000
G0 Y110.399 F7200
G1 X142.119 E828.97952 F3000
G0 Y110.879 F7200
G1 X124.879 E829.59880 F3000
G0 Y111.359 F7200
G1 X142.119 E830.21807 F3000
G0 Y111.839 F7200
G1 X124.879 E830.83735 F3000
G0 Y112.319 F7200
G1 X142.119 E831.45663 F3000
G0 Y112.799 F7200
G1 X124.879 E832.07591 F3000
G0 Y113.279 F7200
G1 X142.119 E832.69518 F3000
; Inset XP 
G1 F600 E826.19518 ; Retract
G0 X172.360 Y96.140 F7200
G1 F360 E832.69518
G1 Y113.860 E833.33170 F3000
G1 X154.640 E833.96822 F3000
G1 Y96.140 E834.60474 F3000
G1 X172.360 E835.24126 F3000
G0 X172.840 Y95.660 F7200
G1 Y114.340 E835.91226 F3000
G1 X154.160 E836.58327 F3000
G1 Y95.660 E837.25427 F3000
G1 X172.840 E837.92527 F3000
; Inset 0 
G0 X173.290 Y95.210 F7200
G1 Y114.790 E838.54069 F2400
G1 X153.710 E839.15610 F2400
G1 Y95.210 E839.77152 F2400
G1 X173.290 E840.38694 F2400
; Solid infill 
G0 X172.119 Y96.479 F7200
G1 X154.879 E841.00621 F3000
G0 Y96.959 F7200
G1 X172.119 E841.62549 F3000
G0 Y97.439 F7200
G1 X154.879 E842.24477 F3000
G0 Y97.919 F7200
G1 X172.119 E842.86404 F3000
G0 Y98.399 F7200
G1 X154.879 E843.48332 F3000
G0 Y98.879 F7200
G1 X172.119 E844.10260 F3000
G0 Y99.359 F7200
G1 X154.879 E844.72187 F3000
G0 Y99.839 F7200
G1 X172.119 E845.34115 F3000
G0 Y100.319 F7200
G1 X154.879 E845.96043 F3000
G0 Y100.799 F7200
G1 X172.119 E846.57971 F3000
G0 Y101.279 F7200
G1 X154.879 E847.19898 F3000
G0 Y101.759 F7200
G1 X172.119 E847.81826 F3000
G0 Y102.239 F7200
G1 X154.879 E848.43754 F3000
G0 Y102.719 F7200
G1 X172.119 E849.05681 F3000
G0 Y103.199 F7200
G1 X154.879 E849.67609 F3000
G0 Y103.679 F7200
G1 X172.119 E850.29537 F3000
G0 Y104.159 F7200
G1 X154.879 E850.91465 F3000
G0 Y104.639 F7200
G1 X172.119 E851.53392 F3000
G0 Y105.119 F7200
G1 X154.879 E852.15320 F3000
G0 Y105.599 F7200
G1 X172.119 E852.77248 F3000
G0 Y106.079 F7200
G1 X154.879 E853.39175 F3000
G0 Y106.559 F7200
G1 X172.119 E854.01103 F3000
G0 Y107.039 F7200
G1 X154.879 E854.63031 F3000
G0 Y107.519 F7200
G1 X172.119 E855.24959 F3000
G0 Y107.999 F7200
G1 X154.879 E855.86886 F3000
G0 Y108.479 F7200
G1 X172.119 E856.48814 F3000
G0 Y108.959 F7200
G1 X154.879 E857.10742 F3000
G0 Y109.439 F7200
G1 X172.119 E857.72669 F3000
G0 Y109.919 F7200
G1 X154.879 E858.34597 F3000
G0 Y110.399 F7200
G1 X172.119 E858.96525 F3000
G0 Y110.879 F7200
G1 X154.879 E859.58453 F3000
G0 Y111.359 F7200
G1 X172.119 E860.20380 F3000
G0 Y111.839 F7200
G1 X154.879 E860.82308 F3000
G0 Y112.319 F7200
G1 X172.119 E861.44236 F3000
G0 Y112.799 F7200
G1 X154.879 E862.06163 F3000
G0 Y113.279 F7200
G1 X172.119 E862.68091 F3000
G1 F600 E847.68091 ; Retract
M400
M104 S0 T0
M106 P1 S0
M140 S0 
; Start printer end gcode
G91
G1 Z20 F900
G90
G28
M530 S0
; End printer end gcode
