; Generated with Anisoprint Aura v2.6.1.3 on 06/25/2025 at 17:00
; Printer Processor Type: MARLIN
; LAYER_COUNT: 13
; PRINTING_MODE: Plastic and Composite
M530 L13
M104 S215 T1
M140 S60 
G21 
G90 
M82 
G28
M530 S1
G1 Z10 F900
M190 S60 
; Start change extruder 
M400
M104 S150 T0
M109 S215 T1
T1 R ; switch extruder type to:FIBER
; End change extruder 
G92 E0 ; reset extrusion
G92 V0 ; reset extrusion
G92 U0 ; reset extrusion
; MACROLAYER:1
; LAYER:1
; TIME LEFT: 1270.158 S
M532 L1
M400
M106 P1 S127
G0 Z0.675 F1500
G0 X73 F7200
M1001 L150
G1 F600 U47
G0 X73.500 Z0.175 F7200
G1 F1200 V14
G4 P0
G1 X74.300 V14.01008 U47.80000 F480
G1 X79.300 V14.07308 U52.80000 F480
G1 X179.100 V15.33056 U152.60000 F600
; Start to cut
M400
M280 P0 S30
G4 P200
M280 P0 S90
M400
G1 X186.100 V15.42758 F120
G1 X224.300 V15.95703 F480
G1 F1800 V6.95703 ; Retract
G0 X233.500 F240
M1002 
; Start change extruder 
M400
G1 F1800 V3.95703 ; Retract
G0 Z5.175 F1500
M1013 
M104 S180 T1
M400
M106 P1 S0
M109 S220 T0
T0 ; switch extruder type to:PLASTIC
M1013 R 
; End change extruder 
M400
M106 P1 S63
G0 X114.549 Y88.397 F7200
G0 Z0.150 F1500
G1 X115.287 Y87.495 E0.03923 F1200
G1 X116.009 Y86.778 E0.07348 F1200
G1 X116.900 Y86.043 E0.11238 F1200
G1 X117.734 Y85.485 E0.14615 F1200
G1 X118.654 Y84.987 E0.18138 F1200
G1 X119.740 Y84.532 E0.22101 F1200
G1 X120.883 Y84.189 E0.26119 F1200
G1 X121.996 Y83.979 E0.29931 F1200
G1 X123.035 Y83.879 E0.33444 F1200
G1 X123.365 Y83.870 E0.34555 F1200
G1 X132.375 E0.64897 F1200
G1 X132.409 Y64.132 E1.31366 F1200
G1 X132.531 Y63.146 E1.34710 F1200
G1 X132.743 Y62.159 E1.38108 F1200
G1 X133.050 Y61.188 E1.41536 F1200
G1 X133.502 Y60.119 E1.45443 F1200
G1 X133.980 Y59.244 E1.48800 F1200
G1 X134.549 Y58.397 E1.52235 F1200
G1 X135.287 Y57.495 E1.56158 F1200
G1 X136.009 Y56.778 E1.59583 F1200
G1 X136.900 Y56.043 E1.63473 F1200
G1 X137.734 Y55.485 E1.66851 F1200
G1 X138.654 Y54.987 E1.70373 F1200
G1 X139.740 Y54.532 E1.74337 F1200
G1 X140.885 Y54.188 E1.78361 F1200
G1 X142.049 Y53.971 E1.82348 F1200
G1 X143.170 Y53.879 E1.86133 F1200
G1 X153.724 Y53.874 E2.21675 F1200
G1 X155.169 Y54 E2.26558 F1200
G1 X156.192 Y54.206 E2.30070 F1200
G1 X157.312 Y54.550 E2.34014 F1200
G1 X158.381 Y55.002 E2.37920 F1200
G1 X159.256 Y55.480 E2.41278 F1200
G1 X160.103 Y56.049 E2.44713 F1200
G1 X161.005 Y56.787 E2.48636 F1200
G1 X161.722 Y57.509 E2.52061 F1200
G1 X162.457 Y58.400 E2.55950 F1200
G1 X163.015 Y59.234 E2.59328 F1200
G1 X163.513 Y60.154 E2.62850 F1200
G1 X163.968 Y61.240 E2.66814 F1200
G1 X164.311 Y62.383 E2.70832 F1200
G1 X164.521 Y63.496 E2.74644 F1200
G1 X164.621 Y64.535 E2.78156 F1200
G1 X164.630 Y64.865 E2.79267 F1200
G1 Y83.878 E3.43295 F1200
G1 X174.368 Y83.909 E3.76089 F1200
G1 X175.354 Y84.031 E3.79433 F1200
G1 X176.341 Y84.243 E3.82831 F1200
G1 X177.312 Y84.550 E3.86259 F1200
G1 X178.381 Y85.002 E3.90165 F1200
G1 X179.256 Y85.480 E3.93523 F1200
G1 X180.103 Y86.049 E3.96958 F1200
G1 X181.005 Y86.787 E4.00881 F1200
G1 X181.722 Y87.509 E4.04306 F1200
G1 X182.457 Y88.400 E4.08196 F1200
G1 X183.015 Y89.234 E4.11573 F1200
G1 X183.513 Y90.154 E4.15096 F1200
G1 X183.968 Y91.240 E4.19059 F1200
G1 X184.312 Y92.385 E4.23084 F1200
G1 X184.525 Y93.519 E4.26966 F1200
G1 X184.621 Y94.555 E4.30469 F1200
G1 X184.630 Y95.005 E4.31984 F1200
G1 X184.591 Y115.868 E5.02242 F1200
G1 X184.469 Y116.854 E5.05586 F1200
G1 X184.257 Y117.841 E5.08984 F1200
G1 X183.950 Y118.812 E5.12412 F1200
G1 X183.498 Y119.881 E5.16319 F1200
G1 X183.020 Y120.756 E5.19676 F1200
G1 X182.451 Y121.603 E5.23111 F1200
G1 X181.713 Y122.505 E5.27034 F1200
G1 X180.991 Y123.222 E5.30459 F1200
G1 X180.100 Y123.957 E5.34349 F1200
G1 X179.266 Y124.515 E5.37726 F1200
G1 X178.346 Y125.013 E5.41249 F1200
G1 X177.260 Y125.468 E5.45213 F1200
G1 X176.117 Y125.811 E5.49230 F1200
G1 X175.004 Y126.021 E5.53042 F1200
G1 X173.965 Y126.121 E5.56555 F1200
G1 X173.635 Y126.130 E5.57666 F1200
G1 X164.625 E5.88008 F1200
G1 X164.591 Y145.868 E6.54477 F1200
G1 X164.469 Y146.854 E6.57821 F1200
G1 X164.257 Y147.841 E6.61219 F1200
G1 X163.950 Y148.812 E6.64648 F1200
G1 X163.498 Y149.881 E6.68554 F1200
G1 X163.020 Y150.756 E6.71911 F1200
G1 X162.451 Y151.603 E6.75346 F1200
G1 X161.713 Y152.505 E6.79270 F1200
G1 X160.991 Y153.222 E6.82694 F1200
G1 X160.100 Y153.957 E6.86584 F1200
G1 X159.266 Y154.515 E6.89962 F1200
G1 X158.346 Y155.013 E6.93484 F1200
G1 X157.260 Y155.468 E6.97448 F1200
G1 X156.115 Y155.812 E7.01472 F1200
G1 X154.981 Y156.025 E7.05355 F1200
G1 X153.944 Y156.121 E7.08861 F1200
G1 X153.490 Y156.130 E7.10389 F1200
G1 X142.632 Y156.091 E7.46955 F1200
G1 X141.646 Y155.969 E7.50299 F1200
G1 X140.659 Y155.757 E7.53697 F1200
G1 X139.688 Y155.450 E7.57125 F1200
G1 X138.619 Y154.998 E7.61031 F1200
G1 X137.744 Y154.520 E7.64389 F1200
G1 X136.897 Y153.951 E7.67824 F1200
G1 X135.995 Y153.213 E7.71747 F1200
G1 X135.278 Y152.491 E7.75172 F1200
G1 X134.543 Y151.600 E7.79061 F1200
G1 X133.985 Y150.766 E7.82439 F1200
G1 X133.487 Y149.846 E7.85962 F1200
G1 X133.032 Y148.760 E7.89925 F1200
G1 X132.689 Y147.617 E7.93943 F1200
G1 X132.479 Y146.504 E7.97755 F1200
G1 X132.379 Y145.465 E8.01267 F1200
G1 X132.370 Y145.135 E8.02379 F1200
G1 Y126.122 E8.66406 F1200
G1 X122.632 Y126.091 E8.99200 F1200
G1 X121.646 Y125.969 E9.02544 F1200
G1 X120.659 Y125.757 E9.05942 F1200
G1 X119.688 Y125.450 E9.09370 F1200
G1 X118.619 Y124.998 E9.13277 F1200
G1 X117.744 Y124.520 E9.16634 F1200
G1 X116.897 Y123.951 E9.20069 F1200
G1 X115.995 Y123.213 E9.23992 F1200
G1 X115.278 Y122.491 E9.27417 F1200
G1 X114.543 Y121.600 E9.31307 F1200
G1 X113.985 Y120.766 E9.34684 F1200
G1 X113.487 Y119.846 E9.38207 F1200
G1 X113.032 Y118.760 E9.42170 F1200
G1 X112.688 Y117.615 E9.46195 F1200
G1 X112.475 Y116.481 E9.50078 F1200
G1 X112.379 Y115.445 E9.53580 F1200
G1 X112.370 Y114.995 E9.55095 F1200
G1 X112.409 Y94.132 E10.25353 F1200
G1 X112.531 Y93.146 E10.28697 F1200
G1 X112.743 Y92.159 E10.32095 F1200
G1 X113.050 Y91.188 E10.35523 F1200
G1 X113.502 Y90.119 E10.39430 F1200
G1 X113.980 Y89.244 E10.42787 F1200
G1 X114.549 Y88.397 E10.46222 F1200
G0 X114.968 Y88.738 F7200
G1 X115.669 Y87.877 E10.49960 F1200
G1 X116.353 Y87.194 E10.53213 F1200
G1 X117.202 Y86.491 E10.56924 F1200
G1 X117.992 Y85.959 E10.60130 F1200
G1 X118.864 Y85.485 E10.63471 F1200
G1 X119.897 Y85.049 E10.67246 F1200
G1 X120.984 Y84.719 E10.71068 F1200
G1 X122.048 Y84.516 E10.74715 F1200
G1 X123.050 Y84.419 E10.78103 F1200
G1 X123.380 Y84.410 E10.79215 F1200
G1 X132.914 E11.11321 F1200
G1 X132.945 Y64.197 E11.79390 F1200
G1 X133.059 Y63.258 E11.82573 F1200
G1 X133.258 Y62.321 E11.85795 F1200
G1 X133.548 Y61.397 E11.89055 F1200
G1 X133.976 Y60.377 E11.92780 F1200
G1 X134.429 Y59.544 E11.95972 F1200
G1 X134.968 Y58.738 E11.99235 F1200
G1 X135.669 Y57.877 E12.02973 F1200
G1 X136.353 Y57.194 E12.06226 F1200
G1 X137.202 Y56.491 E12.09938 F1200
G1 X137.992 Y55.959 E12.13144 F1200
G1 X138.864 Y55.485 E12.16484 F1200
G1 X139.897 Y55.049 E12.20259 F1200
G1 X140.986 Y54.719 E12.24088 F1200
G1 X142.094 Y54.509 E12.27883 F1200
G1 X143.170 Y54.419 E12.31517 F1200
G1 X153.724 Y54.414 E12.67059 F1200
G1 X155.064 Y54.530 E12.71588 F1200
G1 X156.035 Y54.723 E12.74919 F1200
G1 X157.103 Y55.048 E12.78677 F1200
G1 X158.123 Y55.476 E12.82401 F1200
G1 X158.956 Y55.929 E12.85594 F1200
G1 X159.762 Y56.468 E12.88857 F1200
G1 X160.623 Y57.169 E12.92595 F1200
G1 X161.306 Y57.853 E12.95848 F1200
G1 X162.009 Y58.702 E12.99559 F1200
G1 X162.541 Y59.492 E13.02765 F1200
G1 X163.015 Y60.364 E13.06106 F1200
G1 X163.451 Y61.397 E13.09881 F1200
G1 X163.781 Y62.484 E13.13703 F1200
G1 X163.984 Y63.548 E13.17350 F1200
G1 X164.081 Y64.550 E13.20738 F1200
G1 X164.090 Y64.880 E13.21849 F1200
G1 Y84.416 E13.87638 F1200
G1 X174.303 Y84.445 E14.22032 F1200
G1 X175.242 Y84.559 E14.25214 F1200
G1 X176.179 Y84.758 E14.28437 F1200
G1 X177.103 Y85.048 E14.31697 F1200
G1 X178.123 Y85.476 E14.35421 F1200
G1 X178.956 Y85.929 E14.38614 F1200
G1 X179.762 Y86.468 E14.41877 F1200
G1 X180.623 Y87.169 E14.45615 F1200
G1 X181.306 Y87.853 E14.48868 F1200
G1 X182.009 Y88.702 E14.52579 F1200
G1 X182.541 Y89.492 E14.55785 F1200
G1 X183.015 Y90.364 E14.59126 F1200
G1 X183.451 Y91.397 E14.62901 F1200
G1 X183.781 Y92.486 E14.66730 F1200
G1 X183.987 Y93.570 E14.70444 F1200
G1 X184.081 Y94.566 E14.73812 F1200
G1 X184.090 Y95.004 E14.75287 F1200
G1 X184.055 Y115.803 E15.45329 F1200
G1 X183.941 Y116.742 E15.48512 F1200
G1 X183.742 Y117.679 E15.51734 F1200
G1 X183.452 Y118.603 E15.54994 F1200
G1 X183.024 Y119.623 E15.58719 F1200
G1 X182.571 Y120.456 E15.61911 F1200
G1 X182.032 Y121.262 E15.65174 F1200
G1 X181.331 Y122.123 E15.68912 F1200
G1 X180.647 Y122.806 E15.72166 F1200
G1 X179.798 Y123.509 E15.75877 F1200
G1 X179.008 Y124.041 E15.79083 F1200
G1 X178.136 Y124.515 E15.82423 F1200
G1 X177.103 Y124.951 E15.86198 F1200
G1 X176.016 Y125.281 E15.90020 F1200
G1 X174.952 Y125.484 E15.93668 F1200
G1 X173.950 Y125.581 E15.97055 F1200
G1 X173.620 Y125.590 E15.98167 F1200
G1 X164.086 E16.30273 F1200
G1 X164.055 Y145.803 E16.98342 F1200
G1 X163.941 Y146.742 E17.01525 F1200
G1 X163.742 Y147.679 E17.04747 F1200
G1 X163.452 Y148.603 E17.08007 F1200
G1 X163.024 Y149.623 E17.11732 F1200
G1 X162.571 Y150.456 E17.14924 F1200
G1 X162.032 Y151.262 E17.18188 F1200
G1 X161.331 Y152.123 E17.21926 F1200
G1 X160.647 Y152.806 E17.25179 F1200
G1 X159.798 Y153.509 E17.28890 F1200
G1 X159.008 Y154.041 E17.32096 F1200
G1 X158.136 Y154.515 E17.35436 F1200
G1 X157.103 Y154.951 E17.39211 F1200
G1 X156.014 Y155.281 E17.43040 F1200
G1 X154.930 Y155.487 E17.46755 F1200
G1 X153.933 Y155.581 E17.50126 F1200
G1 X153.492 Y155.590 E17.51611 F1200
G1 X142.697 Y155.555 E17.87964 F1200
G1 X141.758 Y155.441 E17.91146 F1200
G1 X140.821 Y155.242 E17.94369 F1200
G1 X139.897 Y154.952 E17.97629 F1200
G1 X138.877 Y154.524 E18.01353 F1200
G1 X138.044 Y154.071 E18.04546 F1200
G1 X137.238 Y153.532 E18.07809 F1200
G1 X136.377 Y152.831 E18.11547 F1200
G1 X135.694 Y152.147 E18.14800 F1200
G1 X134.991 Y151.298 E18.18511 F1200
G1 X134.459 Y150.508 E18.21717 F1200
G1 X133.985 Y149.636 E18.25058 F1200
G1 X133.549 Y148.603 E18.28833 F1200
G1 X133.219 Y147.516 E18.32655 F1200
G1 X133.016 Y146.452 E18.36302 F1200
G1 X132.919 Y145.450 E18.39690 F1200
G1 X132.910 Y145.120 E18.40801 F1200
G1 Y125.584 E19.06591 F1200
G1 X122.697 Y125.555 E19.40984 F1200
G1 X121.758 Y125.441 E19.44166 F1200
G1 X120.821 Y125.242 E19.47389 F1200
G1 X119.897 Y124.952 E19.50649 F1200
G1 X118.877 Y124.524 E19.54373 F1200
G1 X118.044 Y124.071 E19.57566 F1200
G1 X117.238 Y123.532 E19.60829 F1200
G1 X116.377 Y122.831 E19.64567 F1200
G1 X115.694 Y122.147 E19.67820 F1200
G1 X114.991 Y121.298 E19.71531 F1200
G1 X114.459 Y120.508 E19.74737 F1200
G1 X113.985 Y119.636 E19.78078 F1200
G1 X113.549 Y118.603 E19.81853 F1200
G1 X113.219 Y117.514 E19.85682 F1200
G1 X113.013 Y116.430 E19.89396 F1200
G1 X112.919 Y115.434 E19.92764 F1200
G1 X112.910 Y114.996 E19.94239 F1200
G1 X112.945 Y94.197 E20.64281 F1200
G1 X113.059 Y93.258 E20.67464 F1200
G1 X113.258 Y92.321 E20.70686 F1200
G1 X113.548 Y91.397 E20.73946 F1200
G1 X113.976 Y90.377 E20.77671 F1200
G1 X114.429 Y89.544 E20.80863 F1200
G1 X114.968 Y88.738 E20.84127 F1200
G0 X115.387 Y89.078 F7200
G1 X116.052 Y88.258 E20.87679 F1200
G1 X116.698 Y87.609 E20.90761 F1200
G1 X117.504 Y86.938 E20.94290 F1200
G1 X118.251 Y86.433 E20.97324 F1200
G1 X119.075 Y85.982 E21.00486 F1200
G1 X120.055 Y85.565 E21.04073 F1200
G1 X121.086 Y85.249 E21.07703 F1200
G1 X122.100 Y85.053 E21.11178 F1200
G1 X123.065 Y84.959 E21.14442 F1200
G1 X123.395 Y84.950 E21.15553 F1200
G1 X133.453 E21.49424 F1200
G1 X133.481 Y64.261 E22.19096 F1200
G1 X133.587 Y63.369 E22.22120 F1200
G1 X133.774 Y62.481 E22.25175 F1200
G1 X134.046 Y61.605 E22.28263 F1200
G1 X134.451 Y60.634 E22.31805 F1200
G1 X134.879 Y59.843 E22.34833 F1200
G1 X135.387 Y59.078 E22.37924 F1200
G1 X136.052 Y58.258 E22.41477 F1200
G1 X136.698 Y57.609 E22.44558 F1200
G1 X137.504 Y56.938 E22.48088 F1200
G1 X138.251 Y56.433 E22.51122 F1200
G1 X139.075 Y55.982 E22.54284 F1200
G1 X140.055 Y55.565 E22.57871 F1200
G1 X141.088 Y55.249 E22.61508 F1200
G1 X142.140 Y55.047 E22.65114 F1200
G1 X143.170 Y54.959 E22.68593 F1200
G1 X153.724 Y54.954 E23.04134 F1200
G1 X154.960 Y55.060 E23.08310 F1200
G1 X155.879 Y55.240 E23.11462 F1200
G1 X156.895 Y55.546 E23.15035 F1200
G1 X157.866 Y55.951 E23.18578 F1200
G1 X158.657 Y56.379 E23.21606 F1200
G1 X159.422 Y56.887 E23.24697 F1200
G1 X160.242 Y57.552 E23.28250 F1200
G1 X160.891 Y58.198 E23.31331 F1200
G1 X161.562 Y59.004 E23.34860 F1200
G1 X162.067 Y59.751 E23.37895 F1200
G1 X162.518 Y60.575 E23.41057 F1200
G1 X162.935 Y61.555 E23.44643 F1200
G1 X163.251 Y62.586 E23.48273 F1200
G1 X163.447 Y63.600 E23.51749 F1200
G1 X163.541 Y64.565 E23.55012 F1200
G1 X163.550 Y64.895 E23.56123 F1200
G1 Y84.955 E24.23677 F1200
G1 X174.239 Y84.981 E24.59673 F1200
G1 X175.131 Y85.087 E24.62697 F1200
G1 X176.019 Y85.274 E24.65752 F1200
G1 X176.895 Y85.546 E24.68840 F1200
G1 X177.866 Y85.951 E24.72383 F1200
G1 X178.657 Y86.379 E24.75410 F1200
G1 X179.422 Y86.887 E24.78501 F1200
G1 X180.242 Y87.552 E24.82054 F1200
G1 X180.891 Y88.198 E24.85136 F1200
G1 X181.562 Y89.004 E24.88665 F1200
G1 X182.067 Y89.751 E24.91699 F1200
G1 X182.518 Y90.575 E24.94861 F1200
G1 X182.935 Y91.555 E24.98448 F1200
G1 X183.251 Y92.588 E25.02085 F1200
G1 X183.449 Y93.622 E25.05627 F1200
G1 X183.541 Y94.577 E25.08857 F1200
G1 X183.550 Y95.003 E25.10292 F1200
G1 X183.519 Y115.739 E25.80122 F1200
G1 X183.413 Y116.631 E25.83146 F1200
G1 X183.226 Y117.519 E25.86200 F1200
G1 X182.954 Y118.395 E25.89288 F1200
G1 X182.549 Y119.366 E25.92831 F1200
G1 X182.121 Y120.157 E25.95859 F1200
G1 X181.613 Y120.922 E25.98950 F1200
G1 X180.948 Y121.742 E26.02503 F1200
G1 X180.302 Y122.391 E26.05584 F1200
G1 X179.496 Y123.062 E26.09113 F1200
G1 X178.749 Y123.567 E26.12148 F1200
G1 X177.925 Y124.018 E26.15310 F1200
G1 X176.945 Y124.435 E26.18896 F1200
G1 X175.914 Y124.751 E26.22527 F1200
G1 X174.900 Y124.947 E26.26002 F1200
G1 X173.935 Y125.041 E26.29265 F1200
G1 X173.605 Y125.050 E26.30376 F1200
G1 X163.547 E26.64248 F1200
G1 X163.519 Y145.739 E27.33920 F1200
G1 X163.413 Y146.631 E27.36944 F1200
G1 X163.226 Y147.519 E27.39998 F1200
G1 X162.954 Y148.395 E27.43086 F1200
G1 X162.549 Y149.366 E27.46629 F1200
G1 X162.121 Y150.157 E27.49656 F1200
G1 X161.613 Y150.922 E27.52748 F1200
G1 X160.948 Y151.742 E27.56301 F1200
G1 X160.302 Y152.391 E27.59382 F1200
G1 X159.496 Y153.062 E27.62911 F1200
G1 X158.749 Y153.567 E27.65945 F1200
G1 X157.925 Y154.018 E27.69108 F1200
G1 X156.945 Y154.435 E27.72694 F1200
G1 X155.912 Y154.751 E27.76331 F1200
G1 X154.878 Y154.949 E27.79874 F1200
G1 X153.922 Y155.041 E27.83107 F1200
G1 X153.494 Y155.050 E27.84548 F1200
G1 X142.761 Y155.019 E28.20692 F1200
G1 X141.869 Y154.913 E28.23716 F1200
G1 X140.981 Y154.726 E28.26771 F1200
G1 X140.105 Y154.454 E28.29859 F1200
G1 X139.134 Y154.049 E28.33402 F1200
G1 X138.343 Y153.621 E28.36429 F1200
G1 X137.578 Y153.113 E28.39520 F1200
G1 X136.758 Y152.448 E28.43073 F1200
G1 X136.109 Y151.802 E28.46155 F1200
G1 X135.438 Y150.996 E28.49684 F1200
G1 X134.933 Y150.249 E28.52718 F1200
G1 X134.482 Y149.425 E28.55880 F1200
G1 X134.065 Y148.445 E28.59467 F1200
G1 X133.749 Y147.414 E28.63097 F1200
G1 X133.553 Y146.400 E28.66572 F1200
G1 X133.459 Y145.435 E28.69835 F1200
G1 X133.450 Y145.105 E28.70947 F1200
G1 Y125.045 E29.38501 F1200
G1 X122.761 Y125.019 E29.74497 F1200
G1 X121.869 Y124.913 E29.77521 F1200
G1 X120.981 Y124.726 E29.80575 F1200
G1 X120.105 Y124.454 E29.83663 F1200
G1 X119.134 Y124.049 E29.87206 F1200
G1 X118.343 Y123.621 E29.90234 F1200
G1 X117.578 Y123.113 E29.93325 F1200
G1 X116.758 Y122.448 E29.96878 F1200
G1 X116.109 Y121.802 E29.99959 F1200
G1 X115.438 Y120.996 E30.03488 F1200
G1 X114.933 Y120.249 E30.06523 F1200
G1 X114.482 Y119.425 E30.09685 F1200
G1 X114.065 Y118.445 E30.13271 F1200
G1 X113.749 Y117.412 E30.16908 F1200
G1 X113.551 Y116.378 E30.20451 F1200
G1 X113.459 Y115.423 E30.23680 F1200
G1 X113.450 Y114.997 E30.25115 F1200
G1 X113.481 Y94.261 E30.94945 F1200
G1 X113.587 Y93.369 E30.97969 F1200
G1 X113.774 Y92.481 E31.01024 F1200
G1 X114.046 Y91.605 E31.04112 F1200
G1 X114.451 Y90.634 E31.07655 F1200
G1 X114.879 Y89.843 E31.10682 F1200
G1 X115.387 Y89.078 E31.13774 F1200
G0 X115.807 Y89.417 F7200
G1 X116.435 Y88.638 E31.17141 F1200
G1 X117.045 Y88.023 E31.20057 F1200
G1 X117.807 Y87.385 E31.23401 F1200
G1 X118.512 Y86.906 E31.26271 F1200
G1 X119.287 Y86.478 E31.29251 F1200
G1 X120.215 Y86.081 E31.32649 F1200
G1 X121.190 Y85.779 E31.36084 F1200
G1 X122.153 Y85.590 E31.39387 F1200
G1 X123.080 Y85.499 E31.42523 F1200
G1 X123.410 Y85.490 E31.43634 F1200
G1 X133.992 E31.79270 F1200
G1 X134.017 Y64.324 E32.50548 F1200
G1 X134.116 Y63.479 E32.53411 F1200
G1 X134.290 Y62.640 E32.56293 F1200
G1 X134.545 Y61.811 E32.59213 F1200
G1 X134.926 Y60.890 E32.62567 F1200
G1 X135.330 Y60.140 E32.65433 F1200
G1 X135.807 Y59.417 E32.68349 F1200
G1 X136.435 Y58.638 E32.71717 F1200
G1 X137.045 Y58.023 E32.74633 F1200
G1 X137.807 Y57.385 E32.77977 F1200
G1 X138.512 Y56.906 E32.80846 F1200
G1 X139.287 Y56.478 E32.83827 F1200
G1 X140.215 Y56.081 E32.87225 F1200
G1 X141.191 Y55.779 E32.90663 F1200
G1 X142.187 Y55.585 E32.94078 F1200
G1 X143.170 Y55.499 E32.97398 F1200
G1 X153.724 Y55.494 E33.32940 F1200
G1 X154.857 Y55.590 E33.36769 F1200
G1 X155.725 Y55.758 E33.39745 F1200
G1 X156.689 Y56.045 E33.43130 F1200
G1 X157.610 Y56.426 E33.46484 F1200
G1 X158.360 Y56.830 E33.49350 F1200
G1 X159.083 Y57.307 E33.52266 F1200
G1 X159.862 Y57.935 E33.55634 F1200
G1 X160.477 Y58.545 E33.58550 F1200
G1 X161.115 Y59.307 E33.61894 F1200
G1 X161.594 Y60.012 E33.64763 F1200
G1 X162.022 Y60.787 E33.67744 F1200
G1 X162.419 Y61.715 E33.71141 F1200
G1 X162.721 Y62.690 E33.74576 F1200
G1 X162.910 Y63.653 E33.77880 F1200
G1 X163.001 Y64.580 E33.81015 F1200
G1 X163.010 Y64.910 E33.82127 F1200
G1 Y85.494 E34.51445 F1200
G1 X174.176 Y85.517 E34.89047 F1200
G1 X175.021 Y85.616 E34.91910 F1200
G1 X175.860 Y85.790 E34.94793 F1200
G1 X176.689 Y86.045 E34.97712 F1200
G1 X177.610 Y86.426 E35.01066 F1200
G1 X178.360 Y86.830 E35.03932 F1200
G1 X179.083 Y87.307 E35.06849 F1200
G1 X179.862 Y87.935 E35.10216 F1200
G1 X180.477 Y88.545 E35.13132 F1200
G1 X181.115 Y89.307 E35.16477 F1200
G1 X181.594 Y90.012 E35.19346 F1200
G1 X182.022 Y90.787 E35.22326 F1200
G1 X182.419 Y91.715 E35.25724 F1200
G1 X182.721 Y92.691 E35.29162 F1200
G1 X182.912 Y93.674 E35.32533 F1200
G1 X183.001 Y94.589 E35.35628 F1200
G1 X183.010 Y95.002 E35.37019 F1200
G1 X182.983 Y115.676 E36.06640 F1200
G1 X182.884 Y116.521 E36.09503 F1200
G1 X182.710 Y117.360 E36.12385 F1200
G1 X182.455 Y118.189 E36.15305 F1200
G1 X182.074 Y119.110 E36.18659 F1200
G1 X181.670 Y119.860 E36.21525 F1200
G1 X181.193 Y120.583 E36.24441 F1200
G1 X180.565 Y121.362 E36.27809 F1200
G1 X179.955 Y121.977 E36.30725 F1200
G1 X179.193 Y122.615 E36.34069 F1200
G1 X178.488 Y123.094 E36.36939 F1200
G1 X177.713 Y123.522 E36.39919 F1200
G1 X176.785 Y123.919 E36.43317 F1200
G1 X175.810 Y124.221 E36.46752 F1200
G1 X174.847 Y124.410 E36.50055 F1200
G1 X173.920 Y124.501 E36.53191 F1200
G1 X173.590 Y124.510 E36.54302 F1200
G1 X163.008 E36.89938 F1200
G1 X162.983 Y145.676 E37.61216 F1200
G1 X162.884 Y146.521 E37.64078 F1200
G1 X162.710 Y147.360 E37.66961 F1200
G1 X162.455 Y148.189 E37.69881 F1200
G1 X162.074 Y149.110 E37.73235 F1200
G1 X161.670 Y149.860 E37.76101 F1200
G1 X161.193 Y150.583 E37.79017 F1200
G1 X160.565 Y151.362 E37.82385 F1200
G1 X159.955 Y151.977 E37.85301 F1200
G1 X159.193 Y152.615 E37.88645 F1200
G1 X158.488 Y153.094 E37.91514 F1200
G1 X157.713 Y153.522 E37.94495 F1200
G1 X156.785 Y153.919 E37.97892 F1200
G1 X155.809 Y154.221 E38.01331 F1200
G1 X154.826 Y154.412 E38.04702 F1200
G1 X153.910 Y154.501 E38.07800 F1200
G1 X153.495 Y154.510 E38.09197 F1200
G1 X142.824 Y154.483 E38.45133 F1200
G1 X141.979 Y154.384 E38.47995 F1200
G1 X141.140 Y154.210 E38.50878 F1200
G1 X140.311 Y153.955 E38.53798 F1200
G1 X139.390 Y153.574 E38.57152 F1200
G1 X138.640 Y153.170 E38.60018 F1200
G1 X137.917 Y152.693 E38.62934 F1200
G1 X137.138 Y152.065 E38.66302 F1200
G1 X136.523 Y151.455 E38.69218 F1200
G1 X135.885 Y150.693 E38.72562 F1200
G1 X135.406 Y149.988 E38.75431 F1200
G1 X134.978 Y149.213 E38.78411 F1200
G1 X134.581 Y148.285 E38.81809 F1200
G1 X134.279 Y147.310 E38.85244 F1200
G1 X134.090 Y146.347 E38.88548 F1200
G1 X133.999 Y145.420 E38.91683 F1200
G1 X133.990 Y145.090 E38.92794 F1200
G1 Y124.506 E39.62113 F1200
G1 X122.824 Y124.483 E39.99715 F1200
G1 X121.979 Y124.384 E40.02578 F1200
G1 X121.140 Y124.210 E40.05460 F1200
G1 X120.311 Y123.955 E40.08380 F1200
G1 X119.390 Y123.574 E40.11734 F1200
G1 X118.640 Y123.170 E40.14600 F1200
G1 X117.917 Y122.693 E40.17516 F1200
G1 X117.138 Y122.065 E40.20884 F1200
G1 X116.523 Y121.455 E40.23800 F1200
G1 X115.885 Y120.693 E40.27144 F1200
G1 X115.406 Y119.988 E40.30014 F1200
G1 X114.978 Y119.213 E40.32994 F1200
G1 X114.581 Y118.285 E40.36392 F1200
G1 X114.279 Y117.309 E40.39830 F1200
G1 X114.088 Y116.326 E40.43201 F1200
G1 X113.999 Y115.411 E40.46296 F1200
G1 X113.990 Y114.998 E40.47687 F1200
G1 X114.017 Y94.324 E41.17308 F1200
G1 X114.116 Y93.479 E41.20171 F1200
G1 X114.290 Y92.640 E41.23053 F1200
G1 X114.545 Y91.811 E41.25973 F1200
G1 X114.926 Y90.890 E41.29327 F1200
G1 X115.330 Y90.140 E41.32193 F1200
G1 X115.807 Y89.417 E41.35109 F1200
G0 X116.229 Y89.754 F7200
G1 X116.819 Y89.017 E41.38288 F1200
G1 X117.392 Y88.436 E41.41036 F1200
G1 X118.112 Y87.831 E41.44202 F1200
G1 X118.774 Y87.378 E41.46903 F1200
G1 X119.501 Y86.974 E41.49701 F1200
G1 X120.376 Y86.596 E41.52910 F1200
G1 X121.296 Y86.309 E41.56153 F1200
G1 X122.206 Y86.127 E41.59278 F1200
G1 X123.095 Y86.039 E41.62286 F1200
G1 X123.425 Y86.030 E41.63397 F1200
G1 X134.531 E42.00797 F1200
G1 X134.554 Y64.385 E42.73689 F1200
G1 X134.645 Y63.587 E42.76393 F1200
G1 X134.807 Y62.797 E42.79107 F1200
G1 X135.045 Y62.016 E42.81855 F1200
G1 X135.402 Y61.145 E42.85024 F1200
G1 X135.781 Y60.436 E42.87728 F1200
G1 X136.229 Y59.754 E42.90473 F1200
G1 X136.819 Y59.017 E42.93652 F1200
G1 X137.392 Y58.436 E42.96400 F1200
G1 X138.112 Y57.831 E42.99565 F1200
G1 X138.774 Y57.378 E43.02266 F1200
G1 X139.501 Y56.974 E43.05065 F1200
G1 X140.376 Y56.596 E43.08274 F1200
G1 X141.296 Y56.309 E43.11517 F1200
G1 X142.235 Y56.123 E43.14740 F1200
G1 X143.170 Y56.039 E43.17899 F1200
G1 X153.724 Y56.034 E43.53440 F1200
G1 X154.756 Y56.121 E43.56926 F1200
G1 X155.572 Y56.276 E43.59721 F1200
G1 X156.484 Y56.545 E43.62920 F1200
G1 X157.355 Y56.902 E43.66089 F1200
G1 X158.064 Y57.281 E43.68793 F1200
G1 X158.746 Y57.729 E43.71538 F1200
G1 X159.483 Y58.319 E43.74717 F1200
G1 X160.064 Y58.892 E43.77465 F1200
G1 X160.669 Y59.612 E43.80630 F1200
G1 X161.122 Y60.274 E43.83331 F1200
G1 X161.526 Y61.001 E43.86129 F1200
G1 X161.904 Y61.876 E43.89339 F1200
G1 X162.191 Y62.796 E43.92582 F1200
G1 X162.373 Y63.706 E43.95707 F1200
G1 X162.461 Y64.595 E43.98714 F1200
G1 X162.470 Y64.925 E43.99825 F1200
G1 Y86.033 E44.70908 F1200
G1 X174.115 Y86.054 E45.10124 F1200
G1 X174.913 Y86.145 E45.12828 F1200
G1 X175.703 Y86.307 E45.15542 F1200
G1 X176.484 Y86.545 E45.18290 F1200
G1 X177.355 Y86.902 E45.21459 F1200
G1 X178.064 Y87.281 E45.24163 F1200
G1 X178.746 Y87.729 E45.26908 F1200
G1 X179.483 Y88.319 E45.30087 F1200
G1 X180.064 Y88.892 E45.32835 F1200
G1 X180.669 Y89.612 E45.36001 F1200
G1 X181.122 Y90.274 E45.38701 F1200
G1 X181.526 Y91.001 E45.41500 F1200
G1 X181.904 Y91.876 E45.44709 F1200
G1 X182.191 Y92.796 E45.47952 F1200
G1 X182.375 Y93.727 E45.51148 F1200
G1 X182.461 Y94.601 E45.54105 F1200
G1 X182.470 Y95.001 E45.55452 F1200
G1 X182.446 Y115.615 E46.24871 F1200
G1 X182.355 Y116.413 E46.27575 F1200
G1 X182.193 Y117.203 E46.30290 F1200
G1 X181.955 Y117.984 E46.33038 F1200
G1 X181.598 Y118.855 E46.36206 F1200
G1 X181.219 Y119.564 E46.38911 F1200
G1 X180.771 Y120.246 E46.41655 F1200
G1 X180.181 Y120.983 E46.44834 F1200
G1 X179.608 Y121.564 E46.47582 F1200
G1 X178.888 Y122.169 E46.50748 F1200
G1 X178.226 Y122.622 E46.53449 F1200
G1 X177.499 Y123.026 E46.56247 F1200
G1 X176.624 Y123.404 E46.59456 F1200
G1 X175.704 Y123.691 E46.62699 F1200
G1 X174.794 Y123.873 E46.65824 F1200
G1 X173.905 Y123.961 E46.68832 F1200
G1 X173.575 Y123.970 E46.69943 F1200
G1 X162.469 E47.07343 F1200
G1 X162.446 Y145.615 E47.80235 F1200
G1 X162.355 Y146.413 E47.82939 F1200
G1 X162.193 Y147.203 E47.85653 F1200
G1 X161.955 Y147.984 E47.88401 F1200
G1 X161.598 Y148.855 E47.91570 F1200
G1 X161.219 Y149.564 E47.94274 F1200
G1 X160.771 Y150.246 E47.97019 F1200
G1 X160.181 Y150.983 E48.00198 F1200
G1 X159.608 Y151.564 E48.02946 F1200
G1 X158.888 Y152.169 E48.06111 F1200
G1 X158.226 Y152.622 E48.08812 F1200
G1 X157.499 Y153.026 E48.11611 F1200
G1 X156.624 Y153.404 E48.14820 F1200
G1 X155.704 Y153.691 E48.18063 F1200
G1 X154.773 Y153.875 E48.21259 F1200
G1 X153.898 Y153.961 E48.24219 F1200
G1 X153.496 Y153.970 E48.25573 F1200
G1 X142.885 Y153.946 E48.61306 F1200
G1 X142.087 Y153.855 E48.64010 F1200
G1 X141.297 Y153.693 E48.66725 F1200
G1 X140.516 Y153.455 E48.69473 F1200
G1 X139.645 Y153.098 E48.72642 F1200
G1 X138.936 Y152.719 E48.75346 F1200
G1 X138.254 Y152.271 E48.78090 F1200
G1 X137.517 Y151.681 E48.81269 F1200
G1 X136.936 Y151.108 E48.84017 F1200
G1 X136.331 Y150.388 E48.87183 F1200
G1 X135.878 Y149.726 E48.89884 F1200
G1 X135.474 Y148.999 E48.92682 F1200
G1 X135.096 Y148.124 E48.95891 F1200
G1 X134.809 Y147.204 E48.99134 F1200
G1 X134.627 Y146.294 E49.02259 F1200
G1 X134.539 Y145.405 E49.05267 F1200
G1 X134.530 Y145.075 E49.06378 F1200
G1 Y123.967 E49.77461 F1200
G1 X122.885 Y123.946 E50.16677 F1200
G1 X122.087 Y123.855 E50.19381 F1200
G1 X121.297 Y123.693 E50.22095 F1200
G1 X120.516 Y123.455 E50.24843 F1200
G1 X119.645 Y123.098 E50.28012 F1200
G1 X118.936 Y122.719 E50.30716 F1200
G1 X118.254 Y122.271 E50.33461 F1200
G1 X117.517 Y121.681 E50.36640 F1200
G1 X116.936 Y121.108 E50.39388 F1200
G1 X116.331 Y120.388 E50.42553 F1200
G1 X115.878 Y119.726 E50.45254 F1200
G1 X115.474 Y118.999 E50.48052 F1200
G1 X115.096 Y118.124 E50.51262 F1200
G1 X114.809 Y117.204 E50.54505 F1200
G1 X114.625 Y116.273 E50.57701 F1200
G1 X114.539 Y115.399 E50.60657 F1200
G1 X114.530 Y114.999 E50.62004 F1200
G1 X114.554 Y94.385 E51.31424 F1200
G1 X114.645 Y93.587 E51.34128 F1200
G1 X114.807 Y92.797 E51.36842 F1200
G1 X115.045 Y92.016 E51.39590 F1200
G1 X115.402 Y91.145 E51.42759 F1200
G1 X115.781 Y90.436 E51.45463 F1200
G1 X116.229 Y89.754 E51.48208 F1200
G0 X116.652 Y90.090 F7200
G1 X117.205 Y89.395 E51.51198 F1200
G1 X117.741 Y88.848 E51.53775 F1200
G1 X118.418 Y88.276 E51.56758 F1200
G1 X119.038 Y87.849 E51.59291 F1200
G1 X119.716 Y87.469 E51.61907 F1200
G1 X120.539 Y87.111 E51.64928 F1200
G1 X121.402 Y86.838 E51.67976 F1200
G1 X122.280 Y86.662 E51.70990 F1200
G1 X123.110 Y86.579 E51.73798 F1200
G1 X123.440 Y86.570 E51.74910 F1200
G1 X135.070 E52.14075 F1200
G1 X135.091 Y64.444 E52.88586 F1200
G1 X135.174 Y63.694 E52.91125 F1200
G1 X135.324 Y62.953 E52.93671 F1200
G1 X135.545 Y62.219 E52.96250 F1200
G1 X135.879 Y61.398 E52.99234 F1200
G1 X136.233 Y60.731 E53.01777 F1200
G1 X136.652 Y60.090 E53.04353 F1200
G1 X137.205 Y59.395 E53.07343 F1200
G1 X137.741 Y58.848 E53.09920 F1200
G1 X138.418 Y58.276 E53.12903 F1200
G1 X139.038 Y57.849 E53.15436 F1200
G1 X139.716 Y57.469 E53.18052 F1200
G1 X140.539 Y57.111 E53.21073 F1200
G1 X141.402 Y56.838 E53.24121 F1200
G1 X142.285 Y56.661 E53.27151 F1200
G1 X143.170 Y56.579 E53.30142 F1200
G1 X153.724 Y56.574 E53.65683 F1200
G1 X154.657 Y56.652 E53.68835 F1200
G1 X155.421 Y56.794 E53.71452 F1200
G1 X156.281 Y57.045 E53.74466 F1200
G1 X157.102 Y57.379 E53.77450 F1200
G1 X157.769 Y57.733 E53.79992 F1200
G1 X158.410 Y58.152 E53.82569 F1200
G1 X159.105 Y58.705 E53.85559 F1200
G1 X159.652 Y59.241 E53.88135 F1200
G1 X160.224 Y59.918 E53.91119 F1200
G1 X160.651 Y60.538 E53.93651 F1200
G1 X161.031 Y61.216 E53.96268 F1200
G1 X161.389 Y62.039 E53.99289 F1200
G1 X161.662 Y62.902 E54.02336 F1200
G1 X161.838 Y63.780 E54.05350 F1200
G1 X161.921 Y64.610 E54.08159 F1200
G1 X161.930 Y64.940 E54.09270 F1200
G1 Y86.572 E54.82118 F1200
G1 X174.056 Y86.591 E55.22953 F1200
G1 X174.806 Y86.674 E55.25492 F1200
G1 X175.547 Y86.824 E55.28038 F1200
G1 X176.281 Y87.045 E55.30618 F1200
G1 X177.102 Y87.379 E55.33602 F1200
G1 X177.769 Y87.733 E55.36144 F1200
G1 X178.410 Y88.152 E55.38720 F1200
G1 X179.105 Y88.705 E55.41711 F1200
G1 X179.652 Y89.241 E55.44287 F1200
G1 X180.224 Y89.918 E55.47271 F1200
G1 X180.651 Y90.538 E55.49803 F1200
G1 X181.031 Y91.216 E55.52420 F1200
G1 X181.389 Y92.039 E55.55440 F1200
G1 X181.662 Y92.902 E55.58488 F1200
G1 X181.838 Y93.780 E55.61502 F1200
G1 X181.921 Y94.614 E55.64324 F1200
G1 X181.930 Y95 E55.65624 F1200
G1 X181.909 Y115.556 E56.34848 F1200
G1 X181.826 Y116.306 E56.37387 F1200
G1 X181.676 Y117.047 E56.39933 F1200
G1 X181.455 Y117.781 E56.42513 F1200
G1 X181.121 Y118.602 E56.45496 F1200
G1 X180.767 Y119.269 E56.48039 F1200
G1 X180.348 Y119.910 E56.50615 F1200
G1 X179.795 Y120.605 E56.53606 F1200
G1 X179.259 Y121.152 E56.56182 F1200
G1 X178.582 Y121.724 E56.59165 F1200
G1 X177.962 Y122.151 E56.61698 F1200
G1 X177.284 Y122.531 E56.64314 F1200
G1 X176.461 Y122.889 E56.67335 F1200
G1 X175.598 Y123.162 E56.70383 F1200
G1 X174.720 Y123.338 E56.73397 F1200
G1 X173.890 Y123.421 E56.76205 F1200
G1 X173.560 Y123.430 E56.77317 F1200
G1 X161.930 E57.16482 F1200
G1 X161.909 Y145.556 E57.90993 F1200
G1 X161.826 Y146.306 E57.93532 F1200
G1 X161.676 Y147.047 E57.96078 F1200
G1 X161.455 Y147.781 E57.98658 F1200
G1 X161.121 Y148.602 E58.01641 F1200
G1 X160.767 Y149.269 E58.04184 F1200
G1 X160.348 Y149.910 E58.06760 F1200
G1 X159.795 Y150.605 E58.09751 F1200
G1 X159.259 Y151.152 E58.12327 F1200
G1 X158.582 Y151.724 E58.15310 F1200
G1 X157.962 Y152.151 E58.17843 F1200
G1 X157.284 Y152.531 E58.20459 F1200
G1 X156.461 Y152.889 E58.23480 F1200
G1 X155.598 Y153.162 E58.26528 F1200
G1 X154.720 Y153.338 E58.29542 F1200
G1 X153.885 Y153.421 E58.32367 F1200
G1 X153.497 Y153.430 E58.33674 F1200
G1 X142.944 Y153.409 E58.69212 F1200
G1 X142.194 Y153.326 E58.71751 F1200
G1 X141.453 Y153.176 E58.74297 F1200
G1 X140.719 Y152.955 E58.76877 F1200
G1 X139.898 Y152.621 E58.79860 F1200
G1 X139.231 Y152.267 E58.82403 F1200
G1 X138.590 Y151.848 E58.84979 F1200
G1 X137.895 Y151.295 E58.87969 F1200
G1 X137.348 Y150.759 E58.90546 F1200
G1 X136.776 Y150.082 E58.93529 F1200
G1 X136.349 Y149.462 E58.96062 F1200
G1 X135.969 Y148.784 E58.98678 F1200
G1 X135.611 Y147.961 E59.01699 F1200
G1 X135.338 Y147.098 E59.04747 F1200
G1 X135.162 Y146.220 E59.07761 F1200
G1 X135.079 Y145.390 E59.10569 F1200
G1 X135.070 Y145.060 E59.11681 F1200
G1 Y123.428 E59.84528 F1200
G1 X122.944 Y123.409 E60.25364 F1200
G1 X122.194 Y123.326 E60.27903 F1200
G1 X121.453 Y123.176 E60.30449 F1200
G1 X120.719 Y122.955 E60.33028 F1200
G1 X119.898 Y122.621 E60.36012 F1200
G1 X119.231 Y122.267 E60.38555 F1200
G1 X118.590 Y121.848 E60.41131 F1200
G1 X117.895 Y121.295 E60.44121 F1200
G1 X117.348 Y120.759 E60.46697 F1200
G1 X116.776 Y120.082 E60.49681 F1200
G1 X116.349 Y119.462 E60.52214 F1200
G1 X115.969 Y118.784 E60.54830 F1200
G1 X115.611 Y117.961 E60.57851 F1200
G1 X115.338 Y117.098 E60.60899 F1200
G1 X115.162 Y116.220 E60.63913 F1200
G1 X115.079 Y115.386 E60.66735 F1200
G1 X115.070 Y115 E60.68034 F1200
G1 X115.091 Y94.444 E61.37259 F1200
G1 X115.174 Y93.694 E61.39798 F1200
G1 X115.324 Y92.953 E61.42344 F1200
G1 X115.545 Y92.219 E61.44923 F1200
G1 X115.879 Y91.398 E61.47907 F1200
G1 X116.233 Y90.731 E61.50449 F1200
G1 X116.652 Y90.090 E61.53026 F1200
G0 X117.075 Y90.425 F7200
G1 X117.592 Y89.772 E61.55827 F1200
G1 X118.091 Y89.259 E61.58235 F1200
G1 X118.725 Y88.720 E61.61037 F1200
G1 X119.304 Y88.319 E61.63408 F1200
G1 X119.933 Y87.963 E61.65839 F1200
G1 X120.703 Y87.625 E61.68668 F1200
G1 X121.510 Y87.367 E61.71520 F1200
G1 X122.334 Y87.199 E61.74349 F1200
G1 X123.125 Y87.119 E61.77026 F1200
G1 X123.455 Y87.110 E61.78138 F1200
G1 X135.610 E62.19071 F1200
G1 X135.628 Y64.501 E62.95209 F1200
G1 X135.703 Y63.800 E62.97583 F1200
G1 X135.842 Y63.107 E62.99960 F1200
G1 X136.046 Y62.421 E63.02368 F1200
G1 X136.357 Y61.650 E63.05167 F1200
G1 X136.686 Y61.025 E63.07544 F1200
G1 X137.075 Y60.425 E63.09952 F1200
G1 X137.592 Y59.772 E63.12754 F1200
G1 X138.091 Y59.259 E63.15162 F1200
G1 X138.725 Y58.720 E63.17963 F1200
G1 X139.304 Y58.319 E63.20334 F1200
G1 X139.933 Y57.963 E63.22766 F1200
G1 X140.703 Y57.625 E63.25594 F1200
G1 X141.510 Y57.367 E63.28447 F1200
G1 X142.337 Y57.199 E63.31286 F1200
G1 X143.170 Y57.119 E63.34101 F1200
G1 X153.724 Y57.114 E63.69642 F1200
G1 X154.560 Y57.183 E63.72464 F1200
G1 X155.271 Y57.313 E63.74896 F1200
G1 X156.079 Y57.546 E63.77725 F1200
G1 X156.850 Y57.857 E63.80523 F1200
G1 X157.475 Y58.186 E63.82901 F1200
G1 X158.075 Y58.575 E63.85308 F1200
G1 X158.728 Y59.092 E63.88110 F1200
G1 X159.241 Y59.591 E63.90518 F1200
G1 X159.780 Y60.225 E63.93320 F1200
G1 X160.181 Y60.804 E63.95691 F1200
G1 X160.537 Y61.433 E63.98122 F1200
G1 X160.875 Y62.203 E64.00951 F1200
G1 X161.133 Y63.010 E64.03803 F1200
G1 X161.301 Y63.834 E64.06632 F1200
G1 X161.381 Y64.625 E64.09309 F1200
G1 X161.390 Y64.955 E64.10421 F1200
G1 Y87.111 E64.85033 F1200
G1 X173.999 Y87.128 E65.27495 F1200
G1 X174.700 Y87.203 E65.29869 F1200
G1 X175.393 Y87.342 E65.32246 F1200
G1 X176.079 Y87.546 E65.34654 F1200
G1 X176.850 Y87.857 E65.37453 F1200
G1 X177.475 Y88.186 E65.39830 F1200
G1 X178.075 Y88.575 E65.42238 F1200
G1 X178.728 Y89.092 E65.45040 F1200
G1 X179.241 Y89.591 E65.47448 F1200
G1 X179.780 Y90.225 E65.50250 F1200
G1 X180.181 Y90.804 E65.52620 F1200
G1 X180.537 Y91.433 E65.55052 F1200
G1 X180.875 Y92.203 E65.57881 F1200
G1 X181.133 Y93.010 E65.60733 F1200
G1 X181.301 Y93.834 E65.63562 F1200
G1 X181.381 Y94.627 E65.66246 F1200
G1 X181.390 Y95 E65.67502 F1200
G1 X181.372 Y115.499 E66.36534 F1200
G1 X181.297 Y116.200 E66.38908 F1200
G1 X181.158 Y116.893 E66.41286 F1200
G1 X180.954 Y117.579 E66.43693 F1200
G1 X180.643 Y118.350 E66.46492 F1200
G1 X180.314 Y118.975 E66.48869 F1200
G1 X179.925 Y119.575 E66.51277 F1200
G1 X179.408 Y120.228 E66.54079 F1200
G1 X178.909 Y120.741 E66.56487 F1200
G1 X178.275 Y121.280 E66.59289 F1200
G1 X177.696 Y121.681 E66.61660 F1200
G1 X177.067 Y122.037 E66.64091 F1200
G1 X176.297 Y122.375 E66.66920 F1200
G1 X175.490 Y122.633 E66.69772 F1200
G1 X174.666 Y122.801 E66.72601 F1200
G1 X173.875 Y122.881 E66.75278 F1200
G1 X173.545 Y122.890 E66.76389 F1200
G1 X161.390 E67.17322 F1200
G1 X161.372 Y145.499 E67.93460 F1200
G1 X161.297 Y146.200 E67.95834 F1200
G1 X161.158 Y146.893 E67.98212 F1200
G1 X160.954 Y147.579 E68.00620 F1200
G1 X160.643 Y148.350 E68.03418 F1200
G1 X160.314 Y148.975 E68.05796 F1200
G1 X159.925 Y149.575 E68.08204 F1200
G1 X159.408 Y150.228 E68.11005 F1200
G1 X158.909 Y150.741 E68.13413 F1200
G1 X158.275 Y151.280 E68.16215 F1200
G1 X157.696 Y151.681 E68.18586 F1200
G1 X157.067 Y152.037 E68.21017 F1200
G1 X156.297 Y152.375 E68.23846 F1200
G1 X155.490 Y152.633 E68.26698 F1200
G1 X154.666 Y152.801 E68.29527 F1200
G1 X153.872 Y152.881 E68.32214 F1200
G1 X153.498 Y152.890 E68.33474 F1200
G1 X143.001 Y152.872 E68.68823 F1200
G1 X142.300 Y152.797 E68.71198 F1200
G1 X141.607 Y152.658 E68.73575 F1200
G1 X140.921 Y152.454 E68.75983 F1200
G1 X140.150 Y152.143 E68.78781 F1200
G1 X139.525 Y151.814 E68.81159 F1200
G1 X138.925 Y151.425 E68.83567 F1200
G1 X138.272 Y150.908 E68.86369 F1200
G1 X137.759 Y150.409 E68.88776 F1200
G1 X137.220 Y149.775 E68.91578 F1200
G1 X136.819 Y149.196 E68.93949 F1200
G1 X136.463 Y148.567 E68.96380 F1200
G1 X136.125 Y147.797 E68.99209 F1200
G1 X135.867 Y146.990 E69.02062 F1200
G1 X135.699 Y146.166 E69.04890 F1200
G1 X135.619 Y145.375 E69.07568 F1200
G1 X135.610 Y145.045 E69.08679 F1200
G1 Y122.889 E69.83291 F1200
G1 X123.001 Y122.872 E70.25753 F1200
G1 X122.300 Y122.797 E70.28127 F1200
G1 X121.607 Y122.658 E70.30505 F1200
G1 X120.921 Y122.454 E70.32913 F1200
G1 X120.150 Y122.143 E70.35711 F1200
G1 X119.525 Y121.814 E70.38089 F1200
G1 X118.925 Y121.425 E70.40496 F1200
G1 X118.272 Y120.908 E70.43298 F1200
G1 X117.759 Y120.409 E70.45706 F1200
G1 X117.220 Y119.775 E70.48508 F1200
G1 X116.819 Y119.196 E70.50879 F1200
G1 X116.463 Y118.567 E70.53310 F1200
G1 X116.125 Y117.797 E70.56139 F1200
G1 X115.867 Y116.990 E70.58991 F1200
G1 X115.699 Y116.166 E70.61820 F1200
G1 X115.619 Y115.373 E70.64504 F1200
G1 X115.610 Y115 E70.65760 F1200
G1 X115.628 Y94.501 E71.34792 F1200
G1 X115.703 Y93.800 E71.37166 F1200
G1 X115.842 Y93.107 E71.39544 F1200
G1 X116.046 Y92.421 E71.41952 F1200
G1 X116.357 Y91.650 E71.44750 F1200
G1 X116.686 Y91.025 E71.47128 F1200
G1 X117.075 Y90.425 E71.49536 F1200
G0 X117.499 Y90.759 F7200
G1 X117.981 Y90.147 E71.52159 F1200
G1 X118.442 Y89.669 E71.54395 F1200
G1 X119.034 Y89.163 E71.57015 F1200
G1 X119.572 Y88.788 E71.59221 F1200
G1 X120.152 Y88.457 E71.61467 F1200
G1 X120.869 Y88.139 E71.64107 F1200
G1 X121.620 Y87.896 E71.66764 F1200
G1 X122.389 Y87.736 E71.69408 F1200
G1 X123.140 Y87.659 E71.71947 F1200
G1 X123.470 Y87.650 E71.73058 F1200
G1 X136.150 E72.15759 F1200
G1 X136.165 Y64.557 E72.93527 F1200
G1 X136.233 Y63.904 E72.95736 F1200
G1 X136.360 Y63.259 E72.97949 F1200
G1 X136.547 Y62.622 E73.00181 F1200
G1 X136.836 Y61.900 E73.02798 F1200
G1 X137.140 Y61.317 E73.05010 F1200
G1 X137.499 Y60.759 E73.07243 F1200
G1 X137.981 Y60.147 E73.09866 F1200
G1 X138.442 Y59.669 E73.12103 F1200
G1 X139.034 Y59.163 E73.14723 F1200
G1 X139.572 Y58.788 E73.16928 F1200
G1 X140.152 Y58.457 E73.19174 F1200
G1 X140.869 Y58.139 E73.21815 F1200
G1 X141.620 Y57.896 E73.24472 F1200
G1 X142.390 Y57.736 E73.27119 F1200
G1 X143.170 Y57.659 E73.29755 F1200
G1 X153.724 Y57.654 E73.65297 F1200
G1 X154.465 Y57.715 E73.67799 F1200
G1 X155.123 Y57.832 E73.70049 F1200
G1 X155.878 Y58.047 E73.72692 F1200
G1 X156.600 Y58.336 E73.75309 F1200
G1 X157.183 Y58.640 E73.77521 F1200
G1 X157.741 Y58.999 E73.79754 F1200
G1 X158.353 Y59.481 E73.82377 F1200
G1 X158.831 Y59.942 E73.84613 F1200
G1 X159.337 Y60.534 E73.87233 F1200
G1 X159.712 Y61.072 E73.89439 F1200
G1 X160.043 Y61.652 E73.91685 F1200
G1 X160.361 Y62.369 E73.94326 F1200
G1 X160.604 Y63.120 E73.96983 F1200
G1 X160.764 Y63.889 E73.99626 F1200
G1 X160.841 Y64.640 E74.02165 F1200
G1 X160.850 Y64.970 E74.03277 F1200
G1 Y87.650 E74.79654 F1200
G1 X173.943 Y87.665 E75.23745 F1200
G1 X174.596 Y87.733 E75.25955 F1200
G1 X175.241 Y87.860 E75.28167 F1200
G1 X175.878 Y88.047 E75.30400 F1200
G1 X176.600 Y88.336 E75.33016 F1200
G1 X177.183 Y88.640 E75.35229 F1200
G1 X177.741 Y88.999 E75.37462 F1200
G1 X178.353 Y89.481 E75.40085 F1200
G1 X178.831 Y89.942 E75.42321 F1200
G1 X179.337 Y90.534 E75.44941 F1200
G1 X179.712 Y91.072 E75.47147 F1200
G1 X180.043 Y91.652 E75.49393 F1200
G1 X180.361 Y92.369 E75.52033 F1200
G1 X180.604 Y93.120 E75.54690 F1200
G1 X180.764 Y93.889 E75.57334 F1200
G1 X180.841 Y94.641 E75.59876 F1200
G1 X180.850 Y95 E75.61085 F1200
G1 X180.835 Y115.443 E76.29929 F1200
G1 X180.767 Y116.096 E76.32138 F1200
G1 X180.640 Y116.741 E76.34350 F1200
G1 X180.453 Y117.378 E76.36583 F1200
G1 X180.164 Y118.100 E76.39200 F1200
G1 X179.860 Y118.683 E76.41412 F1200
G1 X179.501 Y119.241 E76.43645 F1200
G1 X179.019 Y119.853 E76.46268 F1200
G1 X178.558 Y120.331 E76.48504 F1200
G1 X177.966 Y120.837 E76.51124 F1200
G1 X177.428 Y121.212 E76.53330 F1200
G1 X176.848 Y121.543 E76.55576 F1200
G1 X176.131 Y121.861 E76.58217 F1200
G1 X175.380 Y122.104 E76.60874 F1200
G1 X174.611 Y122.264 E76.63517 F1200
G1 X173.860 Y122.341 E76.66056 F1200
G1 X173.530 Y122.350 E76.67168 F1200
G1 X160.850 E77.09869 F1200
G1 X160.835 Y145.443 E77.87636 F1200
G1 X160.767 Y146.096 E77.89846 F1200
G1 X160.640 Y146.741 E77.92058 F1200
G1 X160.453 Y147.378 E77.94291 F1200
G1 X160.164 Y148.100 E77.96907 F1200
G1 X159.860 Y148.683 E77.99120 F1200
G1 X159.501 Y149.241 E78.01353 F1200
G1 X159.019 Y149.853 E78.03976 F1200
G1 X158.558 Y150.331 E78.06212 F1200
G1 X157.966 Y150.837 E78.08832 F1200
G1 X157.428 Y151.212 E78.11038 F1200
G1 X156.848 Y151.543 E78.13284 F1200
G1 X156.131 Y151.861 E78.15924 F1200
G1 X155.380 Y152.104 E78.18581 F1200
G1 X154.611 Y152.264 E78.21225 F1200
G1 X153.859 Y152.341 E78.23767 F1200
G1 X153.499 Y152.350 E78.24980 F1200
G1 X143.057 Y152.335 E78.60144 F1200
G1 X142.404 Y152.267 E78.62353 F1200
G1 X141.759 Y152.140 E78.64566 F1200
G1 X141.122 Y151.953 E78.66798 F1200
G1 X140.400 Y151.664 E78.69415 F1200
G1 X139.817 Y151.360 E78.71627 F1200
G1 X139.259 Y151.001 E78.73860 F1200
G1 X138.647 Y150.519 E78.76483 F1200
G1 X138.169 Y150.058 E78.78720 F1200
G1 X137.663 Y149.466 E78.81340 F1200
G1 X137.288 Y148.928 E78.83545 F1200
G1 X136.957 Y148.348 E78.85791 F1200
G1 X136.639 Y147.631 E78.88432 F1200
G1 X136.396 Y146.880 E78.91089 F1200
G1 X136.236 Y146.111 E78.93732 F1200
G1 X136.159 Y145.360 E78.96271 F1200
G1 X136.150 Y145.030 E78.97383 F1200
G1 Y122.350 E79.73760 F1200
G1 X123.057 Y122.335 E80.17851 F1200
G1 X122.404 Y122.267 E80.20061 F1200
G1 X121.759 Y122.140 E80.22273 F1200
G1 X121.122 Y121.953 E80.24506 F1200
G1 X120.400 Y121.664 E80.27122 F1200
G1 X119.817 Y121.360 E80.29335 F1200
G1 X119.259 Y121.001 E80.31568 F1200
G1 X118.647 Y120.519 E80.34191 F1200
G1 X118.169 Y120.058 E80.36427 F1200
G1 X117.663 Y119.466 E80.39047 F1200
G1 X117.288 Y118.928 E80.41253 F1200
G1 X116.957 Y118.348 E80.43499 F1200
G1 X116.639 Y117.631 E80.46139 F1200
G1 X116.396 Y116.880 E80.48796 F1200
G1 X116.236 Y116.111 E80.51440 F1200
G1 X116.159 Y115.359 E80.53982 F1200
G1 X116.150 Y115 E80.55191 F1200
G1 X116.165 Y94.557 E81.24035 F1200
G1 X116.233 Y93.904 E81.26244 F1200
G1 X116.360 Y93.259 E81.28457 F1200
G1 X116.547 Y92.622 E81.30689 F1200
G1 X116.836 Y91.900 E81.33306 F1200
G1 X117.140 Y91.317 E81.35518 F1200
G1 X117.499 Y90.759 E81.37751 F1200
G0 X117.925 Y91.091 F7200
G1 X118.371 Y90.520 E81.40189 F1200
G1 X118.794 Y90.078 E81.42247 F1200
G1 X119.344 Y89.605 E81.44688 F1200
G1 X119.842 Y89.256 E81.46736 F1200
G1 X120.373 Y88.950 E81.48797 F1200
G1 X121.038 Y88.652 E81.51248 F1200
G1 X121.732 Y88.424 E81.53707 F1200
G1 X122.445 Y88.273 E81.56158 F1200
G1 X123.155 Y88.199 E81.58559 F1200
G1 X123.485 Y88.190 E81.59671 F1200
G1 X136.690 E82.04140 F1200
G1 X136.702 Y64.611 E82.83544 F1200
G1 X136.763 Y64.007 E82.85588 F1200
G1 X136.879 Y63.409 E82.87639 F1200
G1 X137.049 Y62.821 E82.89700 F1200
G1 X137.316 Y62.148 E82.92138 F1200
G1 X137.595 Y61.608 E82.94182 F1200
G1 X137.925 Y61.091 E82.96247 F1200
G1 X138.371 Y60.520 E82.98685 F1200
G1 X138.794 Y60.078 E83.00742 F1200
G1 X139.344 Y59.605 E83.03184 F1200
G1 X139.842 Y59.256 E83.05231 F1200
G1 X140.373 Y58.950 E83.07292 F1200
G1 X141.038 Y58.652 E83.09744 F1200
G1 X141.732 Y58.424 E83.12202 F1200
G1 X142.445 Y58.273 E83.14654 F1200
G1 X143.170 Y58.199 E83.17105 F1200
G1 X153.724 Y58.194 E83.52647 F1200
G1 X154.373 Y58.247 E83.54839 F1200
G1 X154.977 Y58.352 E83.56904 F1200
G1 X155.679 Y58.549 E83.59359 F1200
G1 X156.352 Y58.816 E83.61797 F1200
G1 X156.892 Y59.095 E83.63841 F1200
G1 X157.409 Y59.425 E83.65905 F1200
G1 X157.980 Y59.871 E83.68343 F1200
G1 X158.422 Y60.294 E83.70401 F1200
G1 X158.895 Y60.844 E83.72842 F1200
G1 X159.244 Y61.342 E83.74890 F1200
G1 X159.550 Y61.873 E83.76951 F1200
G1 X159.848 Y62.538 E83.79403 F1200
G1 X160.076 Y63.232 E83.81861 F1200
G1 X160.227 Y63.945 E83.84312 F1200
G1 X160.301 Y64.655 E83.86714 F1200
G1 X160.310 Y64.985 E83.87825 F1200
G1 Y88.190 E84.65970 F1200
G1 X173.889 Y88.202 E85.11698 F1200
G1 X174.493 Y88.263 E85.13742 F1200
G1 X175.091 Y88.379 E85.15793 F1200
G1 X175.679 Y88.549 E85.17854 F1200
G1 X176.352 Y88.816 E85.20292 F1200
G1 X176.892 Y89.095 E85.22336 F1200
G1 X177.409 Y89.425 E85.24401 F1200
G1 X177.980 Y89.871 E85.26839 F1200
G1 X178.422 Y90.294 E85.28897 F1200
G1 X178.895 Y90.844 E85.31338 F1200
G1 X179.244 Y91.342 E85.33386 F1200
G1 X179.550 Y91.873 E85.35446 F1200
G1 X179.848 Y92.538 E85.37898 F1200
G1 X180.076 Y93.232 E85.40356 F1200
G1 X180.227 Y93.945 E85.42808 F1200
G1 X180.301 Y94.655 E85.45209 F1200
G1 X180.310 Y95 E85.46371 F1200
G1 X180.298 Y115.389 E86.15033 F1200
G1 X180.237 Y115.993 E86.17077 F1200
G1 X180.121 Y116.591 E86.19128 F1200
G1 X179.951 Y117.179 E86.21189 F1200
G1 X179.684 Y117.852 E86.23627 F1200
G1 X179.405 Y118.392 E86.25671 F1200
G1 X179.075 Y118.909 E86.27735 F1200
G1 X178.629 Y119.480 E86.30173 F1200
G1 X178.206 Y119.922 E86.32231 F1200
G1 X177.656 Y120.395 E86.34672 F1200
G1 X177.158 Y120.744 E86.36720 F1200
G1 X176.627 Y121.050 E86.38781 F1200
G1 X175.962 Y121.348 E86.41233 F1200
G1 X175.268 Y121.576 E86.43691 F1200
G1 X174.555 Y121.727 E86.46142 F1200
G1 X173.845 Y121.801 E86.48544 F1200
G1 X173.515 Y121.810 E86.49655 F1200
G1 X160.310 E86.94124 F1200
G1 X160.298 Y145.389 E87.73528 F1200
G1 X160.237 Y145.993 E87.75572 F1200
G1 X160.121 Y146.591 E87.77623 F1200
G1 X159.951 Y147.179 E87.79684 F1200
G1 X159.684 Y147.852 E87.82122 F1200
G1 X159.405 Y148.392 E87.84166 F1200
G1 X159.075 Y148.909 E87.86231 F1200
G1 X158.629 Y149.480 E87.88669 F1200
G1 X158.206 Y149.922 E87.90727 F1200
G1 X157.656 Y150.395 E87.93168 F1200
G1 X157.158 Y150.744 E87.95216 F1200
G1 X156.627 Y151.050 E87.97276 F1200
G1 X155.962 Y151.348 E87.99728 F1200
G1 X155.268 Y151.576 E88.02186 F1200
G1 X154.555 Y151.727 E88.04638 F1200
G1 X153.845 Y151.801 E88.07039 F1200
G1 X153.500 Y151.810 E88.08201 F1200
G1 X143.111 Y151.798 E88.43187 F1200
G1 X142.507 Y151.737 E88.45231 F1200
G1 X141.909 Y151.621 E88.47282 F1200
G1 X141.321 Y151.451 E88.49343 F1200
G1 X140.648 Y151.184 E88.51781 F1200
G1 X140.108 Y150.905 E88.53825 F1200
G1 X139.591 Y150.575 E88.55889 F1200
G1 X139.020 Y150.129 E88.58328 F1200
G1 X138.578 Y149.706 E88.60385 F1200
G1 X138.105 Y149.156 E88.62827 F1200
G1 X137.756 Y148.658 E88.64874 F1200
G1 X137.450 Y148.127 E88.66935 F1200
G1 X137.152 Y147.462 E88.69387 F1200
G1 X136.924 Y146.768 E88.71845 F1200
G1 X136.773 Y146.055 E88.74297 F1200
G1 X136.699 Y145.345 E88.76698 F1200
G1 X136.690 Y145.015 E88.77809 F1200
G1 Y121.810 E89.55954 F1200
G1 X123.111 Y121.798 E90.01682 F1200
G1 X122.507 Y121.737 E90.03727 F1200
G1 X121.909 Y121.621 E90.05777 F1200
G1 X121.321 Y121.451 E90.07838 F1200
G1 X120.648 Y121.184 E90.10276 F1200
G1 X120.108 Y120.905 E90.12321 F1200
G1 X119.591 Y120.575 E90.14385 F1200
G1 X119.020 Y120.129 E90.16823 F1200
G1 X118.578 Y119.706 E90.18881 F1200
G1 X118.105 Y119.156 E90.21322 F1200
G1 X117.756 Y118.658 E90.23370 F1200
G1 X117.450 Y118.127 E90.25431 F1200
G1 X117.152 Y117.462 E90.27882 F1200
G1 X116.924 Y116.768 E90.30341 F1200
G1 X116.773 Y116.055 E90.32792 F1200
G1 X116.699 Y115.345 E90.35193 F1200
G1 X116.690 Y115 E90.36355 F1200
G1 X116.702 Y94.611 E91.05017 F1200
G1 X116.763 Y94.007 E91.07061 F1200
G1 X116.879 Y93.409 E91.09112 F1200
G1 X117.049 Y92.821 E91.11173 F1200
G1 X117.316 Y92.148 E91.13611 F1200
G1 X117.595 Y91.608 E91.15655 F1200
G1 X117.925 Y91.091 E91.17719 F1200
G0 X118.351 Y91.422 F7200
G1 X118.763 Y90.892 E91.19979 F1200
G1 X119.148 Y90.486 E91.21862 F1200
G1 X119.656 Y90.046 E91.24125 F1200
G1 X120.113 Y89.723 E91.26007 F1200
G1 X120.597 Y89.442 E91.27890 F1200
G1 X121.208 Y89.164 E91.30149 F1200
G1 X121.846 Y88.952 E91.32412 F1200
G1 X122.502 Y88.810 E91.34672 F1200
G1 X123.170 Y88.739 E91.36931 F1200
G1 X123.500 Y88.730 E91.38043 F1200
G1 X137.230 E91.84280 F1200
G1 X137.239 Y64.664 E92.65324 F1200
G1 X137.294 Y64.107 E92.67207 F1200
G1 X137.398 Y63.557 E92.69089 F1200
G1 X137.551 Y63.019 E92.70972 F1200
G1 X137.797 Y62.394 E92.73231 F1200
G1 X138.052 Y61.896 E92.75114 F1200
G1 X138.351 Y61.422 E92.77000 F1200
G1 X138.763 Y60.892 E92.79259 F1200
G1 X139.148 Y60.486 E92.81142 F1200
G1 X139.656 Y60.046 E92.83405 F1200
G1 X140.113 Y59.723 E92.85287 F1200
G1 X140.597 Y59.442 E92.87170 F1200
G1 X141.208 Y59.164 E92.89429 F1200
G1 X141.846 Y58.952 E92.91692 F1200
G1 X142.502 Y58.810 E92.93952 F1200
G1 X143.170 Y58.739 E92.96212 F1200
G1 X153.724 Y58.734 E93.31753 F1200
G1 X154.282 Y58.779 E93.33636 F1200
G1 X154.834 Y58.873 E93.35518 F1200
G1 X155.481 Y59.051 E93.37778 F1200
G1 X156.106 Y59.297 E93.40037 F1200
G1 X156.604 Y59.552 E93.41920 F1200
G1 X157.078 Y59.851 E93.43806 F1200
G1 X157.608 Y60.263 E93.46065 F1200
G1 X158.014 Y60.648 E93.47948 F1200
G1 X158.454 Y61.156 E93.50211 F1200
G1 X158.777 Y61.613 E93.52093 F1200
G1 X159.058 Y62.097 E93.53976 F1200
G1 X159.336 Y62.708 E93.56236 F1200
G1 X159.548 Y63.346 E93.58499 F1200
G1 X159.690 Y64.002 E93.60758 F1200
G1 X159.761 Y64.670 E93.63018 F1200
G1 X159.770 Y65 E93.64129 F1200
G1 Y88.730 E94.44042 F1200
G1 X173.836 Y88.739 E94.91411 F1200
G1 X174.393 Y88.794 E94.93293 F1200
G1 X174.943 Y88.898 E94.95176 F1200
G1 X175.481 Y89.051 E94.97058 F1200
G1 X176.106 Y89.297 E94.99318 F1200
G1 X176.604 Y89.552 E95.01200 F1200
G1 X177.078 Y89.851 E95.03086 F1200
G1 X177.608 Y90.263 E95.05346 F1200
G1 X178.014 Y90.648 E95.07228 F1200
G1 X178.454 Y91.156 E95.09491 F1200
G1 X178.777 Y91.613 E95.11374 F1200
G1 X179.058 Y92.097 E95.13256 F1200
G1 X179.336 Y92.708 E95.15516 F1200
G1 X179.548 Y93.346 E95.17779 F1200
G1 X179.690 Y94.002 E95.20038 F1200
G1 X179.761 Y94.670 E95.22298 F1200
G1 X179.770 Y95 E95.23409 F1200
G1 X179.761 Y115.336 E95.91893 F1200
G1 X179.706 Y115.893 E95.93775 F1200
G1 X179.602 Y116.443 E95.95658 F1200
G1 X179.449 Y116.981 E95.97540 F1200
G1 X179.203 Y117.606 E95.99800 F1200
G1 X178.948 Y118.104 E96.01682 F1200
G1 X178.649 Y118.578 E96.03568 F1200
G1 X178.237 Y119.108 E96.05828 F1200
G1 X177.852 Y119.514 E96.07710 F1200
G1 X177.344 Y119.954 E96.09973 F1200
G1 X176.887 Y120.277 E96.11856 F1200
G1 X176.403 Y120.558 E96.13738 F1200
G1 X175.792 Y120.836 E96.15998 F1200
G1 X175.154 Y121.048 E96.18261 F1200
G1 X174.498 Y121.190 E96.20521 F1200
G1 X173.830 Y121.261 E96.22780 F1200
G1 X173.500 Y121.270 E96.23892 F1200
G1 X159.770 E96.70129 F1200
G1 X159.761 Y145.336 E97.51173 F1200
G1 X159.706 Y145.893 E97.53055 F1200
G1 X159.602 Y146.443 E97.54938 F1200
G1 X159.449 Y146.981 E97.56820 F1200
G1 X159.203 Y147.606 E97.59080 F1200
G1 X158.948 Y148.104 E97.60963 F1200
G1 X158.649 Y148.578 E97.62848 F1200
G1 X158.237 Y149.108 E97.65108 F1200
G1 X157.852 Y149.514 E97.66990 F1200
G1 X157.344 Y149.954 E97.69254 F1200
G1 X156.887 Y150.277 E97.71136 F1200
G1 X156.403 Y150.558 E97.73018 F1200
G1 X155.792 Y150.836 E97.75278 F1200
G1 X155.154 Y151.048 E97.77541 F1200
G1 X154.498 Y151.190 E97.79801 F1200
G1 X153.830 Y151.261 E97.82060 F1200
G1 X153.500 Y151.270 E97.83172 F1200
G1 X143.164 Y151.261 E98.17979 F1200
G1 X142.607 Y151.206 E98.19862 F1200
G1 X142.057 Y151.102 E98.21744 F1200
G1 X141.519 Y150.949 E98.23627 F1200
G1 X140.894 Y150.703 E98.25886 F1200
G1 X140.396 Y150.448 E98.27769 F1200
G1 X139.922 Y150.149 E98.29655 F1200
G1 X139.392 Y149.737 E98.31914 F1200
G1 X138.986 Y149.352 E98.33797 F1200
G1 X138.546 Y148.844 E98.36060 F1200
G1 X138.223 Y148.387 E98.37942 F1200
G1 X137.942 Y147.903 E98.39825 F1200
G1 X137.664 Y147.292 E98.42084 F1200
G1 X137.452 Y146.654 E98.44347 F1200
G1 X137.310 Y145.998 E98.46607 F1200
G1 X137.239 Y145.330 E98.48867 F1200
G1 X137.230 Y145 E98.49978 F1200
G1 Y121.270 E99.29891 F1200
G1 X123.164 Y121.261 E99.77259 F1200
G1 X122.607 Y121.206 E99.79142 F1200
G1 X122.057 Y121.102 E99.81024 F1200
G1 X121.519 Y120.949 E99.82907 F1200
G1 X120.894 Y120.703 E99.85166 F1200
G1 X120.396 Y120.448 E99.87049 F1200
G1 X119.922 Y120.149 E99.88935 F1200
G1 X119.392 Y119.737 E99.91194 F1200
G1 X118.986 Y119.352 E99.93077 F1200
G1 X118.546 Y118.844 E99.95340 F1200
G1 X118.223 Y118.387 E99.97222 F1200
G1 X117.942 Y117.903 E99.99105 F1200
G1 X117.664 Y117.292 E100.01365 F1200
G1 X117.452 Y116.654 E100.03628 F1200
G1 X117.310 Y115.998 E100.05887 F1200
G1 X117.239 Y115.330 E100.08147 F1200
G1 X117.230 Y115 E100.09258 F1200
G1 X117.239 Y94.664 E100.77741 F1200
G1 X117.294 Y94.107 E100.79624 F1200
G1 X117.398 Y93.557 E100.81506 F1200
G1 X117.551 Y93.019 E100.83389 F1200
G1 X117.797 Y92.394 E100.85649 F1200
G1 X118.052 Y91.896 E100.87531 F1200
G1 X118.351 Y91.422 E100.89417 F1200
; Inset XP 
G1 F600 E94.39417 ; Retract
G0 X172.132 Y96.368 F7200
G1 F360 E100.89417
G1 Y113.632 E101.51431 F1200
G1 X152.782 Y113.659 E102.20938 F1200
G1 X152.639 Y113.717 E102.21491 F1200
G1 X152.399 Y113.872 E102.22515 F1200
G1 X152.197 Y114.169 E102.23804 F1200
G1 X152.165 Y114.278 E102.24210 F1200
G1 X152.132 Y114.496 E102.25001 F1200
G1 Y143.632 E103.29660 F1200
G1 X144.868 E103.55753 F1200
G1 X144.841 Y114.283 E104.61177 F1200
G1 X144.783 Y114.139 E104.61734 F1200
G1 X144.628 Y113.899 E104.62758 F1200
G1 X144.331 Y113.697 E104.64047 F1200
G1 X144.222 Y113.665 E104.64453 F1200
G1 X144.004 Y113.632 E104.65243 F1200
G1 X124.868 E105.33982 F1200
G1 Y96.368 E105.95996 F1200
G1 X144.218 Y96.341 E106.65503 F1200
G1 X144.361 Y96.283 E106.66056 F1200
G1 X144.601 Y96.128 E106.67080 F1200
G1 X144.803 Y95.831 E106.68369 F1200
G1 X144.835 Y95.722 E106.68775 F1200
G1 X144.868 Y95.504 E106.69565 F1200
G1 Y66.368 E107.74225 F1200
G1 X152.132 E108.00318 F1200
G1 X152.159 Y95.717 E109.05742 F1200
G1 X152.217 Y95.861 E109.06299 F1200
G1 X152.372 Y96.101 E109.07322 F1200
G1 X152.669 Y96.303 E109.08612 F1200
G1 X152.778 Y96.335 E109.09018 F1200
G1 X152.996 Y96.368 E109.09808 F1200
G1 X172.132 E109.78547 F1200
G0 X172.708 Y95.792 F7200
G1 Y114.208 E110.44699 F1200
G1 X152.925 Y114.217 E111.15761 F1200
G1 X152.800 Y114.285 E111.16271 F1200
G1 X152.731 Y114.383 E111.16698 F1200
G1 X152.708 Y114.496 E111.17112 F1200
G1 Y144.208 E112.23840 F1200
G1 X144.292 E112.54071 F1200
G1 X144.283 Y114.425 E113.61054 F1200
G1 X144.215 Y114.300 E113.61564 F1200
G1 X144.117 Y114.231 E113.61992 F1200
G1 X144.004 Y114.208 E113.62405 F1200
G1 X124.292 E114.33212 F1200
G1 Y95.792 E114.99364 F1200
G1 X144.075 Y95.783 E115.70427 F1200
G1 X144.200 Y95.715 E115.70937 F1200
G1 X144.269 Y95.617 E115.71364 F1200
G1 X144.292 Y95.504 E115.71777 F1200
G1 Y65.792 E116.78506 F1200
G1 X152.708 E117.08737 F1200
G1 X152.717 Y95.575 E118.15720 F1200
G1 X152.785 Y95.700 E118.16230 F1200
G1 X152.883 Y95.769 E118.16658 F1200
G1 X152.996 Y95.792 E118.17071 F1200
G1 X172.708 E118.87878 F1200
; Inset 0 
G0 X153.248 Y95.252 F7200
G1 X173.248 E119.50740 F1200
G1 Y114.748 E120.12017 F1200
G1 X153.248 E120.74879 F1200
G1 Y144.748 E121.69171 F1200
G1 X143.752 E121.99018 F1200
G1 Y114.748 E122.93311 F1200
G1 X123.752 E123.56172 F1200
G1 Y95.252 E124.17450 F1200
G1 X143.752 E124.80311 F1200
G1 Y65.252 E125.74604 F1200
G1 X153.248 E126.04451 F1200
G1 Y95.252 E126.98743 F1200
; Solid infill 
G0 X151.879 Y95.039 F7200
G1 X145.156 E127.22893 F1200
G0 Y94.463 F7200
G1 X151.878 E127.47039 F1200
G0 Y93.887 F7200
G1 X145.156 E127.71185 F1200
G0 Y93.311 F7200
G1 X151.877 E127.95327 F1200
G0 X151.876 Y92.735 F7200
G1 X145.156 E128.19466 F1200
G0 Y92.159 F7200
G1 X151.876 E128.43605 F1200
G0 X151.875 Y91.583 F7200
G1 X145.156 E128.67740 F1200
G0 Y91.007 F7200
G1 X151.874 E128.91872 F1200
G0 X151.873 Y90.431 F7200
G1 X145.156 E129.16000 F1200
G0 Y89.855 F7200
G1 X151.873 E129.40128 F1200
G0 X151.872 Y89.279 F7200
G1 X145.156 E129.64253 F1200
G0 Y88.703 F7200
G1 X151.871 E129.88374 F1200
G0 Y88.127 F7200
G1 X145.156 E130.12495 F1200
G0 Y87.551 F7200
G1 X151.870 E130.36612 F1200
G0 X151.869 Y86.975 F7200
G1 X145.156 E130.60726 F1200
G0 Y86.399 F7200
G1 X151.868 E130.84836 F1200
G0 Y85.823 F7200
G1 X145.156 E131.08946 F1200
G0 Y85.247 F7200
G1 X151.867 E131.33053 F1200
G0 X151.866 Y84.671 F7200
G1 X145.156 E131.57155 F1200
G0 Y84.095 F7200
G1 X151.866 E131.81258 F1200
G0 X151.865 Y83.519 F7200
G1 X145.156 E132.05358 F1200
G0 Y82.943 F7200
G1 X151.864 E132.29454 F1200
G0 X151.863 Y82.367 F7200
G1 X145.156 E132.53546 F1200
G0 Y81.791 F7200
G1 X151.863 E132.77638 F1200
G0 X151.862 Y81.215 F7200
G1 X145.156 E133.01727 F1200
G0 Y80.639 F7200
G1 X151.861 E133.25812 F1200
G0 Y80.063 F7200
G1 X145.156 E133.49896 F1200
G0 Y79.487 F7200
G1 X151.860 E133.73978 F1200
G0 X151.859 Y78.911 F7200
G1 X145.156 E133.98056 F1200
G0 Y78.335 F7200
G1 X151.858 E134.22130 F1200
G0 Y77.759 F7200
G1 X145.156 E134.46204 F1200
G0 Y77.183 F7200
G1 X151.857 E134.70275 F1200
G0 X151.856 Y76.607 F7200
G1 X145.156 E134.94342 F1200
G0 Y76.031 F7200
G1 X151.856 E135.18409 F1200
G0 X151.855 Y75.455 F7200
G1 X145.156 E135.42472 F1200
G0 Y74.879 F7200
G1 X151.854 E135.66532 F1200
G0 X151.853 Y74.303 F7200
G1 X145.156 E135.90588 F1200
G0 Y73.727 F7200
G1 X151.853 E136.14645 F1200
G0 X151.852 Y73.151 F7200
G1 X145.156 E136.38697 F1200
G0 Y72.575 F7200
G1 X151.851 E136.62746 F1200
G0 Y71.999 F7200
G1 X145.156 E136.86795 F1200
G0 Y71.423 F7200
G1 X151.850 E137.10841 F1200
G0 X151.849 Y70.847 F7200
G1 X145.156 E137.34883 F1200
G0 Y70.271 F7200
G1 X151.848 E137.58921 F1200
G0 Y69.695 F7200
G1 X145.156 E137.82959 F1200
G0 Y69.119 F7200
G1 X151.847 E138.06994 F1200
G0 X151.846 Y68.543 F7200
G1 X145.156 E138.31025 F1200
G0 Y67.967 F7200
G1 X151.846 E138.55056 F1200
G0 X151.845 Y67.391 F7200
G1 X145.156 E138.79084 F1200
G0 Y66.815 F7200
G1 X151.844 E139.03108 F1200
G1 F600 E132.53108 ; Retract
G0 X151.880 Y95.615 F7200
G1 F360 E139.03108
G1 X145.134 E139.27340 F1200
G0 X144.899 Y96.191 F7200
G1 X152.094 E139.53185 F1200
G0 X152.491 Y113.471 F7200
G1 X144.497 E139.81900 F1200
G0 X145.052 Y114.047 F7200
G1 X151.942 E140.06650 F1200
G0 X151.844 Y114.623 F7200
G1 X145.121 E140.30800 F1200
G0 Y115.199 F7200
G1 X151.844 E140.54949 F1200
G0 Y115.775 F7200
G1 X145.122 E140.79095 F1200
G0 X145.123 Y116.351 F7200
G1 X151.844 E141.03238 F1200
G0 Y116.927 F7200
G1 X145.123 E141.27380 F1200
G0 X145.124 Y117.503 F7200
G1 X151.844 E141.51519 F1200
G0 Y118.079 F7200
G1 X145.125 E141.75654 F1200
G0 Y118.655 F7200
G1 X151.844 E141.99790 F1200
G0 Y119.231 F7200
G1 X145.126 E142.23921 F1200
G0 X145.127 Y119.807 F7200
G1 X151.844 E142.48049 F1200
G0 Y120.383 F7200
G1 X145.128 E142.72174 F1200
G0 Y120.959 F7200
G1 X151.844 E142.96298 F1200
G0 Y121.535 F7200
G1 X145.129 E143.20419 F1200
G0 X145.130 Y122.111 F7200
G1 X151.844 E143.44537 F1200
G0 Y122.687 F7200
G1 X145.130 E143.68654 F1200
G0 X145.131 Y123.263 F7200
G1 X151.844 E143.92768 F1200
G0 Y123.839 F7200
G1 X145.132 E144.16878 F1200
G0 X145.133 Y124.415 F7200
G1 X151.844 E144.40984 F1200
G0 Y124.991 F7200
G1 X145.133 E144.65091 F1200
G0 X145.134 Y125.567 F7200
G1 X151.844 E144.89194 F1200
G0 Y126.143 F7200
G1 X145.135 E145.13293 F1200
G0 Y126.719 F7200
G1 X151.844 E145.37393 F1200
G0 Y127.295 F7200
G1 X145.136 E145.61488 F1200
G0 X145.137 Y127.871 F7200
G1 X151.844 E145.85581 F1200
G0 Y128.447 F7200
G1 X145.138 E146.09669 F1200
G0 Y129.023 F7200
G1 X151.844 E146.33758 F1200
G0 Y129.599 F7200
G1 X145.139 E146.57843 F1200
G0 X145.140 Y130.175 F7200
G1 X151.844 E146.81924 F1200
G0 Y130.751 F7200
G1 X145.140 E147.06006 F1200
G0 X145.141 Y131.328 F7200
G1 X151.844 E147.30083 F1200
G0 Y131.904 F7200
G1 X145.142 E147.54158 F1200
G0 X145.143 Y132.480 F7200
G1 X151.844 E147.78228 F1200
G0 Y133.056 F7200
G1 X145.143 E148.02299 F1200
G0 X145.144 Y133.632 F7200
G1 X151.844 E148.26366 F1200
G0 Y134.208 F7200
G1 X145.145 E148.50429 F1200
G0 Y134.784 F7200
G1 X151.844 E148.74493 F1200
G0 Y135.360 F7200
G1 X145.146 E148.98553 F1200
G0 X145.147 Y135.936 F7200
G1 X151.844 E149.22609 F1200
G0 Y136.512 F7200
G1 X145.148 E149.46662 F1200
G0 Y137.088 F7200
G1 X151.844 E149.70714 F1200
G0 Y137.664 F7200
G1 X145.149 E149.94763 F1200
G0 X145.150 Y138.240 F7200
G1 X151.844 E150.18809 F1200
G0 Y138.816 F7200
G1 X145.150 E150.42854 F1200
G0 X145.151 Y139.392 F7200
G1 X151.844 E150.66896 F1200
G0 Y139.968 F7200
G1 X145.152 E150.90934 F1200
G0 X145.153 Y140.544 F7200
G1 X151.844 E151.14969 F1200
G0 Y141.120 F7200
G1 X145.153 E151.39004 F1200
G0 X145.154 Y141.696 F7200
G1 X151.844 E151.63035 F1200
G0 Y142.272 F7200
G1 X145.155 E151.87062 F1200
G0 Y142.848 F7200
G1 X151.844 E152.11090 F1200
G1 F600 E145.61090 ; Retract
G0 X171.844 Y112.895 F7200
G1 F360 E152.11090
G1 X125.156 E153.78798 F1200
G0 Y112.319 F7200
G1 X171.844 E155.46505 F1200
G0 Y111.743 F7200
G1 X125.156 E157.14213 F1200
G0 Y111.167 F7200
G1 X171.844 E158.81921 F1200
G0 Y110.591 F7200
G1 X125.156 E160.49629 F1200
G0 Y110.015 F7200
G1 X171.844 E162.17336 F1200
G0 Y109.439 F7200
G1 X125.156 E163.85044 F1200
G0 Y108.863 F7200
G1 X171.844 E165.52752 F1200
G0 Y108.287 F7200
G1 X125.156 E167.20459 F1200
G0 Y107.711 F7200
G1 X171.844 E168.88167 F1200
G0 Y107.135 F7200
G1 X125.156 E170.55875 F1200
G0 Y106.559 F7200
G1 X171.844 E172.23583 F1200
G0 Y105.983 F7200
G1 X125.156 E173.91290 F1200
G0 Y105.407 F7200
G1 X171.844 E175.58998 F1200
G0 Y104.831 F7200
G1 X125.156 E177.26706 F1200
G0 Y104.255 F7200
G1 X171.844 E178.94413 F1200
G0 Y103.679 F7200
G1 X125.156 E180.62121 F1200
G0 Y103.103 F7200
G1 X171.844 E182.29829 F1200
G0 Y102.527 F7200
G1 X125.156 E183.97537 F1200
G0 Y101.951 F7200
G1 X171.844 E185.65244 F1200
G0 Y101.375 F7200
G1 X125.156 E187.32952 F1200
G0 Y100.799 F7200
G1 X171.844 E189.00660 F1200
G0 Y100.223 F7200
G1 X125.156 E190.68367 F1200
G0 Y99.647 F7200
G1 X171.844 E192.36075 F1200
G0 Y99.071 F7200
G1 X125.156 E194.03783 F1200
G0 Y98.495 F7200
G1 X171.844 E195.71491 F1200
G0 Y97.919 F7200
G1 X125.156 E197.39198 F1200
G0 Y97.343 F7200
G1 X171.844 E199.06906 F1200
G0 Y96.767 F7200
G1 X125.156 E200.74614 F1200
; MACROLAYER:2
; LAYER:2
; TIME LEFT: 872.163 S
M532 L2
; Inset XP 
G1 F600 E194.24614 ; Retract
G0 Z0.330 F1500
G0 X172.360 Y96.140 F7200
G1 F360 E200.74614
G1 Y113.860 E201.38266 F3000
G1 X152.885 Y113.887 E202.08222 F3000
G1 X152.640 Y114.017 E202.09217 F3000
G1 Y95.977 E202.74018 F3000
G1 X152.834 Y96.097 E202.74837 F3000
G1 X153.080 Y96.140 E202.75731 F3000
G1 X172.360 E203.44987 F3000
G0 X172.840 Y95.660 F7200
G1 Y114.340 E204.12087 F3000
G1 X153.015 Y114.349 E204.83301 F3000
G1 X152.920 Y114.401 E204.83689 F3000
G1 X152.857 Y114.490 E204.84080 F3000
G1 X152.840 Y114.580 E204.84407 F3000
G1 Y144.340 E205.91308 F3000
G1 X152.160 E205.93750 F3000
G1 Y65.660 E208.76376 F3000
G1 X152.840 E208.78819 F3000
G1 X152.849 Y95.485 E209.85953 F3000
G1 X152.901 Y95.580 E209.86341 F3000
G1 X152.990 Y95.643 E209.86733 F3000
G1 X153.080 Y95.660 E209.87060 F3000
G1 X172.840 E210.58039 F3000
; Inset 0 
G0 X153.290 Y95.210 F7200
G1 X173.290 E211.20901 F2400
G1 Y114.790 E211.82443 F2400
G1 X153.290 E212.45304 F2400
G1 Y144.790 E213.39597 F2400
G1 X151.710 E213.44563 F2400
G1 Y65.210 E215.94689 F2400
G1 X153.290 E215.99655 F2400
G1 Y95.210 E216.93948 F2400
; Solid infill 
G0 X152.537 Y95.639 F7200
G1 X152.523 Y95.632 E216.93975 F3000
G1 X152.518 Y95.617 E216.94002 F3000
G1 X152.509 Y95.551 E216.94114 F3000
G1 X152.500 Y66 E217.40333 F3000
G1 F600 E210.90333 ; Retract
G0 X153.120 Y96.379 F7200
G1 F360 E217.40333
G1 Y113.646 E218.02358 F3000
G0 X153.600 Y113.645 F7200
G1 Y96.379 E218.64379 F3000
G0 X154.080 F7200
G1 Y113.644 E219.26397 F3000
G0 X154.560 F7200
G1 Y96.379 E219.88414 F3000
G0 X155.040 F7200
G1 Y113.643 E220.50428 F3000
G0 X155.520 Y113.642 F7200
G1 Y96.379 E221.12438 F3000
G0 X156 F7200
G1 Y113.642 E221.74449 F3000
G0 X156.480 Y113.641 F7200
G1 Y96.379 E222.36455 F3000
G0 X156.960 F7200
G1 Y113.640 E222.98459 F3000
G0 X157.440 F7200
G1 Y96.379 E223.60462 F3000
G0 X157.920 F7200
G1 Y113.639 E224.22461 F3000
G0 X158.400 Y113.638 F7200
G1 Y96.379 E224.84457 F3000
G0 X158.880 F7200
G1 Y113.638 E225.46453 F3000
G0 X159.360 Y113.637 F7200
G1 Y96.379 E226.08446 F3000
G0 X159.840 F7200
G1 Y113.636 E226.70434 F3000
G0 X160.320 F7200
G1 Y96.379 E227.32423 F3000
G0 X160.800 F7200
G1 Y113.635 E227.94408 F3000
G0 X161.280 Y113.634 F7200
G1 Y96.379 E228.56390 F3000
G0 X161.760 F7200
G1 Y113.634 E229.18372 F3000
G0 X162.240 Y113.633 F7200
G1 Y96.379 E229.80350 F3000
G0 X162.720 F7200
G1 Y113.632 E230.42324 F3000
G0 X163.200 F7200
G1 Y96.379 E231.04298 F3000
G0 X163.680 F7200
G1 Y113.631 E231.66269 F3000
G0 X164.160 Y113.630 F7200
G1 Y96.379 E232.28236 F3000
G0 X164.640 F7200
G1 Y113.629 E232.90200 F3000
G0 X165.120 F7200
G1 Y96.379 E233.52164 F3000
G0 X165.600 F7200
G1 Y113.628 E234.14124 F3000
G0 X166.080 Y113.627 F7200
G1 Y96.379 E234.76080 F3000
G0 X166.560 F7200
G1 Y113.627 E235.38037 F3000
G0 X167.040 Y113.626 F7200
G1 Y96.379 E235.99989 F3000
G0 X167.520 F7200
G1 Y113.625 E236.61939 F3000
G0 X168 F7200
G1 Y96.379 E237.23888 F3000
G0 X168.480 F7200
G1 Y113.624 E237.85834 F3000
G0 X168.960 Y113.623 F7200
G1 Y96.379 E238.47776 F3000
G0 X169.440 F7200
G1 Y113.623 E239.09718 F3000
G0 X169.920 Y113.622 F7200
G1 Y96.379 E239.71656 F3000
G0 X170.400 F7200
G1 Y113.621 E240.33591 F3000
G0 X170.880 F7200
G1 Y96.379 E240.95526 F3000
G0 X171.360 F7200
G1 Y113.620 E241.57457 F3000
G0 X171.840 Y113.619 F7200
G1 Y96.379 E242.19385 F3000
G1 F600 E235.69385 ; Retract
G0 X152.520 Y114.357 F7200
G1 F360 E242.19385
G1 X152.515 Y114.388 E242.19440 F3000
G1 X152.500 Y114.558 E242.19715 F3000
G1 Y114.576 E242.19742 F3000
G1 Y144 E242.63781 F3000
; Inset XP 
G1 F600 E236.13781 ; Retract
G0 X144.360 Y95.983 F7200
G1 F360 E242.63781
G1 Y114.023 E243.28582 F3000
G1 X144.166 Y113.903 E243.29401 F3000
G1 X143.920 Y113.860 E243.30296 F3000
G1 X124.640 E243.99551 F3000
G1 Y96.140 E244.63203 F3000
G1 X144.115 Y96.113 E245.33159 F3000
G1 X144.360 Y95.983 E245.34154 F3000
G0 X144.080 Y95.599 F7200
M104 S235 T1
G1 X144.143 Y95.510 E245.34546 F3000
G1 X144.160 Y95.420 E245.34873 F3000
G1 Y65.660 E246.41773 F3000
G1 X144.840 E246.44216 F3000
G1 Y144.340 E249.26842 F3000
G1 X144.160 E249.29285 F3000
G1 X144.151 Y114.515 E250.36419 F3000
G1 X144.099 Y114.420 E250.36807 F3000
G1 X144.010 Y114.357 E250.37198 F3000
G1 X143.920 Y114.340 E250.37525 F3000
G1 X124.160 E251.08505 F3000
G1 Y95.660 E251.75605 F3000
G1 X143.985 Y95.651 E252.46819 F3000
G1 X144.080 Y95.599 E252.47206 F3000
; Inset 0 
G0 X143.710 Y95.210 F7200
G1 Y65.210 E253.41499 F2400
G1 X145.290 E253.46465 F2400
G1 Y144.790 E255.96592 F2400
G1 X143.710 E256.01558 F2400
G1 Y114.790 E256.95850 F2400
G1 X123.710 E257.58712 F2400
G1 Y95.210 E258.20253 F2400
G1 X143.710 E258.83115 F2400
; Solid infill 
G0 X144.494 Y95.666 F7200
G1 X144.479 Y95.642 E258.83162 F3000
G1 X144.484 Y95.611 E258.83217 F3000
G1 X144.499 Y95.441 E258.83492 F3000
G1 X144.500 Y95.424 E258.83517 F3000
G1 Y66 E259.27556 F3000
G1 F600 E252.77556 ; Retract
G0 X144 Y96.352 F7200
G1 F360 E259.27556
G1 Y113.619 E259.89581 F3000
G0 X143.520 F7200
G1 Y96.353 E260.51602 F3000
G0 X143.040 Y96.354 F7200
G1 Y113.619 E261.13620 F3000
G0 X142.560 F7200
G1 Y96.354 E261.75637 F3000
G0 X142.080 Y96.355 F7200
G1 Y113.619 E262.37651 F3000
G0 X141.600 F7200
G1 Y96.356 E262.99661 F3000
G0 X141.120 F7200
G1 Y113.619 E263.61672 F3000
G0 X140.640 F7200
G1 Y96.357 E264.23679 F3000
G0 X140.160 Y96.358 F7200
G1 Y113.619 E264.85682 F3000
G0 X139.680 F7200
G1 Y96.358 E265.47685 F3000
G0 X139.200 Y96.359 F7200
G1 Y113.619 E266.09684 F3000
G0 X138.720 F7200
G1 Y96.360 E266.71680 F3000
G0 X138.240 F7200
G1 Y113.619 E267.33676 F3000
G0 X137.760 F7200
G1 Y96.361 E267.95669 F3000
G0 X137.280 Y96.362 F7200
G1 Y113.619 E268.57657 F3000
G0 X136.800 F7200
G1 Y96.362 E269.19646 F3000
G0 X136.320 Y96.363 F7200
G1 Y113.619 E269.81631 F3000
G0 X135.840 F7200
G1 Y96.364 E270.43613 F3000
G0 X135.360 F7200
G1 Y113.619 E271.05595 F3000
G0 X134.880 F7200
G1 Y96.365 E271.67573 F3000
G0 X134.400 Y96.366 F7200
G1 Y113.619 E272.29547 F3000
G0 X133.920 F7200
G1 Y96.366 E272.91521 F3000
G0 X133.440 Y96.367 F7200
G1 Y113.619 E273.53492 F3000
G0 X132.960 F7200
G1 Y96.368 E274.15459 F3000
G0 X132.480 F7200
G1 Y113.619 E274.77427 F3000
G0 X132 F7200
G1 Y96.369 E275.39390 F3000
G0 X131.520 Y96.370 F7200
G1 Y113.619 E276.01350 F3000
G0 X131.040 F7200
G1 Y96.370 E276.63310 F3000
G0 X130.560 Y96.371 F7200
G1 Y113.619 E277.25267 F3000
G0 X130.080 F7200
G1 Y96.372 E277.87220 F3000
G0 X129.600 F7200
G1 Y113.619 E278.49173 F3000
G0 X129.120 F7200
G1 Y96.373 E279.11122 F3000
G0 X128.640 Y96.374 F7200
G1 Y113.619 E279.73067 F3000
G0 X128.160 F7200
G1 Y96.374 E280.35013 F3000
G0 X127.680 Y96.375 F7200
G1 Y113.619 E280.96955 F3000
G0 X127.200 F7200
G1 Y96.376 E281.58894 F3000
G0 X126.720 F7200
G1 Y113.619 E282.20832 F3000
G0 X126.240 F7200
G1 Y96.377 E282.82767 F3000
G0 X125.760 Y96.378 F7200
G1 Y113.619 E283.44698 F3000
G0 X125.280 F7200
G1 Y96.378 E284.06630 F3000
G1 F600 E277.56630 ; Retract
G0 X144.514 Y114.303 F7200
G1 F360 E284.06630
G1 X144.476 Y114.367 E284.06745 F3000
G1 X144.481 Y114.382 E284.06773 F3000
G1 X144.490 Y114.448 E284.06885 F3000
G1 X144.499 Y143.999 E284.53325 F3000
; MACROLAYER:2
; LAYER:3
; TIME LEFT: 783.845 S
M532 L3
; Start change extruder 
M400
G1 F600 E269.53325 ; Retract
G0 Z5.330 F1500
M1013 
M104 S150 T0
M400
M106 P1 S0
M109 S215 T1
T1 ; switch extruder type to:FIBER
M1013 R 
; End change extruder 
; Fiber infill 
M400
M106 P1 S127
G0 X145.860 Y145.500 F7200
G0 Z1.010 F1500
M1001 L645
; G1 F600 U199.60000
G0 Y145 Z0.510 F7200
; G1 F1200 V15.95703
G4 P0
; G1 Y144.200 V16.00369 U200.40000 F480
; G1 Y139.200 V16.29532 U205.40000 F480
; G1 Y64.200 V20.66967 U280.40000 F600
G0 X146.660 Y65 F120
; G1 X147.440 V20.71516 U281.18000 F120
G0 X146.640 Y65.800 F120
; G1 Y72.020 V21.07794 U287.40000 F120
; G1 Y72.800 V21.12344 U288.18000 F202
; G1 Y145.800 V25.38114 U361.18000 F600
G0 X147.440 Y145 F120
; G1 X148.220 V25.42664 U361.96000 F120
G0 X147.420 Y144.200 F120
; G1 Y137.980 V25.78942 U368.18000 F120
; G1 Y137.200 V25.83491 U368.96000 F202
; G1 Y64.200 V30.09262 U441.96000 F600
G0 X148.220 Y65 F120
; G1 X149 V30.13811 U442.74000 F120
G0 X148.200 Y65.800 F120
G1 Y72.020 V30.50089 U448.96000 F120
G1 Y100.800 V30.54638 U449.74000 F202
; Start to cut
M400
M280 P0 S30
G4 P200
M280 P0 S90
M400
G1 Y145.800 V34.80409 U522.74000 F600
G0 X149 Y145 F120
; G1 X149.780 V34.84958 U523.52000 F120
G0 X148.980 Y144.200 F120
; G1 Y137.980 V35.21236 U529.74000 F120
; G1 Y137.200 V35.25785 U530.52000 F202
; G1 Y64.200 V39.51556 U603.52000 F600
G0 X149.780 Y65 F120
; G1 X150.560 V39.56105 U604.30000 F120
G0 X149.760 Y65.800 F120
; G1 Y72.020 V39.92383 U610.52000 F120
; G1 Y72.800 V39.96933 U611.30000 F202
; G1 Y145.800 V44.22703 U684.30000 F600
G0 X150.560 Y145 F120
; G1 X151.340 V44.27252 U685.08000 F120
G0 X150.540 Y144.200 F120
; G1 Y137.980 V44.63530 U691.30000 F120
; G1 Y137.200 V44.68080 U692.08000 F202
; G1 Y64.200 V48.93850 U765.08000 F600
G0 X151.340 Y65 F120
; G1 X152.120 V48.98400 U765.86000 F120
G0 X151.320 Y65.800 F120
; G1 Y72.020 V49.34678 U772.08000 F120
; G1 Y72.800 V49.39227 U772.86000 F202
; G1 Y100.600 V51.01370 U800.66000 F600
; G1 Y107.600 V51.46280 F120
; G1 Y145.800 V53.91360 F480
G1 F1200 V47.91360 ; Gentle Retract - reduced from 9mm to 6mm to prevent fiber breakage
G0 X145.500 Y145 F240
G0 Y130.820 F240
M1002 
; Start change extruder 
M400
G1 F1800 V41.91360 ; Retract
G0 Z5.510 F1500
M1013 
M104 S180 T1
M400
M106 P1 S0
M109 S220 T0
T0 ; switch extruder type to:PLASTIC
M1013 R 
; End change extruder 
; Inset XP 
M400
M106 P1 S127
G0 X144.360 Y95.983 F7200
G0 Z0.510 F1500
G1 F360 E284.53325
G1 Y114.023 E285.18127 F3000
G1 X144.166 Y113.903 E285.18946 F3000
G1 X143.920 Y113.860 E285.19840 F3000
G1 X124.640 E285.89096 F3000
G1 Y96.140 E286.52748 F3000
G1 X144.115 Y96.113 E287.22704 F3000
G1 X144.360 Y95.983 E287.23699 F3000
G0 X144.080 Y95.599 F7200
G1 X144.143 Y95.510 E287.24090 F3000
G1 X144.160 Y95.420 E287.24417 F3000
G1 Y65.660 E288.31318 F3000
G1 X144.840 E288.33761 F3000
G1 Y144.340 E291.16387 F3000
G1 X144.160 E291.18829 F3000
G1 X144.151 Y114.515 E292.25963 F3000
G1 X144.099 Y114.420 E292.26351 F3000
G1 X144.010 Y114.357 E292.26743 F3000
G1 X143.920 Y114.340 E292.27070 F3000
G1 X124.160 E292.98050 F3000
G1 Y95.660 E293.65150 F3000
G1 X143.985 Y95.651 E294.36363 F3000
G1 X144.080 Y95.599 E294.36751 F3000
; Inset 0 
G0 X143.710 Y95.210 F7200
G1 Y65.210 E295.31044 F2400
G1 X145.290 E295.36010 F2400
G1 Y144.790 E297.86136 F2400
G1 X143.710 E297.91102 F2400
G1 Y114.790 E298.85395 F2400
G1 X123.710 E299.48256 F2400
G1 Y95.210 E300.09798 F2400
G1 X143.710 E300.72660 F2400
; Solid infill 
G0 X144.494 Y95.666 F7200
G1 X144.479 Y95.642 E300.72707 F3000
G1 X144.484 Y95.611 E300.72762 F3000
G1 X144.499 Y95.441 E300.73037 F3000
G1 X144.500 Y95.424 E300.73062 F3000
G1 Y66 E301.17101 F3000
G1 F600 E294.67101 ; Retract
G0 X144.119 Y96.479 F7200
G1 F360 E301.17101
G1 X124.879 E301.86213 F3000
G0 Y96.959 F7200
G1 X144.119 E302.55325 F3000
G0 Y97.439 F7200
G1 X124.879 E303.24437 F3000
G0 Y97.919 F7200
G1 X144.119 E303.93549 F3000
G0 Y98.399 F7200
G1 X124.879 E304.62661 F3000
G0 Y98.879 F7200
G1 X144.119 E305.31772 F3000
G0 Y99.359 F7200
G1 X124.879 E306.00884 F3000
G0 Y99.839 F7200
G1 X144.119 E306.69996 F3000
G0 Y100.319 F7200
G1 X124.879 E307.39108 F3000
G0 Y100.799 F7200
G1 X144.119 E308.08220 F3000
G0 Y101.279 F7200
G1 X124.879 E308.77332 F3000
G0 Y101.759 F7200
G1 X144.119 E309.46444 F3000
G0 Y102.239 F7200
G1 X124.879 E310.15556 F3000
G0 Y102.719 F7200
G1 X144.119 E310.84668 F3000
G0 Y103.199 F7200
G1 X124.879 E311.53780 F3000
G0 Y103.679 F7200
G1 X144.119 E312.22891 F3000
G0 Y104.159 F7200
G1 X124.879 E312.92003 F3000
G0 Y104.639 F7200
G1 X144.119 E313.61115 F3000
G0 Y105.119 F7200
G1 X124.879 E314.30227 F3000
G0 Y105.599 F7200
G1 X144.119 E314.99339 F3000
G0 Y106.079 F7200
G1 X124.879 E315.68451 F3000
G0 Y106.559 F7200
G1 X144.119 E316.37563 F3000
G0 Y107.039 F7200
G1 X124.879 E317.06675 F3000
G0 Y107.519 F7200
G1 X144.119 E317.75787 F3000
G0 Y107.999 F7200
G1 X124.879 E318.44899 F3000
G0 Y108.479 F7200
G1 X144.119 E319.14010 F3000
G0 Y108.959 F7200
G1 X124.879 E319.83122 F3000
G0 Y109.439 F7200
G1 X144.119 E320.52234 F3000
G0 Y109.919 F7200
G1 X124.879 E321.21346 F3000
G0 Y110.399 F7200
G1 X144.119 E321.90458 F3000
G0 Y110.879 F7200
G1 X124.879 E322.59570 F3000
G0 Y111.359 F7200
G1 X144.119 E323.28682 F3000
G0 Y111.839 F7200
G1 X124.879 E323.97794 F3000
G0 Y112.319 F7200
G1 X144.119 E324.66906 F3000
G0 Y112.799 F7200
G1 X124.879 E325.36018 F3000
G0 Y113.279 F7200
G1 X144.119 E326.05129 F3000
G0 X144.514 Y114.303 F7200
G1 X144.476 Y114.367 E326.05245 F3000
G1 X144.481 Y114.382 E326.05272 F3000
G1 X144.490 Y114.448 E326.05385 F3000
G1 X144.499 Y143.999 E326.51825 F3000
; Inset XP 
G1 F600 E320.01825 ; Retract
G0 X172.360 Y96.140 F7200
G1 F360 E326.51825
G1 Y113.860 E327.15477 F3000
G1 X152.885 Y113.887 E327.85433 F3000
G1 X152.640 Y114.017 E327.86428 F3000
G1 Y95.977 E328.51230 F3000
G1 X152.834 Y96.097 E328.52049 F3000
G1 X153.080 Y96.140 E328.52943 F3000
G1 X172.360 E329.22199 F3000
G0 X172.840 Y95.660 F7200
G1 Y114.340 E329.89299 F3000
G1 X153.015 Y114.349 E330.60512 F3000
G1 X152.920 Y114.401 E330.60900 F3000
G1 X152.857 Y114.490 E330.61292 F3000
G1 X152.840 Y114.580 E330.61619 F3000
G1 Y144.340 E331.68519 F3000
G1 X152.160 E331.70962 F3000
G1 Y65.660 E334.53588 F3000
G1 X152.840 E334.56031 F3000
G1 X152.849 Y95.485 E335.63165 F3000
G1 X152.901 Y95.580 E335.63553 F3000
G1 X152.990 Y95.643 E335.63944 F3000
G1 X153.080 Y95.660 E335.64271 F3000
G1 X172.840 E336.35251 F3000
; Inset 0 
G0 X153.290 Y95.210 F7200
G1 X173.290 E336.98113 F2400
G1 Y114.790 E337.59654 F2400
G1 X153.290 E338.22516 F2400
G1 Y144.790 E339.16808 F2400
G1 X151.710 E339.21774 F2400
G1 Y65.210 E341.71901 F2400
G1 X153.290 E341.76867 F2400
G1 Y95.210 E342.71159 F2400
; Solid infill 
G0 X152.537 Y95.639 F7200
G1 X152.523 Y95.632 E342.71186 F3000
G1 X152.518 Y95.617 E342.71213 F3000
G1 X152.509 Y95.551 E342.71325 F3000
G1 X152.500 Y66 E343.17545 F3000
G1 F600 E336.67545 ; Retract
G0 X152.879 Y96.479 F7200
G1 F360 E343.17545
G1 X172.119 E343.86657 F3000
G0 Y96.959 F7200
G1 X152.879 E344.55769 F3000
G0 Y97.439 F7200
G1 X172.119 E345.24881 F3000
G0 Y97.919 F7200
G1 X152.879 E345.93993 F3000
G0 Y98.399 F7200
G1 X172.119 E346.63104 F3000
G0 Y98.879 F7200
G1 X152.879 E347.32216 F3000
G0 Y99.359 F7200
G1 X172.119 E348.01328 F3000
G0 Y99.839 F7200
G1 X152.879 E348.70440 F3000
G0 Y100.319 F7200
G1 X172.119 E349.39552 F3000
G0 Y100.799 F7200
G1 X152.879 E350.08664 F3000
G0 Y101.279 F7200
G1 X172.119 E350.77776 F3000
G0 Y101.759 F7200
G1 X152.879 E351.46888 F3000
G0 Y102.239 F7200
G1 X172.119 E352.16000 F3000
G0 Y102.719 F7200
G1 X152.879 E352.85112 F3000
G0 Y103.199 F7200
G1 X172.119 E353.54223 F3000
G0 Y103.679 F7200
G1 X152.879 E354.23335 F3000
G0 Y104.159 F7200
G1 X172.119 E354.92447 F3000
G0 Y104.639 F7200
G1 X152.879 E355.61559 F3000
G0 Y105.119 F7200
G1 X172.119 E356.30671 F3000
G0 Y105.599 F7200
G1 X152.879 E356.99783 F3000
G0 Y106.079 F7200
G1 X172.119 E357.68895 F3000
G0 Y106.559 F7200
G1 X152.879 E358.38007 F3000
G0 Y107.039 F7200
G1 X172.119 E359.07119 F3000
G0 Y107.519 F7200
G1 X152.879 E359.76231 F3000
G0 Y107.999 F7200
G1 X172.119 E360.45342 F3000
G0 Y108.479 F7200
G1 X152.879 E361.14454 F3000
G0 Y108.959 F7200
G1 X172.119 E361.83566 F3000
G0 Y109.439 F7200
G1 X152.879 E362.52678 F3000
G0 Y109.919 F7200
G1 X172.119 E363.21790 F3000
G0 Y110.399 F7200
G1 X152.879 E363.90902 F3000
G0 Y110.879 F7200
G1 X172.119 E364.60014 F3000
G0 Y111.359 F7200
G1 X152.879 E365.29126 F3000
G0 Y111.839 F7200
G1 X172.119 E365.98238 F3000
G0 Y112.319 F7200
G1 X152.879 E366.67350 F3000
G0 Y112.799 F7200
G1 X172.119 E367.36461 F3000
G0 Y113.279 F7200
G1 X152.879 E368.05573 F3000
G0 X152.520 Y114.357 F7200
G1 X152.515 Y114.388 E368.05628 F3000
G1 X152.500 Y114.558 E368.05903 F3000
G1 Y114.576 E368.05930 F3000
G1 Y144 E368.49969 F3000
; MACROLAYER:3
; LAYER:4
; TIME LEFT: 507.42 S
M532 L4
; Inset XP 
G1 F600 E361.99969 ; Retract
G0 Z0.690 F1500
G0 X172.360 Y96.140 F7200
G1 F360 E368.49969
G1 Y113.860 E369.13621 F3000
G1 X154.640 E369.77273 F3000
G1 Y96.140 E370.40925 F3000
G1 X172.360 E371.04577 F3000
G0 X172.840 Y95.660 F7200
G1 Y114.340 E371.71677 F3000
G1 X154.160 E372.38777 F3000
G1 Y95.660 E373.05878 F3000
G1 X172.840 E373.72978 F3000
; Inset 0 
G0 X153.290 Y95.210 F7200
G1 X173.290 E374.35840 F2400
G1 Y114.790 E374.97381 F2400
G1 X153.290 E375.60243 F2400
G1 Y144.790 E376.54535 F2400
G1 X151.710 E376.59501 F2400
G1 Y65.210 E379.09628 F2400
G1 X153.290 E379.14594 F2400
G1 Y95.210 E380.08886 F2400
; Micro infill 
G0 X153.300 Y95.419 F7200
G1 Y114.579 E380.69108 F2400
G0 X153.720 F7200
G1 Y95.419 E381.29329 F2400
G1 F600 E374.79329 ; Retract
G0 X152.880 Y65.419 F7200
G1 F360 E381.29329
G1 Y144.579 E383.78136 F2400
G0 X152.460 F7200
G1 Y65.419 E386.26942 F2400
G0 X152.040 F7200
G1 Y144.579 E388.75749 F2400
; Solid infill 
G1 F600 E382.25749 ; Retract
G0 X155.040 Y113.619 F7200
G1 F360 E388.75749
G1 Y96.379 E389.37676 F3000
G0 X155.520 F7200
G1 Y113.619 E389.99604 F3000
G0 X156 F7200
G1 Y96.379 E390.61532 F3000
G0 X156.480 F7200
G1 Y113.619 E391.23460 F3000
G0 X156.960 F7200
G1 Y96.379 E391.85387 F3000
G0 X157.440 F7200
G1 Y113.619 E392.47315 F3000
G0 X157.920 F7200
G1 Y96.379 E393.09243 F3000
G0 X158.400 F7200
G1 Y113.619 E393.71170 F3000
G0 X158.880 F7200
G1 Y96.379 E394.33098 F3000
G0 X159.360 F7200
G1 Y113.619 E394.95026 F3000
G0 X159.840 F7200
G1 Y96.379 E395.56954 F3000
G0 X160.320 F7200
G1 Y113.619 E396.18881 F3000
G0 X160.800 F7200
G1 Y96.379 E396.80809 F3000
G0 X161.280 F7200
G1 Y113.619 E397.42737 F3000
G0 X161.760 F7200
G1 Y96.379 E398.04664 F3000
G0 X162.240 F7200
G1 Y113.619 E398.66592 F3000
G0 X162.720 F7200
G1 Y96.379 E399.28520 F3000
G0 X163.200 F7200
G1 Y113.619 E399.90447 F3000
G0 X163.680 F7200
G1 Y96.379 E400.52375 F3000
G0 X164.160 F7200
G1 Y113.619 E401.14303 F3000
G0 X164.640 F7200
G1 Y96.379 E401.76231 F3000
G0 X165.120 F7200
G1 Y113.619 E402.38158 F3000
G0 X165.600 F7200
G1 Y96.379 E403.00086 F3000
G0 X166.080 F7200
G1 Y113.619 E403.62014 F3000
G0 X166.560 F7200
G1 Y96.379 E404.23941 F3000
G0 X167.040 F7200
G1 Y113.619 E404.85869 F3000
G0 X167.520 F7200
G1 Y96.379 E405.47797 F3000
G0 X168 F7200
G1 Y113.619 E406.09725 F3000
G0 X168.480 F7200
G1 Y96.379 E406.71652 F3000
G0 X168.960 F7200
G1 Y113.619 E407.33580 F3000
G0 X169.440 F7200
G1 Y96.379 E407.95508 F3000
G0 X169.920 F7200
G1 Y113.619 E408.57435 F3000
G0 X170.400 F7200
G1 Y96.379 E409.19363 F3000
G0 X170.880 F7200
G1 Y113.619 E409.81291 F3000
G0 X171.360 F7200
G1 Y96.379 E410.43219 F3000
G0 X171.840 F7200
G1 Y113.619 E411.05146 F3000
; Inset XP 
G1 F600 E404.55146 ; Retract
G0 X142.360 Y96.140 F7200
G1 F360 E411.05146
G1 Y113.860 E411.68798 F3000
G1 X124.640 E412.32450 F3000
G1 Y96.140 E412.96102 F3000
G1 X142.360 E413.59754 F3000
G0 X142.840 Y95.660 F7200
G1 Y114.340 E414.26854 F3000
G1 X124.160 E414.93955 F3000
G1 Y95.660 E415.61055 F3000
G1 X142.840 E416.28155 F3000
; Inset 0 
G0 X143.710 Y95.210 F7200
G1 Y65.210 E417.22448 F2400
G1 X145.290 E417.27414 F2400
G1 Y144.790 E419.77540 F2400
G1 X143.710 E419.82506 F2400
G1 Y114.790 E420.76799 F2400
G1 X123.710 E421.39661 F2400
G1 Y95.210 E422.01202 F2400
G1 X143.710 E422.64064 F2400
; Micro infill 
G0 X143.640 Y95.419 F7200
G1 Y114.579 E423.24285 F2400
G0 X143.220 F7200
G1 Y95.419 E423.84507 F2400
G1 F600 E417.34507 ; Retract
G0 X144.060 Y65.419 F7200
G1 F360 E423.84507
G1 Y144.579 E426.33313 F2400
G0 X144.480 F7200
G1 Y65.419 E428.82120 F2400
G0 X144.900 F7200
G1 Y144.579 E431.30926 F2400
; Solid infill 
G1 F600 E424.80926 ; Retract
G0 X142.080 Y113.619 F7200
G1 F360 E431.30926
G1 Y96.379 E431.92854 F3000
G0 X141.600 F7200
G1 Y113.619 E432.54781 F3000
G0 X141.120 F7200
G1 Y96.379 E433.16709 F3000
G0 X140.640 F7200
G1 Y113.619 E433.78637 F3000
G0 X140.160 F7200
G1 Y96.379 E434.40565 F3000
G0 X139.680 F7200
G1 Y113.619 E435.02492 F3000
G0 X139.200 F7200
G1 Y96.379 E435.64420 F3000
G0 X138.720 F7200
G1 Y113.619 E436.26348 F3000
G0 X138.240 F7200
G1 Y96.379 E436.88275 F3000
G0 X137.760 F7200
G1 Y113.619 E437.50203 F3000
G0 X137.280 F7200
G1 Y96.379 E438.12131 F3000
G0 X136.800 F7200
G1 Y113.619 E438.74059 F3000
G0 X136.320 F7200
G1 Y96.379 E439.35986 F3000
G0 X135.840 F7200
G1 Y113.619 E439.97914 F3000
G0 X135.360 F7200
G1 Y96.379 E440.59842 F3000
G0 X134.880 F7200
G1 Y113.619 E441.21769 F3000
G0 X134.400 F7200
G1 Y96.379 E441.83697 F3000
G0 X133.920 F7200
G1 Y113.619 E442.45625 F3000
G0 X133.440 F7200
G1 Y96.379 E443.07552 F3000
G0 X132.960 F7200
G1 Y113.619 E443.69480 F3000
G0 X132.480 F7200
G1 Y96.379 E444.31408 F3000
G0 X132 F7200
G1 Y113.619 E444.93336 F3000
G0 X131.520 F7200
G1 Y96.379 E445.55263 F3000
G0 X131.040 F7200
G1 Y113.619 E446.17191 F3000
G0 X130.560 F7200
G1 Y96.379 E446.79119 F3000
G0 X130.080 F7200
G1 Y113.619 E447.41046 F3000
G0 X129.600 F7200
G1 Y96.379 E448.02974 F3000
G0 X129.120 F7200
G1 Y113.619 E448.64902 F3000
G0 X128.640 F7200
G1 Y96.379 E449.26830 F3000
G0 X128.160 F7200
G1 Y113.619 E449.88757 F3000
G0 X127.680 F7200
G1 Y96.379 E450.50685 F3000
G0 X127.200 F7200
G1 Y113.619 E451.12613 F3000
G0 X126.720 F7200
G1 Y96.379 E451.74540 F3000
G0 X126.240 F7200
G1 Y113.619 E452.36468 F3000
G0 X125.760 F7200
G1 Y96.379 E452.98396 F3000
G0 X125.280 F7200
G1 Y113.619 E453.60324 F3000
; MACROLAYER:3
; LAYER:5
; TIME LEFT: 430.551 S
M532 L5
; Inset XP 
M400
M106 P1 S255
G1 F600 E447.10324 ; Retract
G0 Z0.870 F1500
G0 X172.360 Y96.140 F7200
G1 F360 E453.60324
G1 Y113.860 E454.23975 F3000
G1 X154.640 E454.87627 F3000
G1 Y96.140 E455.51279 F3000
G1 X172.360 E456.14931 F3000
G0 X172.840 Y95.660 F7200
G1 Y114.340 E456.82032 F3000
G1 X154.160 E457.49132 F3000
G1 Y95.660 E458.16232 F3000
G1 X172.840 E458.83333 F3000
; Inset 0 
G0 X173.290 Y95.210 F7200
G1 Y114.790 E459.44874 F2400
G1 X153.710 E460.06416 F2400
G1 Y95.210 E460.67957 F2400
G1 X173.290 E461.29499 F2400
; Solid infill 
G0 X172.119 Y96.479 F7200
G1 X154.879 E461.91426 F3000
G0 Y96.959 F7200
G1 X172.119 E462.53354 F3000
G0 Y97.439 F7200
G1 X154.879 E463.15282 F3000
G0 Y97.919 F7200
G1 X172.119 E463.77210 F3000
G0 Y98.399 F7200
G1 X154.879 E464.39137 F3000
G0 Y98.879 F7200
G1 X172.119 E465.01065 F3000
G0 Y99.359 F7200
G1 X154.879 E465.62993 F3000
G0 Y99.839 F7200
G1 X172.119 E466.24920 F3000
G0 Y100.319 F7200
G1 X154.879 E466.86848 F3000
G0 Y100.799 F7200
G1 X172.119 E467.48776 F3000
G0 Y101.279 F7200
G1 X154.879 E468.10704 F3000
G0 Y101.759 F7200
G1 X172.119 E468.72631 F3000
G0 Y102.239 F7200
G1 X154.879 E469.34559 F3000
G0 Y102.719 F7200
G1 X172.119 E469.96487 F3000
G0 Y103.199 F7200
G1 X154.879 E470.58414 F3000
G0 Y103.679 F7200
G1 X172.119 E471.20342 F3000
G0 Y104.159 F7200
G1 X154.879 E471.82270 F3000
G0 Y104.639 F7200
G1 X172.119 E472.44198 F3000
G0 Y105.119 F7200
G1 X154.879 E473.06125 F3000
G0 Y105.599 F7200
G1 X172.119 E473.68053 F3000
G0 Y106.079 F7200
G1 X154.879 E474.29981 F3000
G0 Y106.559 F7200
G1 X172.119 E474.91908 F3000
G0 Y107.039 F7200
G1 X154.879 E475.53836 F3000
G0 Y107.519 F7200
G1 X172.119 E476.15764 F3000
G0 Y107.999 F7200
G1 X154.879 E476.77692 F3000
G0 Y108.479 F7200
G1 X172.119 E477.39619 F3000
G0 Y108.959 F7200
G1 X154.879 E478.01547 F3000
G0 Y109.439 F7200
G1 X172.119 E478.63475 F3000
G0 Y109.919 F7200
G1 X154.879 E479.25402 F3000
G0 Y110.399 F7200
G1 X172.119 E479.87330 F3000
G0 Y110.879 F7200
G1 X154.879 E480.49258 F3000
G0 Y111.359 F7200
G1 X172.119 E481.11186 F3000
G0 Y111.839 F7200
G1 X154.879 E481.73113 F3000
G0 Y112.319 F7200
G1 X172.119 E482.35041 F3000
G0 Y112.799 F7200
G1 X154.879 E482.96969 F3000
G0 Y113.279 F7200
G1 X172.119 E483.58896 F3000
; Inset XP 
G1 F600 E477.08896 ; Retract
G0 X142.360 Y96.140 F7200
G1 F360 E483.58896
G1 Y113.860 E484.22548 F3000
G1 X124.640 E484.86200 F3000
G1 Y96.140 E485.49852 F3000
G1 X142.360 E486.13504 F3000
G0 X142.840 Y95.660 F7200
G1 Y114.340 E486.80604 F3000
G1 X124.160 E487.47705 F3000
G1 Y95.660 E488.14805 F3000
G1 X142.840 E488.81905 F3000
; Inset 0 
G0 X143.290 Y95.210 F7200
G1 Y114.790 E489.43447 F2400
G1 X123.710 E490.04988 F2400
G1 Y95.210 E490.66530 F2400
G1 X143.290 E491.28072 F2400
; Solid infill 
G0 X142.119 Y96.479 F7200
G1 X124.879 E491.89999 F3000
G0 Y96.959 F7200
G1 X142.119 E492.51927 F3000
G0 Y97.439 F7200
G1 X124.879 E493.13855 F3000
G0 Y97.919 F7200
G1 X142.119 E493.75782 F3000
G0 Y98.399 F7200
G1 X124.879 E494.37710 F3000
G0 Y98.879 F7200
G1 X142.119 E494.99638 F3000
G0 Y99.359 F7200
G1 X124.879 E495.61566 F3000
G0 Y99.839 F7200
G1 X142.119 E496.23493 F3000
G0 Y100.319 F7200
G1 X124.879 E496.85421 F3000
G0 Y100.799 F7200
G1 X142.119 E497.47349 F3000
G0 Y101.279 F7200
G1 X124.879 E498.09276 F3000
G0 Y101.759 F7200
G1 X142.119 E498.71204 F3000
G0 Y102.239 F7200
G1 X124.879 E499.33132 F3000
G0 Y102.719 F7200
G1 X142.119 E499.95060 F3000
G0 Y103.199 F7200
G1 X124.879 E500.56987 F3000
G0 Y103.679 F7200
G1 X142.119 E501.18915 F3000
G0 Y104.159 F7200
G1 X124.879 E501.80843 F3000
G0 Y104.639 F7200
G1 X142.119 E502.42770 F3000
G0 Y105.119 F7200
G1 X124.879 E503.04698 F3000
G0 Y105.599 F7200
G1 X142.119 E503.66626 F3000
G0 Y106.079 F7200
G1 X124.879 E504.28554 F3000
G0 Y106.559 F7200
G1 X142.119 E504.90481 F3000
G0 Y107.039 F7200
G1 X124.879 E505.52409 F3000
G0 Y107.519 F7200
G1 X142.119 E506.14337 F3000
G0 Y107.999 F7200
G1 X124.879 E506.76264 F3000
G0 Y108.479 F7200
G1 X142.119 E507.38192 F3000
G0 Y108.959 F7200
G1 X124.879 E508.00120 F3000
G0 Y109.439 F7200
G1 X142.119 E508.62047 F3000
G0 Y109.919 F7200
G1 X124.879 E509.23975 F3000
G0 Y110.399 F7200
G1 X142.119 E509.85903 F3000
G0 Y110.879 F7200
G1 X124.879 E510.47831 F3000
G0 Y111.359 F7200
G1 X142.119 E511.09758 F3000
G0 Y111.839 F7200
G1 X124.879 E511.71686 F3000
G0 Y112.319 F7200
G1 X142.119 E512.33614 F3000
G0 Y112.799 F7200
G1 X124.879 E512.95541 F3000
G0 Y113.279 F7200
G1 X142.119 E513.57469 F3000
; MACROLAYER:4
; LAYER:6
; TIME LEFT: 383.162 S
M532 L6
; Cellular infill 
G1 F600 E507.07469 ; Retract
G0 Z1.050 F1500
G0 X171.840 Y96.379 F7200
G1 F360 E513.57469
G1 Y113.619 E514.19397 F3000
G0 X171.360 F7200
G1 Y96.379 E514.81325 F3000
G0 X170.880 F7200
G1 Y113.619 E515.43252 F3000
G0 X170.400 F7200
G1 Y96.379 E516.05180 F3000
G0 X169.920 F7200
G1 Y113.619 E516.67108 F3000
G0 X169.440 F7200
G1 Y96.379 E517.29035 F3000
G0 X168.960 F7200
G1 Y113.619 E517.90963 F3000
G0 X168.480 F7200
G1 Y96.379 E518.52891 F3000
G0 X168 F7200
G1 Y113.619 E519.14819 F3000
G0 X167.520 F7200
G1 Y96.379 E519.76746 F3000
G0 X167.040 F7200
G1 Y113.619 E520.38674 F3000
G0 X166.560 F7200
G1 Y96.379 E521.00602 F3000
G0 X166.080 F7200
G1 Y113.619 E521.62529 F3000
G0 X165.600 F7200
G1 Y96.379 E522.24457 F3000
G0 X165.120 F7200
G1 Y113.619 E522.86385 F3000
G0 X164.640 F7200
G1 Y96.379 E523.48313 F3000
G0 X164.160 F7200
G1 Y113.619 E524.10240 F3000
G0 X163.680 F7200
G1 Y96.379 E524.72168 F3000
G0 X163.200 F7200
G1 Y113.619 E525.34096 F3000
G0 X162.720 F7200
G1 Y96.379 E525.96023 F3000
G0 X162.240 F7200
G1 Y113.619 E526.57951 F3000
G0 X161.760 F7200
G1 Y96.379 E527.19879 F3000
G0 X161.280 F7200
G1 Y113.619 E527.81807 F3000
G0 X160.800 F7200
G1 Y96.379 E528.43734 F3000
G0 X160.320 F7200
G1 Y113.619 E529.05662 F3000
G0 X159.840 F7200
G1 Y96.379 E529.67590 F3000
G0 X159.360 F7200
G1 Y113.619 E530.29517 F3000
G0 X158.880 F7200
G1 Y96.379 E530.91445 F3000
G0 X158.400 F7200
G1 Y113.619 E531.53373 F3000
G0 X157.920 F7200
G1 Y96.379 E532.15300 F3000
G0 X157.440 F7200
G1 Y113.619 E532.77228 F3000
G0 X156.960 F7200
G1 Y96.379 E533.39156 F3000
G0 X156.480 F7200
G1 Y113.619 E534.01084 F3000
G0 X156 F7200
G1 Y96.379 E534.63011 F3000
G0 X155.520 F7200
G1 Y113.619 E535.24939 F3000
G0 X155.040 F7200
G1 Y96.379 E535.86867 F3000
; Inset XP 
G0 X172.360 Y96.140 F7200
G1 Y113.860 E536.50519 F3000
G1 X154.640 E537.14171 F3000
G1 Y96.140 E537.77822 F3000
G1 X172.360 E538.41474 F3000
G0 X172.840 Y95.660 F7200
G1 Y114.340 E539.08575 F3000
G1 X154.160 E539.75675 F3000
G1 Y95.660 E540.42775 F3000
G1 X172.840 E541.09876 F3000
; Inset 0 
G0 X173.290 Y95.210 F7200
G1 Y114.790 E541.71417 F2400
G1 X153.710 E542.32959 F2400
G1 Y95.210 E542.94500 F2400
G1 X173.290 E543.56042 F2400
; Cellular infill 
G0 X172.725 Y95.775 F7200
G1 F600 E537.06042 ; Retract
G0 X142.080 Y96.379 F7200
G1 F360 E543.56042
G1 Y113.619 E544.17970 F3000
G0 X141.600 F7200
G1 Y96.379 E544.79897 F3000
G0 X141.120 F7200
G1 Y113.619 E545.41825 F3000
G0 X140.640 F7200
G1 Y96.379 E546.03753 F3000
G0 X140.160 F7200
G1 Y113.619 E546.65681 F3000
G0 X139.680 F7200
G1 Y96.379 E547.27608 F3000
G0 X139.200 F7200
G1 Y113.619 E547.89536 F3000
G0 X138.720 F7200
G1 Y96.379 E548.51464 F3000
G0 X138.240 F7200
G1 Y113.619 E549.13391 F3000
G0 X137.760 F7200
G1 Y96.379 E549.75319 F3000
G0 X137.280 F7200
G1 Y113.619 E550.37247 F3000
G0 X136.800 F7200
G1 Y96.379 E550.99174 F3000
G0 X136.320 F7200
G1 Y113.619 E551.61102 F3000
G0 X135.840 F7200
G1 Y96.379 E552.23030 F3000
G0 X135.360 F7200
G1 Y113.619 E552.84958 F3000
G0 X134.880 F7200
G1 Y96.379 E553.46885 F3000
G0 X134.400 F7200
G1 Y113.619 E554.08813 F3000
G0 X133.920 F7200
G1 Y96.379 E554.70741 F3000
G0 X133.440 F7200
G1 Y113.619 E555.32668 F3000
G0 X132.960 F7200
G1 Y96.379 E555.94596 F3000
G0 X132.480 F7200
G1 Y113.619 E556.56524 F3000
G0 X132 F7200
G1 Y96.379 E557.18452 F3000
G0 X131.520 F7200
G1 Y113.619 E557.80379 F3000
G0 X131.040 F7200
G1 Y96.379 E558.42307 F3000
G0 X130.560 F7200
G1 Y113.619 E559.04235 F3000
G0 X130.080 F7200
G1 Y96.379 E559.66162 F3000
G0 X129.600 F7200
G1 Y113.619 E560.28090 F3000
G0 X129.120 F7200
G1 Y96.379 E560.90018 F3000
G0 X128.640 F7200
G1 Y113.619 E561.51946 F3000
G0 X128.160 F7200
G1 Y96.379 E562.13873 F3000
G0 X127.680 F7200
G1 Y113.619 E562.75801 F3000
G0 X127.200 F7200
G1 Y96.379 E563.37729 F3000
G0 X126.720 F7200
G1 Y113.619 E563.99656 F3000
G0 X126.240 F7200
G1 Y96.379 E564.61584 F3000
G0 X125.760 F7200
G1 Y113.619 E565.23512 F3000
G0 X125.280 F7200
G1 Y96.379 E565.85440 F3000
; Inset XP 
G0 X142.360 Y96.140 F7200
G1 Y113.860 E566.49091 F3000
G1 X124.640 E567.12743 F3000
G1 Y96.140 E567.76395 F3000
G1 X142.360 E568.40047 F3000
G0 X142.840 Y95.660 F7200
G1 Y114.340 E569.07148 F3000
G1 X124.160 E569.74248 F3000
G1 Y95.660 E570.41348 F3000
G1 X142.840 E571.08449 F3000
; Inset 0 
G0 X143.290 Y95.210 F7200
G1 Y114.790 E571.69990 F2400
G1 X123.710 E572.31532 F2400
G1 Y95.210 E572.93073 F2400
G1 X143.290 E573.54615 F2400
; MACROLAYER:4
; LAYER:7
; TIME LEFT: 337.922 S
M532 L7
; Cellular infill 
G0 X142.725 Y95.775 F7200
G1 F600 E567.04615 ; Retract
G0 Z1.230 F1500
G0 X172.119 Y96.479 F7200
G1 F360 E573.54615
G1 X154.879 E574.16542 F3000
G0 Y96.959 F7200
G1 X172.119 E574.78470 F3000
G0 Y97.439 F7200
G1 X154.879 E575.40398 F3000
G0 Y97.919 F7200
G1 X172.119 E576.02326 F3000
G0 Y98.399 F7200
G1 X154.879 E576.64253 F3000
G0 Y98.879 F7200
G1 X172.119 E577.26181 F3000
G0 Y99.359 F7200
G1 X154.879 E577.88109 F3000
G0 Y99.839 F7200
G1 X172.119 E578.50036 F3000
G0 Y100.319 F7200
G1 X154.879 E579.11964 F3000
G0 Y100.799 F7200
G1 X172.119 E579.73892 F3000
G0 Y101.279 F7200
G1 X154.879 E580.35820 F3000
G0 Y101.759 F7200
G1 X172.119 E580.97747 F3000
G0 Y102.239 F7200
G1 X154.879 E581.59675 F3000
G0 Y102.719 F7200
G1 X172.119 E582.21603 F3000
G0 Y103.199 F7200
G1 X154.879 E582.83530 F3000
G0 Y103.679 F7200
G1 X172.119 E583.45458 F3000
G0 Y104.159 F7200
G1 X154.879 E584.07386 F3000
G0 Y104.639 F7200
G1 X172.119 E584.69314 F3000
G0 Y105.119 F7200
G1 X154.879 E585.31241 F3000
G0 Y105.599 F7200
G1 X172.119 E585.93169 F3000
G0 Y106.079 F7200
G1 X154.879 E586.55097 F3000
G0 Y106.559 F7200
G1 X172.119 E587.17024 F3000
G0 Y107.039 F7200
G1 X154.879 E587.78952 F3000
G0 Y107.519 F7200
G1 X172.119 E588.40880 F3000
G0 Y107.999 F7200
G1 X154.879 E589.02808 F3000
G0 Y108.479 F7200
G1 X172.119 E589.64735 F3000
G0 Y108.959 F7200
G1 X154.879 E590.26663 F3000
G0 Y109.439 F7200
G1 X172.119 E590.88591 F3000
G0 Y109.919 F7200
G1 X154.879 E591.50518 F3000
G0 Y110.399 F7200
G1 X172.119 E592.12446 F3000
G0 Y110.879 F7200
G1 X154.879 E592.74374 F3000
G0 Y111.359 F7200
G1 X172.119 E593.36302 F3000
G0 Y111.839 F7200
G1 X154.879 E593.98229 F3000
G0 Y112.319 F7200
G1 X172.119 E594.60157 F3000
G0 Y112.799 F7200
G1 X154.879 E595.22085 F3000
G0 Y113.279 F7200
G1 X172.119 E595.84012 F3000
; Inset XP 
G0 X172.360 Y96.140 F7200
G1 Y113.860 E596.47664 F3000
G1 X154.640 E597.11316 F3000
G1 Y96.140 E597.74968 F3000
G1 X172.360 E598.38620 F3000
G0 X172.840 Y95.660 F7200
G1 Y114.340 E599.05720 F3000
G1 X154.160 E599.72821 F3000
G1 Y95.660 E600.39921 F3000
G1 X172.840 E601.07021 F3000
; Inset 0 
G0 X173.290 Y95.210 F7200
G1 Y114.790 E601.68563 F2400
G1 X153.710 E602.30104 F2400
G1 Y95.210 E602.91646 F2400
G1 X173.290 E603.53188 F2400
; Cellular infill 
G0 X172.725 Y95.775 F7200
G1 F600 E597.03188 ; Retract
G0 X142.119 Y96.479 F7200
G1 F360 E603.53188
G1 X124.879 E604.15115 F3000
G0 Y96.959 F7200
G1 X142.119 E604.77043 F3000
G0 Y97.439 F7200
G1 X124.879 E605.38971 F3000
G0 Y97.919 F7200
G1 X142.119 E606.00898 F3000
G0 Y98.399 F7200
G1 X124.879 E606.62826 F3000
G0 Y98.879 F7200
G1 X142.119 E607.24754 F3000
G0 Y99.359 F7200
G1 X124.879 E607.86682 F3000
G0 Y99.839 F7200
G1 X142.119 E608.48609 F3000
G0 Y100.319 F7200
G1 X124.879 E609.10537 F3000
G0 Y100.799 F7200
G1 X142.119 E609.72465 F3000
G0 Y101.279 F7200
G1 X124.879 E610.34392 F3000
G0 Y101.759 F7200
G1 X142.119 E610.96320 F3000
G0 Y102.239 F7200
G1 X124.879 E611.58248 F3000
G0 Y102.719 F7200
G1 X142.119 E612.20176 F3000
G0 Y103.199 F7200
G1 X124.879 E612.82103 F3000
G0 Y103.679 F7200
G1 X142.119 E613.44031 F3000
G0 Y104.159 F7200
G1 X124.879 E614.05959 F3000
G0 Y104.639 F7200
G1 X142.119 E614.67886 F3000
G0 Y105.119 F7200
G1 X124.879 E615.29814 F3000
G0 Y105.599 F7200
G1 X142.119 E615.91742 F3000
G0 Y106.079 F7200
G1 X124.879 E616.53669 F3000
G0 Y106.559 F7200
G1 X142.119 E617.15597 F3000
G0 Y107.039 F7200
G1 X124.879 E617.77525 F3000
G0 Y107.519 F7200
G1 X142.119 E618.39453 F3000
G0 Y107.999 F7200
G1 X124.879 E619.01380 F3000
G0 Y108.479 F7200
G1 X142.119 E619.63308 F3000
G0 Y108.959 F7200
G1 X124.879 E620.25236 F3000
G0 Y109.439 F7200
G1 X142.119 E620.87163 F3000
G0 Y109.919 F7200
G1 X124.879 E621.49091 F3000
G0 Y110.399 F7200
G1 X142.119 E622.11019 F3000
G0 Y110.879 F7200
G1 X124.879 E622.72947 F3000
G0 Y111.359 F7200
G1 X142.119 E623.34874 F3000
G0 Y111.839 F7200
G1 X124.879 E623.96802 F3000
G0 Y112.319 F7200
G1 X142.119 E624.58730 F3000
G0 Y112.799 F7200
G1 X124.879 E625.20657 F3000
G0 Y113.279 F7200
G1 X142.119 E625.82585 F3000
; Inset XP 
G0 X142.360 Y96.140 F7200
G1 Y113.860 E626.46237 F3000
G1 X124.640 E627.09889 F3000
G1 Y96.140 E627.73541 F3000
G1 X142.360 E628.37193 F3000
G0 X142.840 Y95.660 F7200
G1 Y114.340 E629.04293 F3000
G1 X124.160 E629.71393 F3000
G1 Y95.660 E630.38494 F3000
G1 X142.840 E631.05594 F3000
; Inset 0 
G0 X143.290 Y95.210 F7200
G1 Y114.790 E631.67136 F2400
G1 X123.710 E632.28677 F2400
G1 Y95.210 E632.90219 F2400
G1 X143.290 E633.51760 F2400
; MACROLAYER:5
; LAYER:8
; TIME LEFT: 290.34 S
M532 L8
; Inset XP 
G0 X142.725 Y95.775 F7200
G1 F600 E627.01760 ; Retract
G0 Z1.410 F1500
G0 X172.360 Y96.140 F7200
G1 F360 E633.51760
G1 Y113.860 E634.15412 F3000
G1 X154.640 E634.79064 F3000
G1 Y96.140 E635.42716 F3000
G1 X172.360 E636.06368 F3000
G0 X172.840 Y95.660 F7200
G1 Y114.340 E636.73468 F3000
G1 X154.160 E637.40569 F3000
G1 Y95.660 E638.07669 F3000
G1 X172.840 E638.74769 F3000
; Inset 0 
G0 X173.290 Y95.210 F7200
G1 Y114.790 E639.36311 F2400
G1 X153.710 E639.97852 F2400
G1 Y95.210 E640.59394 F2400
G1 X173.290 E641.20936 F2400
; Solid infill 
G0 X171.840 Y96.379 F7200
G1 Y113.619 E641.82863 F3000
G0 X171.360 F7200
G1 Y96.379 E642.44791 F3000
G0 X170.880 F7200
G1 Y113.619 E643.06719 F3000
G0 X170.400 F7200
G1 Y96.379 E643.68646 F3000
G0 X169.920 F7200
G1 Y113.619 E644.30574 F3000
G0 X169.440 F7200
G1 Y96.379 E644.92502 F3000
G0 X168.960 F7200
G1 Y113.619 E645.54430 F3000
G0 X168.480 F7200
G1 Y96.379 E646.16357 F3000
G0 X168 F7200
G1 Y113.619 E646.78285 F3000
G0 X167.520 F7200
G1 Y96.379 E647.40213 F3000
G0 X167.040 F7200
G1 Y113.619 E648.02140 F3000
G0 X166.560 F7200
G1 Y96.379 E648.64068 F3000
G0 X166.080 F7200
G1 Y113.619 E649.25996 F3000
G0 X165.600 F7200
G1 Y96.379 E649.87924 F3000
G0 X165.120 F7200
G1 Y113.619 E650.49851 F3000
G0 X164.640 F7200
G1 Y96.379 E651.11779 F3000
G0 X164.160 F7200
G1 Y113.619 E651.73707 F3000
G0 X163.680 F7200
G1 Y96.379 E652.35634 F3000
G0 X163.200 F7200
G1 Y113.619 E652.97562 F3000
G0 X162.720 F7200
G1 Y96.379 E653.59490 F3000
G0 X162.240 F7200
G1 Y113.619 E654.21417 F3000
G0 X161.760 F7200
G1 Y96.379 E654.83345 F3000
G0 X161.280 F7200
G1 Y113.619 E655.45273 F3000
G0 X160.800 F7200
G1 Y96.379 E656.07201 F3000
G0 X160.320 F7200
G1 Y113.619 E656.69128 F3000
G0 X159.840 F7200
G1 Y96.379 E657.31056 F3000
G0 X159.360 F7200
G1 Y113.619 E657.92984 F3000
G0 X158.880 F7200
G1 Y96.379 E658.54911 F3000
G0 X158.400 F7200
G1 Y113.619 E659.16839 F3000
G0 X157.920 F7200
G1 Y96.379 E659.78767 F3000
G0 X157.440 F7200
G1 Y113.619 E660.40695 F3000
G0 X156.960 F7200
G1 Y96.379 E661.02622 F3000
G0 X156.480 F7200
G1 Y113.619 E661.64550 F3000
G0 X156 F7200
G1 Y96.379 E662.26478 F3000
G0 X155.520 F7200
G1 Y113.619 E662.88405 F3000
G0 X155.040 F7200
G1 Y96.379 E663.50333 F3000
; Inset XP 
G1 F600 E657.00333 ; Retract
G0 X142.360 Y96.140 F7200
G1 F360 E663.50333
G1 Y113.860 E664.13985 F3000
G1 X124.640 E664.77637 F3000
G1 Y96.140 E665.41289 F3000
G1 X142.360 E666.04941 F3000
G0 X142.840 Y95.660 F7200
G1 Y114.340 E666.72041 F3000
G1 X124.160 E667.39141 F3000
G1 Y95.660 E668.06242 F3000
G1 X142.840 E668.73342 F3000
; Inset 0 
G0 X143.290 Y95.210 F7200
G1 Y114.790 E669.34884 F2400
G1 X123.710 E669.96425 F2400
G1 Y95.210 E670.57967 F2400
G1 X143.290 E671.19508 F2400
; Solid infill 
G0 X142.080 Y96.379 F7200
G1 Y113.619 E671.81436 F3000
G0 X141.600 F7200
G1 Y96.379 E672.43364 F3000
G0 X141.120 F7200
G1 Y113.619 E673.05291 F3000
G0 X140.640 F7200
G1 Y96.379 E673.67219 F3000
G0 X140.160 F7200
G1 Y113.619 E674.29147 F3000
G0 X139.680 F7200
G1 Y96.379 E674.91075 F3000
G0 X139.200 F7200
G1 Y113.619 E675.53002 F3000
G0 X138.720 F7200
G1 Y96.379 E676.14930 F3000
G0 X138.240 F7200
G1 Y113.619 E676.76858 F3000
G0 X137.760 F7200
G1 Y96.379 E677.38785 F3000
G0 X137.280 F7200
G1 Y113.619 E678.00713 F3000
G0 X136.800 F7200
G1 Y96.379 E678.62641 F3000
G0 X136.320 F7200
G1 Y113.619 E679.24569 F3000
G0 X135.840 F7200
G1 Y96.379 E679.86496 F3000
G0 X135.360 F7200
G1 Y113.619 E680.48424 F3000
G0 X134.880 F7200
G1 Y96.379 E681.10352 F3000
G0 X134.400 F7200
G1 Y113.619 E681.72279 F3000
G0 X133.920 F7200
G1 Y96.379 E682.34207 F3000
G0 X133.440 F7200
G1 Y113.619 E682.96135 F3000
G0 X132.960 F7200
G1 Y96.379 E683.58063 F3000
G0 X132.480 F7200
G1 Y113.619 E684.19990 F3000
G0 X132 F7200
G1 Y96.379 E684.81918 F3000
G0 X131.520 F7200
G1 Y113.619 E685.43846 F3000
G0 X131.040 F7200
G1 Y96.379 E686.05773 F3000
G0 X130.560 F7200
G1 Y113.619 E686.67701 F3000
G0 X130.080 F7200
G1 Y96.379 E687.29629 F3000
G0 X129.600 F7200
G1 Y113.619 E687.91557 F3000
G0 X129.120 F7200
G1 Y96.379 E688.53484 F3000
G0 X128.640 F7200
G1 Y113.619 E689.15412 F3000
G0 X128.160 F7200
G1 Y96.379 E689.77340 F3000
G0 X127.680 F7200
G1 Y113.619 E690.39267 F3000
G0 X127.200 F7200
G1 Y96.379 E691.01195 F3000
G0 X126.720 F7200
G1 Y113.619 E691.63123 F3000
G0 X126.240 F7200
G1 Y96.379 E692.25051 F3000
G0 X125.760 F7200
G1 Y113.619 E692.86978 F3000
G0 X125.280 F7200
G1 Y96.379 E693.48906 F3000
