; Generated with Anisoprint Aura v2.6.1.3 on 06/27/2025 at 10:34
; Printer Processor Type: MARLIN
; LAYER_COUNT: 13
; PRINTING_MODE: Plastic and Composite
M530 L13
M104 S210 T1
M140 S45 
G21 
G90 
M82 
G28
M530 S1
G1 Z10 F900
M190 S45 
; Start change extruder 
M400
M104 S100 T0
M109 S210 T1
T1 R ; switch extruder type to:FIBER
; End change extruder 
G92 E0 ; reset extrusion
G92 V0 ; reset extrusion
G92 U0 ; reset extrusion
; MACROLAYER:1
; LAYER:1
; TIME LEFT: 1694.376 S
M532 L1
M400
M106 P1 S127
G0 Z0.675 F1500
G0 X73 F7200
M1001 L150
G1 F600 U47
G0 X73.500 Z0.175 F7200
G1 F1500 V17
G4 P0
G1 X74.300 V17.02128 U47.80000 F180
G1 X79.300 V17.15428 U52.80000 F180
G1 X79.800 V17.16758 F480
G1 X178.600 V19.79566 U151.60000 F480
G1 X179.100 V19.80896 U152.60000 F480
; Start to cut
M400
M280 P0 S30
G4 P200
M280 P0 S90
M400
G1 X186.100 V19.99516 F60
G1 X224.300 V21.01128 F480
G1 F1500 V14.51128 ; Retract
G0 X233.500 F300
M1002 
; Start change extruder 
M400
G1 F1500 V6.01128 ; Retract
G0 Z5.175 F1500
M1013 
M104 S100 T1
M400
M106 P1 S0
M109 S210 T0
T0 ; switch extruder type to:PLASTIC
M1013 R 
; End change extruder 
G0 X147.378 Y64 F7200
G0 X142.500 F7200
G0 Y67.625 F7200
G0 X114.549 Y88.397 F7200
G0 Z0.200 F1500
G1 X115.287 Y87.495 E0.05231 F1200
G1 X116.009 Y86.778 E0.09797 F1200
G1 X116.900 Y86.043 E0.14984 F1200
G1 X117.734 Y85.485 E0.19487 F1200
G1 X118.654 Y84.987 E0.24184 F1200
G1 X119.740 Y84.532 E0.29469 F1200
G1 X120.883 Y84.189 E0.34825 F1200
G1 X121.996 Y83.979 E0.39908 F1200
G1 X123.035 Y83.879 E0.44591 F1200
G1 X123.365 Y83.870 E0.46073 F1200
G1 X132.375 E0.86529 F1200
G1 X132.409 Y64.132 E1.75155 F1200
G1 X132.531 Y63.146 E1.79614 F1200
G1 X132.743 Y62.159 E1.84144 F1200
G1 X133.050 Y61.188 E1.88715 F1200
G1 X133.502 Y60.119 E1.93924 F1200
G1 X133.980 Y59.244 E1.98400 F1200
G1 X134.549 Y58.397 E2.02980 F1200
G1 X135.287 Y57.495 E2.08211 F1200
G1 X136.009 Y56.778 E2.12778 F1200
G1 X136.900 Y56.043 E2.17964 F1200
G1 X137.734 Y55.485 E2.22467 F1200
G1 X138.654 Y54.987 E2.27164 F1200
G1 X139.740 Y54.532 E2.32449 F1200
G1 X140.885 Y54.188 E2.37815 F1200
G1 X142.049 Y53.971 E2.43131 F1200
G1 X143.170 Y53.879 E2.48178 F1200
G1 X153.724 Y53.874 E2.95567 F1200
G1 X155.169 Y54 E3.02077 F1200
G1 X156.192 Y54.206 E3.06760 F1200
G1 X157.312 Y54.550 E3.12018 F1200
G1 X158.381 Y55.002 E3.17227 F1200
G1 X159.256 Y55.480 E3.21704 F1200
G1 X160.103 Y56.049 E3.26283 F1200
G1 X161.005 Y56.787 E3.31514 F1200
G1 X161.722 Y57.509 E3.36081 F1200
G1 X162.457 Y58.400 E3.41267 F1200
G1 X163.015 Y59.234 E3.45771 F1200
G1 X163.513 Y60.154 E3.50467 F1200
G1 X163.968 Y61.240 E3.55752 F1200
G1 X164.311 Y62.383 E3.61109 F1200
G1 X164.521 Y63.496 E3.66192 F1200
G1 X164.621 Y64.535 E3.70875 F1200
G1 X164.630 Y64.865 E3.72357 F1200
G1 Y83.878 E4.57727 F1200
G1 X174.368 Y83.909 E5.01452 F1200
G1 X175.354 Y84.031 E5.05911 F1200
G1 X176.341 Y84.243 E5.10441 F1200
G1 X177.312 Y84.550 E5.15012 F1200
G1 X178.381 Y85.002 E5.20221 F1200
G1 X179.256 Y85.480 E5.24697 F1200
G1 X180.103 Y86.049 E5.29277 F1200
G1 X181.005 Y86.787 E5.34508 F1200
G1 X181.722 Y87.509 E5.39075 F1200
G1 X182.457 Y88.400 E5.44261 F1200
G1 X183.015 Y89.234 E5.48764 F1200
G1 X183.513 Y90.154 E5.53461 F1200
G1 X183.968 Y91.240 E5.58746 F1200
G1 X184.312 Y92.385 E5.64112 F1200
G1 X184.525 Y93.519 E5.69289 F1200
G1 X184.621 Y94.555 E5.73958 F1200
G1 X184.630 Y95.005 E5.75979 F1200
G1 X184.591 Y115.868 E6.69656 F1200
G1 X184.469 Y116.854 E6.74115 F1200
G1 X184.257 Y117.841 E6.78645 F1200
G1 X183.950 Y118.812 E6.83216 F1200
G1 X183.498 Y119.881 E6.88425 F1200
G1 X183.020 Y120.756 E6.92902 F1200
G1 X182.451 Y121.603 E6.97481 F1200
G1 X181.713 Y122.505 E7.02712 F1200
G1 X180.991 Y123.222 E7.07279 F1200
G1 X180.100 Y123.957 E7.12465 F1200
G1 X179.266 Y124.515 E7.16969 F1200
G1 X178.346 Y125.013 E7.21665 F1200
G1 X177.260 Y125.468 E7.26950 F1200
G1 X176.117 Y125.811 E7.32307 F1200
G1 X175.004 Y126.021 E7.37390 F1200
G1 X173.965 Y126.121 E7.42073 F1200
G1 X173.635 Y126.130 E7.43555 F1200
G1 X164.625 E7.84011 F1200
G1 X164.591 Y145.868 E8.72637 F1200
G1 X164.469 Y146.854 E8.77095 F1200
G1 X164.257 Y147.841 E8.81626 F1200
G1 X163.950 Y148.812 E8.86197 F1200
G1 X163.498 Y149.881 E8.91405 F1200
G1 X163.020 Y150.756 E8.95882 F1200
G1 X162.451 Y151.603 E9.00462 F1200
G1 X161.713 Y152.505 E9.05693 F1200
G1 X160.991 Y153.222 E9.10259 F1200
G1 X160.100 Y153.957 E9.15445 F1200
G1 X159.266 Y154.515 E9.19949 F1200
G1 X158.346 Y155.013 E9.24646 F1200
G1 X157.260 Y155.468 E9.29930 F1200
G1 X156.115 Y155.812 E9.35296 F1200
G1 X154.981 Y156.025 E9.40473 F1200
G1 X153.944 Y156.121 E9.45147 F1200
G1 X153.490 Y156.130 E9.47186 F1200
G1 X142.632 Y156.091 E9.95940 F1200
G1 X141.646 Y155.969 E10.00398 F1200
G1 X140.659 Y155.757 E10.04929 F1200
G1 X139.688 Y155.450 E10.09500 F1200
G1 X138.619 Y154.998 E10.14708 F1200
G1 X137.744 Y154.520 E10.19185 F1200
G1 X136.897 Y153.951 E10.23765 F1200
G1 X135.995 Y153.213 E10.28996 F1200
G1 X135.278 Y152.491 E10.33562 F1200
G1 X134.543 Y151.600 E10.38748 F1200
G1 X133.985 Y150.766 E10.43252 F1200
G1 X133.487 Y149.846 E10.47949 F1200
G1 X133.032 Y148.760 E10.53234 F1200
G1 X132.689 Y147.617 E10.58590 F1200
G1 X132.479 Y146.504 E10.63673 F1200
G1 X132.379 Y145.465 E10.68356 F1200
G1 X132.370 Y145.135 E10.69838 F1200
G1 Y126.122 E11.55209 F1200
G1 X122.632 Y126.091 E11.98933 F1200
G1 X121.646 Y125.969 E12.03392 F1200
G1 X120.659 Y125.757 E12.07923 F1200
G1 X119.688 Y125.450 E12.12494 F1200
G1 X118.619 Y124.998 E12.17702 F1200
G1 X117.744 Y124.520 E12.22179 F1200
G1 X116.897 Y123.951 E12.26759 F1200
G1 X115.995 Y123.213 E12.31990 F1200
G1 X115.278 Y122.491 E12.36556 F1200
G1 X114.543 Y121.600 E12.41742 F1200
G1 X113.985 Y120.766 E12.46246 F1200
G1 X113.487 Y119.846 E12.50942 F1200
G1 X113.032 Y118.760 E12.56227 F1200
G1 X112.688 Y117.615 E12.61593 F1200
G1 X112.475 Y116.481 E12.66770 F1200
G1 X112.379 Y115.445 E12.71440 F1200
G1 X112.370 Y114.995 E12.73460 F1200
G1 X112.409 Y94.132 E13.67138 F1200
G1 X112.531 Y93.146 E13.71596 F1200
G1 X112.743 Y92.159 E13.76127 F1200
G1 X113.050 Y91.188 E13.80698 F1200
G1 X113.502 Y90.119 E13.85906 F1200
G1 X113.980 Y89.244 E13.90383 F1200
G1 X114.549 Y88.397 E13.94963 F1200
G0 X114.968 Y88.738 F7200
G1 X115.669 Y87.877 E13.99947 F1200
G1 X116.353 Y87.194 E14.04284 F1200
G1 X117.202 Y86.491 E14.09233 F1200
G1 X117.992 Y85.959 E14.13507 F1200
G1 X118.864 Y85.485 E14.17961 F1200
G1 X119.897 Y85.049 E14.22995 F1200
G1 X120.984 Y84.719 E14.28091 F1200
G1 X122.048 Y84.516 E14.32954 F1200
G1 X123.050 Y84.419 E14.37471 F1200
G1 X123.380 Y84.410 E14.38953 F1200
G1 X132.914 E14.81761 F1200
G1 X132.945 Y64.197 E15.72520 F1200
G1 X133.059 Y63.258 E15.76763 F1200
G1 X133.258 Y62.321 E15.81060 F1200
G1 X133.548 Y61.397 E15.85407 F1200
G1 X133.976 Y60.377 E15.90373 F1200
G1 X134.429 Y59.544 E15.94630 F1200
G1 X134.968 Y58.738 E15.98980 F1200
G1 X135.669 Y57.877 E16.03965 F1200
G1 X136.353 Y57.194 E16.08302 F1200
G1 X137.202 Y56.491 E16.13250 F1200
G1 X137.992 Y55.959 E16.17525 F1200
G1 X138.864 Y55.485 E16.21979 F1200
G1 X139.897 Y55.049 E16.27012 F1200
G1 X140.986 Y54.719 E16.32118 F1200
G1 X142.094 Y54.509 E16.37178 F1200
G1 X143.170 Y54.419 E16.42023 F1200
G1 X153.724 Y54.414 E16.89411 F1200
G1 X155.064 Y54.530 E16.95451 F1200
G1 X156.035 Y54.723 E16.99891 F1200
G1 X157.103 Y55.048 E17.04902 F1200
G1 X158.123 Y55.476 E17.09868 F1200
G1 X158.956 Y55.929 E17.14125 F1200
G1 X159.762 Y56.468 E17.18476 F1200
G1 X160.623 Y57.169 E17.23460 F1200
G1 X161.306 Y57.853 E17.27797 F1200
G1 X162.009 Y58.702 E17.32746 F1200
G1 X162.541 Y59.492 E17.37020 F1200
G1 X163.015 Y60.364 E17.41474 F1200
G1 X163.451 Y61.397 E17.46508 F1200
G1 X163.781 Y62.484 E17.51604 F1200
G1 X163.984 Y63.548 E17.56467 F1200
G1 X164.081 Y64.550 E17.60984 F1200
G1 X164.090 Y64.880 E17.62466 F1200
G1 Y84.416 E18.50185 F1200
G1 X174.303 Y84.445 E18.96042 F1200
G1 X175.242 Y84.559 E19.00285 F1200
G1 X176.179 Y84.758 E19.04582 F1200
G1 X177.103 Y85.048 E19.08929 F1200
G1 X178.123 Y85.476 E19.13895 F1200
G1 X178.956 Y85.929 E19.18152 F1200
G1 X179.762 Y86.468 E19.22502 F1200
G1 X180.623 Y87.169 E19.27487 F1200
G1 X181.306 Y87.853 E19.31824 F1200
G1 X182.009 Y88.702 E19.36772 F1200
G1 X182.541 Y89.492 E19.41047 F1200
G1 X183.015 Y90.364 E19.45501 F1200
G1 X183.451 Y91.397 E19.50534 F1200
G1 X183.781 Y92.486 E19.55640 F1200
G1 X183.987 Y93.570 E19.60592 F1200
G1 X184.081 Y94.566 E19.65082 F1200
G1 X184.090 Y95.004 E19.67049 F1200
G1 X184.055 Y115.803 E20.60439 F1200
G1 X183.941 Y116.742 E20.64682 F1200
G1 X183.742 Y117.679 E20.68979 F1200
G1 X183.452 Y118.603 E20.73326 F1200
G1 X183.024 Y119.623 E20.78292 F1200
G1 X182.571 Y120.456 E20.82548 F1200
G1 X182.032 Y121.262 E20.86899 F1200
G1 X181.331 Y122.123 E20.91883 F1200
G1 X180.647 Y122.806 E20.96221 F1200
G1 X179.798 Y123.509 E21.01169 F1200
G1 X179.008 Y124.041 E21.05443 F1200
G1 X178.136 Y124.515 E21.09898 F1200
G1 X177.103 Y124.951 E21.14931 F1200
G1 X176.016 Y125.281 E21.20027 F1200
G1 X174.952 Y125.484 E21.24890 F1200
G1 X173.950 Y125.581 E21.29407 F1200
G1 X173.620 Y125.590 E21.30889 F1200
G1 X164.086 E21.73698 F1200
G1 X164.055 Y145.803 E22.64456 F1200
G1 X163.941 Y146.742 E22.68700 F1200
G1 X163.742 Y147.679 E22.72997 F1200
G1 X163.452 Y148.603 E22.77343 F1200
G1 X163.024 Y149.623 E22.82309 F1200
G1 X162.571 Y150.456 E22.86566 F1200
G1 X162.032 Y151.262 E22.90917 F1200
G1 X161.331 Y152.123 E22.95901 F1200
G1 X160.647 Y152.806 E23.00238 F1200
G1 X159.798 Y153.509 E23.05186 F1200
G1 X159.008 Y154.041 E23.09461 F1200
G1 X158.136 Y154.515 E23.13915 F1200
G1 X157.103 Y154.951 E23.18949 F1200
G1 X156.014 Y155.281 E23.24054 F1200
G1 X154.930 Y155.487 E23.29006 F1200
G1 X153.933 Y155.581 E23.33501 F1200
G1 X153.492 Y155.590 E23.35481 F1200
G1 X142.697 Y155.555 E23.83952 F1200
G1 X141.758 Y155.441 E23.88195 F1200
G1 X140.821 Y155.242 E23.92492 F1200
G1 X139.897 Y154.952 E23.96839 F1200
G1 X138.877 Y154.524 E24.01805 F1200
G1 X138.044 Y154.071 E24.06061 F1200
G1 X137.238 Y153.532 E24.10412 F1200
G1 X136.377 Y152.831 E24.15396 F1200
G1 X135.694 Y152.147 E24.19734 F1200
G1 X134.991 Y151.298 E24.24682 F1200
G1 X134.459 Y150.508 E24.28956 F1200
G1 X133.985 Y149.636 E24.33411 F1200
G1 X133.549 Y148.603 E24.38444 F1200
G1 X133.219 Y147.516 E24.43540 F1200
G1 X133.016 Y146.452 E24.48403 F1200
G1 X132.919 Y145.450 E24.52920 F1200
G1 X132.910 Y145.120 E24.54402 F1200
G1 Y125.584 E25.42121 F1200
G1 X122.697 Y125.555 E25.87978 F1200
G1 X121.758 Y125.441 E25.92222 F1200
G1 X120.821 Y125.242 E25.96519 F1200
G1 X119.897 Y124.952 E26.00865 F1200
G1 X118.877 Y124.524 E26.05831 F1200
G1 X118.044 Y124.071 E26.10088 F1200
G1 X117.238 Y123.532 E26.14439 F1200
G1 X116.377 Y122.831 E26.19423 F1200
G1 X115.694 Y122.147 E26.23760 F1200
G1 X114.991 Y121.298 E26.28708 F1200
G1 X114.459 Y120.508 E26.32983 F1200
G1 X113.985 Y119.636 E26.37437 F1200
G1 X113.549 Y118.603 E26.42471 F1200
G1 X113.219 Y117.514 E26.47576 F1200
G1 X113.013 Y116.430 E26.52528 F1200
G1 X112.919 Y115.434 E26.57018 F1200
G1 X112.910 Y114.996 E26.58985 F1200
G1 X112.945 Y94.197 E27.52375 F1200
G1 X113.059 Y93.258 E27.56618 F1200
G1 X113.258 Y92.321 E27.60915 F1200
G1 X113.548 Y91.397 E27.65262 F1200
G1 X113.976 Y90.377 E27.70228 F1200
G1 X114.429 Y89.544 E27.74484 F1200
G1 X114.968 Y88.738 E27.78835 F1200
G0 X115.387 Y89.078 F7200
G1 X116.052 Y88.258 E27.83572 F1200
G1 X116.698 Y87.609 E27.87681 F1200
G1 X117.504 Y86.938 E27.92387 F1200
G1 X118.251 Y86.433 E27.96432 F1200
G1 X119.075 Y85.982 E28.00648 F1200
G1 X120.055 Y85.565 E28.05430 F1200
G1 X121.086 Y85.249 E28.10271 F1200
G1 X122.100 Y85.053 E28.14905 F1200
G1 X123.065 Y84.959 E28.19255 F1200
G1 X123.395 Y84.950 E28.20737 F1200
G1 X133.453 E28.65899 F1200
G1 X133.481 Y64.261 E29.58795 F1200
G1 X133.587 Y63.369 E29.62827 F1200
G1 X133.774 Y62.481 E29.66900 F1200
G1 X134.046 Y61.605 E29.71017 F1200
G1 X134.451 Y60.634 E29.75741 F1200
G1 X134.879 Y59.843 E29.79777 F1200
G1 X135.387 Y59.078 E29.83899 F1200
G1 X136.052 Y58.258 E29.88636 F1200
G1 X136.698 Y57.609 E29.92745 F1200
G1 X137.504 Y56.938 E29.97450 F1200
G1 X138.251 Y56.433 E30.01496 F1200
G1 X139.075 Y55.982 E30.05712 F1200
G1 X140.055 Y55.565 E30.10494 F1200
G1 X141.088 Y55.249 E30.15343 F1200
G1 X142.140 Y55.047 E30.20152 F1200
G1 X143.170 Y54.959 E30.24791 F1200
G1 X153.724 Y54.954 E30.72179 F1200
G1 X154.960 Y55.060 E30.77747 F1200
G1 X155.879 Y55.240 E30.81950 F1200
G1 X156.895 Y55.546 E30.86714 F1200
G1 X157.866 Y55.951 E30.91437 F1200
G1 X158.657 Y56.379 E30.95474 F1200
G1 X159.422 Y56.887 E30.99596 F1200
G1 X160.242 Y57.552 E31.04333 F1200
G1 X160.891 Y58.198 E31.08441 F1200
G1 X161.562 Y59.004 E31.13147 F1200
G1 X162.067 Y59.751 E31.17193 F1200
G1 X162.518 Y60.575 E31.21409 F1200
G1 X162.935 Y61.555 E31.26191 F1200
G1 X163.251 Y62.586 E31.31031 F1200
G1 X163.447 Y63.600 E31.35665 F1200
G1 X163.541 Y64.565 E31.40016 F1200
G1 X163.550 Y64.895 E31.41498 F1200
G1 Y84.955 E32.31570 F1200
G1 X174.239 Y84.981 E32.79564 F1200
G1 X175.131 Y85.087 E32.83597 F1200
G1 X176.019 Y85.274 E32.87669 F1200
G1 X176.895 Y85.546 E32.91786 F1200
G1 X177.866 Y85.951 E32.96510 F1200
G1 X178.657 Y86.379 E33.00547 F1200
G1 X179.422 Y86.887 E33.04669 F1200
G1 X180.242 Y87.552 E33.09406 F1200
G1 X180.891 Y88.198 E33.13514 F1200
G1 X181.562 Y89.004 E33.18220 F1200
G1 X182.067 Y89.751 E33.22265 F1200
G1 X182.518 Y90.575 E33.26482 F1200
G1 X182.935 Y91.555 E33.31264 F1200
G1 X183.251 Y92.588 E33.36113 F1200
G1 X183.449 Y93.622 E33.40837 F1200
G1 X183.541 Y94.577 E33.45143 F1200
G1 X183.550 Y95.003 E33.47055 F1200
G1 X183.519 Y115.739 E34.40162 F1200
G1 X183.413 Y116.631 E34.44195 F1200
G1 X183.226 Y117.519 E34.48267 F1200
G1 X182.954 Y118.395 E34.52385 F1200
G1 X182.549 Y119.366 E34.57108 F1200
G1 X182.121 Y120.157 E34.61145 F1200
G1 X181.613 Y120.922 E34.65267 F1200
G1 X180.948 Y121.742 E34.70004 F1200
G1 X180.302 Y122.391 E34.74112 F1200
G1 X179.496 Y123.062 E34.78818 F1200
G1 X178.749 Y123.567 E34.82863 F1200
G1 X177.925 Y124.018 E34.87080 F1200
G1 X176.945 Y124.435 E34.91862 F1200
G1 X175.914 Y124.751 E34.96702 F1200
G1 X174.900 Y124.947 E35.01336 F1200
G1 X173.935 Y125.041 E35.05687 F1200
G1 X173.605 Y125.050 E35.07168 F1200
G1 X163.547 E35.52330 F1200
G1 X163.519 Y145.739 E36.45226 F1200
G1 X163.413 Y146.631 E36.49258 F1200
G1 X163.226 Y147.519 E36.53331 F1200
G1 X162.954 Y148.395 E36.57448 F1200
G1 X162.549 Y149.366 E36.62172 F1200
G1 X162.121 Y150.157 E36.66208 F1200
G1 X161.613 Y150.922 E36.70330 F1200
G1 X160.948 Y151.742 E36.75067 F1200
G1 X160.302 Y152.391 E36.79176 F1200
G1 X159.496 Y153.062 E36.83882 F1200
G1 X158.749 Y153.567 E36.87927 F1200
G1 X157.925 Y154.018 E36.92143 F1200
G1 X156.945 Y154.435 E36.96925 F1200
G1 X155.912 Y154.751 E37.01775 F1200
G1 X154.878 Y154.949 E37.06498 F1200
G1 X153.922 Y155.041 E37.10809 F1200
G1 X153.494 Y155.050 E37.12731 F1200
G1 X142.761 Y155.019 E37.60923 F1200
G1 X141.869 Y154.913 E37.64955 F1200
G1 X140.981 Y154.726 E37.69028 F1200
G1 X140.105 Y154.454 E37.73145 F1200
G1 X139.134 Y154.049 E37.77869 F1200
G1 X138.343 Y153.621 E37.81905 F1200
G1 X137.578 Y153.113 E37.86027 F1200
G1 X136.758 Y152.448 E37.90764 F1200
G1 X136.109 Y151.802 E37.94873 F1200
G1 X135.438 Y150.996 E37.99578 F1200
G1 X134.933 Y150.249 E38.03624 F1200
G1 X134.482 Y149.425 E38.07840 F1200
G1 X134.065 Y148.445 E38.12622 F1200
G1 X133.749 Y147.414 E38.17463 F1200
G1 X133.553 Y146.400 E38.22096 F1200
G1 X133.459 Y145.435 E38.26447 F1200
G1 X133.450 Y145.105 E38.27929 F1200
G1 Y125.045 E39.18001 F1200
G1 X122.761 Y125.019 E39.65996 F1200
G1 X121.869 Y124.913 E39.70028 F1200
G1 X120.981 Y124.726 E39.74100 F1200
G1 X120.105 Y124.454 E39.78218 F1200
G1 X119.134 Y124.049 E39.82941 F1200
G1 X118.343 Y123.621 E39.86978 F1200
G1 X117.578 Y123.113 E39.91100 F1200
G1 X116.758 Y122.448 E39.95837 F1200
G1 X116.109 Y121.802 E39.99945 F1200
G1 X115.438 Y120.996 E40.04651 F1200
G1 X114.933 Y120.249 E40.08697 F1200
G1 X114.482 Y119.425 E40.12913 F1200
G1 X114.065 Y118.445 E40.17695 F1200
G1 X113.749 Y117.412 E40.22544 F1200
G1 X113.551 Y116.378 E40.27268 F1200
G1 X113.459 Y115.423 E40.31574 F1200
G1 X113.450 Y114.997 E40.33487 F1200
G1 X113.481 Y94.261 E41.26594 F1200
G1 X113.587 Y93.369 E41.30626 F1200
G1 X113.774 Y92.481 E41.34698 F1200
G1 X114.046 Y91.605 E41.38816 F1200
G1 X114.451 Y90.634 E41.43539 F1200
G1 X114.879 Y89.843 E41.47576 F1200
G1 X115.387 Y89.078 E41.51698 F1200
G0 X115.807 Y89.417 F7200
G1 X116.435 Y88.638 E41.56188 F1200
G1 X117.045 Y88.023 E41.60077 F1200
G1 X117.807 Y87.385 E41.64535 F1200
G1 X118.512 Y86.906 E41.68361 F1200
G1 X119.287 Y86.478 E41.72335 F1200
G1 X120.215 Y86.081 E41.76865 F1200
G1 X121.190 Y85.779 E41.81445 F1200
G1 X122.153 Y85.590 E41.85850 F1200
G1 X123.080 Y85.499 E41.90030 F1200
G1 X123.410 Y85.490 E41.91512 F1200
G1 X133.992 E42.39026 F1200
G1 X134.017 Y64.324 E43.34064 F1200
G1 X134.116 Y63.479 E43.37881 F1200
G1 X134.290 Y62.640 E43.41724 F1200
G1 X134.545 Y61.811 E43.45617 F1200
G1 X134.926 Y60.890 E43.50089 F1200
G1 X135.330 Y60.140 E43.53910 F1200
G1 X135.807 Y59.417 E43.57799 F1200
G1 X136.435 Y58.638 E43.62289 F1200
G1 X137.045 Y58.023 E43.66177 F1200
G1 X137.807 Y57.385 E43.70636 F1200
G1 X138.512 Y56.906 E43.74462 F1200
G1 X139.287 Y56.478 E43.78436 F1200
G1 X140.215 Y56.081 E43.82966 F1200
G1 X141.191 Y55.779 E43.87550 F1200
G1 X142.187 Y55.585 E43.92103 F1200
G1 X143.170 Y55.499 E43.96531 F1200
G1 X153.724 Y55.494 E44.43919 F1200
G1 X154.857 Y55.590 E44.49025 F1200
G1 X155.725 Y55.758 E44.52994 F1200
G1 X156.689 Y56.045 E44.57507 F1200
G1 X157.610 Y56.426 E44.61979 F1200
G1 X158.360 Y56.830 E44.65800 F1200
G1 X159.083 Y57.307 E44.69688 F1200
G1 X159.862 Y57.935 E44.74178 F1200
G1 X160.477 Y58.545 E44.78067 F1200
G1 X161.115 Y59.307 E44.82525 F1200
G1 X161.594 Y60.012 E44.86351 F1200
G1 X162.022 Y60.787 E44.90325 F1200
G1 X162.419 Y61.715 E44.94855 F1200
G1 X162.721 Y62.690 E44.99435 F1200
G1 X162.910 Y63.653 E45.03840 F1200
G1 X163.001 Y64.580 E45.08020 F1200
G1 X163.010 Y64.910 E45.09502 F1200
G1 Y85.494 E46.01927 F1200
G1 X174.176 Y85.517 E46.52063 F1200
G1 X175.021 Y85.616 E46.55880 F1200
G1 X175.860 Y85.790 E46.59723 F1200
G1 X176.689 Y86.045 E46.63616 F1200
G1 X177.610 Y86.426 E46.68089 F1200
G1 X178.360 Y86.830 E46.71910 F1200
G1 X179.083 Y87.307 E46.75798 F1200
G1 X179.862 Y87.935 E46.80288 F1200
G1 X180.477 Y88.545 E46.84177 F1200
G1 X181.115 Y89.307 E46.88635 F1200
G1 X181.594 Y90.012 E46.92461 F1200
G1 X182.022 Y90.787 E46.96435 F1200
G1 X182.419 Y91.715 E47.00965 F1200
G1 X182.721 Y92.691 E47.05550 F1200
G1 X182.912 Y93.674 E47.10044 F1200
G1 X183.001 Y94.589 E47.14171 F1200
G1 X183.010 Y95.002 E47.16025 F1200
G1 X182.983 Y115.676 E48.08854 F1200
G1 X182.884 Y116.521 E48.12670 F1200
G1 X182.710 Y117.360 E48.16514 F1200
G1 X182.455 Y118.189 E48.20407 F1200
G1 X182.074 Y119.110 E48.24879 F1200
G1 X181.670 Y119.860 E48.28700 F1200
G1 X181.193 Y120.583 E48.32589 F1200
G1 X180.565 Y121.362 E48.37079 F1200
G1 X179.955 Y121.977 E48.40967 F1200
G1 X179.193 Y122.615 E48.45426 F1200
G1 X178.488 Y123.094 E48.49251 F1200
G1 X177.713 Y123.522 E48.53225 F1200
G1 X176.785 Y123.919 E48.57756 F1200
G1 X175.810 Y124.221 E48.62336 F1200
G1 X174.847 Y124.410 E48.66740 F1200
G1 X173.920 Y124.501 E48.70921 F1200
G1 X173.590 Y124.510 E48.72402 F1200
G1 X163.008 E49.19917 F1200
G1 X162.983 Y145.676 E50.14955 F1200
G1 X162.884 Y146.521 E50.18771 F1200
G1 X162.710 Y147.360 E50.22615 F1200
G1 X162.455 Y148.189 E50.26508 F1200
G1 X162.074 Y149.110 E50.30980 F1200
G1 X161.670 Y149.860 E50.34801 F1200
G1 X161.193 Y150.583 E50.38689 F1200
G1 X160.565 Y151.362 E50.43180 F1200
G1 X159.955 Y151.977 E50.47068 F1200
G1 X159.193 Y152.615 E50.51527 F1200
G1 X158.488 Y153.094 E50.55352 F1200
G1 X157.713 Y153.522 E50.59326 F1200
G1 X156.785 Y153.919 E50.63857 F1200
G1 X155.809 Y154.221 E50.68441 F1200
G1 X154.826 Y154.412 E50.72936 F1200
G1 X153.910 Y154.501 E50.77066 F1200
G1 X153.495 Y154.510 E50.78930 F1200
G1 X142.824 Y154.483 E51.26844 F1200
G1 X141.979 Y154.384 E51.30661 F1200
G1 X141.140 Y154.210 E51.34504 F1200
G1 X140.311 Y153.955 E51.38397 F1200
G1 X139.390 Y153.574 E51.42869 F1200
G1 X138.640 Y153.170 E51.46690 F1200
G1 X137.917 Y152.693 E51.50579 F1200
G1 X137.138 Y152.065 E51.55069 F1200
G1 X136.523 Y151.455 E51.58957 F1200
G1 X135.885 Y150.693 E51.63416 F1200
G1 X135.406 Y149.988 E51.67242 F1200
G1 X134.978 Y149.213 E51.71215 F1200
G1 X134.581 Y148.285 E51.75746 F1200
G1 X134.279 Y147.310 E51.80326 F1200
G1 X134.090 Y146.347 E51.84731 F1200
G1 X133.999 Y145.420 E51.88911 F1200
G1 X133.990 Y145.090 E51.90393 F1200
G1 Y124.506 E52.82817 F1200
G1 X122.824 Y124.483 E53.32954 F1200
G1 X121.979 Y124.384 E53.36770 F1200
G1 X121.140 Y124.210 E53.40614 F1200
G1 X120.311 Y123.955 E53.44507 F1200
G1 X119.390 Y123.574 E53.48979 F1200
G1 X118.640 Y123.170 E53.52800 F1200
G1 X117.917 Y122.693 E53.56689 F1200
G1 X117.138 Y122.065 E53.61179 F1200
G1 X116.523 Y121.455 E53.65067 F1200
G1 X115.885 Y120.693 E53.69526 F1200
G1 X115.406 Y119.988 E53.73351 F1200
G1 X114.978 Y119.213 E53.77325 F1200
G1 X114.581 Y118.285 E53.81856 F1200
G1 X114.279 Y117.309 E53.86440 F1200
G1 X114.088 Y116.326 E53.90935 F1200
G1 X113.999 Y115.411 E53.95061 F1200
G1 X113.990 Y114.998 E53.96916 F1200
G1 X114.017 Y94.324 E54.89744 F1200
G1 X114.116 Y93.479 E54.93561 F1200
G1 X114.290 Y92.640 E54.97404 F1200
G1 X114.545 Y91.811 E55.01297 F1200
G1 X114.926 Y90.890 E55.05770 F1200
G1 X115.330 Y90.140 E55.09591 F1200
G1 X115.807 Y89.417 E55.13479 F1200
G0 X116.229 Y89.754 F7200
G1 X116.819 Y89.017 E55.17718 F1200
G1 X117.392 Y88.436 E55.21382 F1200
G1 X118.112 Y87.831 E55.25602 F1200
G1 X118.774 Y87.378 E55.29203 F1200
G1 X119.501 Y86.974 E55.32935 F1200
G1 X120.376 Y86.596 E55.37214 F1200
G1 X121.296 Y86.309 E55.41538 F1200
G1 X122.206 Y86.127 E55.45705 F1200
G1 X123.095 Y86.039 E55.49714 F1200
G1 X123.425 Y86.030 E55.51196 F1200
G1 X134.531 E56.01063 F1200
G1 X134.554 Y64.385 E56.98252 F1200
G1 X134.645 Y63.587 E57.01857 F1200
G1 X134.807 Y62.797 E57.05476 F1200
G1 X135.045 Y62.016 E57.09140 F1200
G1 X135.402 Y61.145 E57.13366 F1200
G1 X135.781 Y60.436 E57.16971 F1200
G1 X136.229 Y59.754 E57.20631 F1200
G1 X136.819 Y59.017 E57.24869 F1200
G1 X137.392 Y58.436 E57.28533 F1200
G1 X138.112 Y57.831 E57.32754 F1200
G1 X138.774 Y57.378 E57.36355 F1200
G1 X139.501 Y56.974 E57.40086 F1200
G1 X140.376 Y56.596 E57.44365 F1200
G1 X141.296 Y56.309 E57.48689 F1200
G1 X142.235 Y56.123 E57.52986 F1200
G1 X143.170 Y56.039 E57.57198 F1200
G1 X153.724 Y56.034 E58.04587 F1200
G1 X154.756 Y56.121 E58.09234 F1200
G1 X155.572 Y56.276 E58.12961 F1200
G1 X156.484 Y56.545 E58.17227 F1200
G1 X157.355 Y56.902 E58.21452 F1200
G1 X158.064 Y57.281 E58.25057 F1200
G1 X158.746 Y57.729 E58.28717 F1200
G1 X159.483 Y58.319 E58.32955 F1200
G1 X160.064 Y58.892 E58.36619 F1200
G1 X160.669 Y59.612 E58.40840 F1200
G1 X161.122 Y60.274 E58.44441 F1200
G1 X161.526 Y61.001 E58.48172 F1200
G1 X161.904 Y61.876 E58.52452 F1200
G1 X162.191 Y62.796 E58.56776 F1200
G1 X162.373 Y63.706 E58.60942 F1200
G1 X162.461 Y64.595 E58.64952 F1200
G1 X162.470 Y64.925 E58.66434 F1200
G1 Y86.033 E59.61211 F1200
G1 X174.115 Y86.054 E60.13499 F1200
G1 X174.913 Y86.145 E60.17104 F1200
G1 X175.703 Y86.307 E60.20723 F1200
G1 X176.484 Y86.545 E60.24387 F1200
G1 X177.355 Y86.902 E60.28612 F1200
G1 X178.064 Y87.281 E60.32218 F1200
G1 X178.746 Y87.729 E60.35877 F1200
G1 X179.483 Y88.319 E60.40116 F1200
G1 X180.064 Y88.892 E60.43780 F1200
G1 X180.669 Y89.612 E60.48001 F1200
G1 X181.122 Y90.274 E60.51602 F1200
G1 X181.526 Y91.001 E60.55333 F1200
G1 X181.904 Y91.876 E60.59612 F1200
G1 X182.191 Y92.796 E60.63936 F1200
G1 X182.375 Y93.727 E60.68197 F1200
G1 X182.461 Y94.601 E60.72140 F1200
G1 X182.470 Y95.001 E60.73936 F1200
G1 X182.446 Y115.615 E61.66495 F1200
G1 X182.355 Y116.413 E61.70100 F1200
G1 X182.193 Y117.203 E61.73719 F1200
G1 X181.955 Y117.984 E61.77383 F1200
G1 X181.598 Y118.855 E61.81609 F1200
G1 X181.219 Y119.564 E61.85214 F1200
G1 X180.771 Y120.246 E61.88874 F1200
G1 X180.181 Y120.983 E61.93112 F1200
G1 X179.608 Y121.564 E61.96776 F1200
G1 X178.888 Y122.169 E62.00997 F1200
G1 X178.226 Y122.622 E62.04598 F1200
G1 X177.499 Y123.026 E62.08329 F1200
G1 X176.624 Y123.404 E62.12608 F1200
G1 X175.704 Y123.691 E62.16932 F1200
G1 X174.794 Y123.873 E62.21099 F1200
G1 X173.905 Y123.961 E62.25109 F1200
G1 X173.575 Y123.970 E62.26591 F1200
G1 X162.469 E62.76458 F1200
G1 X162.446 Y145.615 E63.73646 F1200
G1 X162.355 Y146.413 E63.77252 F1200
G1 X162.193 Y147.203 E63.80871 F1200
G1 X161.955 Y147.984 E63.84535 F1200
G1 X161.598 Y148.855 E63.88760 F1200
G1 X161.219 Y149.564 E63.92366 F1200
G1 X160.771 Y150.246 E63.96025 F1200
G1 X160.181 Y150.983 E64.00264 F1200
G1 X159.608 Y151.564 E64.03928 F1200
G1 X158.888 Y152.169 E64.08149 F1200
G1 X158.226 Y152.622 E64.11750 F1200
G1 X157.499 Y153.026 E64.15481 F1200
G1 X156.624 Y153.404 E64.19760 F1200
G1 X155.704 Y153.691 E64.24084 F1200
G1 X154.773 Y153.875 E64.28345 F1200
G1 X153.898 Y153.961 E64.32292 F1200
G1 X153.496 Y153.970 E64.34097 F1200
G1 X142.885 Y153.946 E64.81742 F1200
G1 X142.087 Y153.855 E64.85347 F1200
G1 X141.297 Y153.693 E64.88966 F1200
G1 X140.516 Y153.455 E64.92630 F1200
G1 X139.645 Y153.098 E64.96855 F1200
G1 X138.936 Y152.719 E65.00461 F1200
G1 X138.254 Y152.271 E65.04120 F1200
G1 X137.517 Y151.681 E65.08359 F1200
G1 X136.936 Y151.108 E65.12023 F1200
G1 X136.331 Y150.388 E65.16244 F1200
G1 X135.878 Y149.726 E65.19845 F1200
G1 X135.474 Y148.999 E65.23576 F1200
G1 X135.096 Y148.124 E65.27855 F1200
G1 X134.809 Y147.204 E65.32179 F1200
G1 X134.627 Y146.294 E65.36346 F1200
G1 X134.539 Y145.405 E65.40356 F1200
G1 X134.530 Y145.075 E65.41837 F1200
G1 Y123.967 E66.36615 F1200
G1 X122.885 Y123.946 E66.88902 F1200
G1 X122.087 Y123.855 E66.92508 F1200
G1 X121.297 Y123.693 E66.96127 F1200
G1 X120.516 Y123.455 E66.99791 F1200
G1 X119.645 Y123.098 E67.04016 F1200
G1 X118.936 Y122.719 E67.07621 F1200
G1 X118.254 Y122.271 E67.11281 F1200
G1 X117.517 Y121.681 E67.15520 F1200
G1 X116.936 Y121.108 E67.19184 F1200
G1 X116.331 Y120.388 E67.23404 F1200
G1 X115.878 Y119.726 E67.27005 F1200
G1 X115.474 Y118.999 E67.30737 F1200
G1 X115.096 Y118.124 E67.35016 F1200
G1 X114.809 Y117.204 E67.39340 F1200
G1 X114.625 Y116.273 E67.43601 F1200
G1 X114.539 Y115.399 E67.47543 F1200
G1 X114.530 Y114.999 E67.49339 F1200
G1 X114.554 Y94.385 E68.41898 F1200
G1 X114.645 Y93.587 E68.45504 F1200
G1 X114.807 Y92.797 E68.49123 F1200
G1 X115.045 Y92.016 E68.52787 F1200
G1 X115.402 Y91.145 E68.57012 F1200
G1 X115.781 Y90.436 E68.60618 F1200
G1 X116.229 Y89.754 E68.64277 F1200
G0 X116.652 Y90.090 F7200
G1 X117.205 Y89.395 E68.68264 F1200
G1 X117.741 Y88.848 E68.71699 F1200
G1 X118.418 Y88.276 E68.75678 F1200
G1 X119.038 Y87.849 E68.79054 F1200
G1 X119.716 Y87.469 E68.82543 F1200
G1 X120.539 Y87.111 E68.86571 F1200
G1 X121.402 Y86.838 E68.90634 F1200
G1 X122.280 Y86.662 E68.94653 F1200
G1 X123.110 Y86.579 E68.98398 F1200
G1 X123.440 Y86.570 E68.99879 F1200
G1 X135.070 E69.52099 F1200
G1 X135.091 Y64.444 E70.51448 F1200
G1 X135.174 Y63.694 E70.54833 F1200
G1 X135.324 Y62.953 E70.58228 F1200
G1 X135.545 Y62.219 E70.61667 F1200
G1 X135.879 Y61.398 E70.65646 F1200
G1 X136.233 Y60.731 E70.69036 F1200
G1 X136.652 Y60.090 E70.72471 F1200
G1 X137.205 Y59.395 E70.76458 F1200
G1 X137.741 Y58.848 E70.79893 F1200
G1 X138.418 Y58.276 E70.83871 F1200
G1 X139.038 Y57.849 E70.87248 F1200
G1 X139.716 Y57.469 E70.90736 F1200
G1 X140.539 Y57.111 E70.94764 F1200
G1 X141.402 Y56.838 E70.98828 F1200
G1 X142.285 Y56.661 E71.02869 F1200
G1 X143.170 Y56.579 E71.06856 F1200
G1 X153.724 Y56.574 E71.54245 F1200
G1 X154.657 Y56.652 E71.58447 F1200
G1 X155.421 Y56.794 E71.61936 F1200
G1 X156.281 Y57.045 E71.65955 F1200
G1 X157.102 Y57.379 E71.69933 F1200
G1 X157.769 Y57.733 E71.73323 F1200
G1 X158.410 Y58.152 E71.76758 F1200
G1 X159.105 Y58.705 E71.80745 F1200
G1 X159.652 Y59.241 E71.84180 F1200
G1 X160.224 Y59.918 E71.88158 F1200
G1 X160.651 Y60.538 E71.91535 F1200
G1 X161.031 Y61.216 E71.95024 F1200
G1 X161.389 Y62.039 E71.99051 F1200
G1 X161.662 Y62.902 E72.03115 F1200
G1 X161.838 Y63.780 E72.07134 F1200
G1 X161.921 Y64.610 E72.10878 F1200
G1 X161.930 Y64.940 E72.12360 F1200
G1 Y86.572 E73.09490 F1200
G1 X174.056 Y86.591 E73.63938 F1200
G1 X174.806 Y86.674 E73.67323 F1200
G1 X175.547 Y86.824 E73.70718 F1200
G1 X176.281 Y87.045 E73.74157 F1200
G1 X177.102 Y87.379 E73.78135 F1200
G1 X177.769 Y87.733 E73.81525 F1200
G1 X178.410 Y88.152 E73.84960 F1200
G1 X179.105 Y88.705 E73.88948 F1200
G1 X179.652 Y89.241 E73.92382 F1200
G1 X180.224 Y89.918 E73.96361 F1200
G1 X180.651 Y90.538 E73.99737 F1200
G1 X181.031 Y91.216 E74.03226 F1200
G1 X181.389 Y92.039 E74.07254 F1200
G1 X181.662 Y92.902 E74.11317 F1200
G1 X181.838 Y93.780 E74.15336 F1200
G1 X181.921 Y94.614 E74.19099 F1200
G1 X181.930 Y95 E74.20832 F1200
G1 X181.909 Y115.556 E75.13131 F1200
G1 X181.826 Y116.306 E75.16516 F1200
G1 X181.676 Y117.047 E75.19911 F1200
G1 X181.455 Y117.781 E75.23350 F1200
G1 X181.121 Y118.602 E75.27328 F1200
G1 X180.767 Y119.269 E75.30719 F1200
G1 X180.348 Y119.910 E75.34153 F1200
G1 X179.795 Y120.605 E75.38141 F1200
G1 X179.259 Y121.152 E75.41576 F1200
G1 X178.582 Y121.724 E75.45554 F1200
G1 X177.962 Y122.151 E75.48930 F1200
G1 X177.284 Y122.531 E75.52419 F1200
G1 X176.461 Y122.889 E75.56447 F1200
G1 X175.598 Y123.162 E75.60510 F1200
G1 X174.720 Y123.338 E75.64529 F1200
G1 X173.890 Y123.421 E75.68274 F1200
G1 X173.560 Y123.430 E75.69756 F1200
G1 X161.930 E76.21976 F1200
G1 X161.909 Y145.556 E77.21324 F1200
G1 X161.826 Y146.306 E77.24710 F1200
G1 X161.676 Y147.047 E77.28104 F1200
G1 X161.455 Y147.781 E77.31544 F1200
G1 X161.121 Y148.602 E77.35522 F1200
G1 X160.767 Y149.269 E77.38912 F1200
G1 X160.348 Y149.910 E77.42347 F1200
G1 X159.795 Y150.605 E77.46334 F1200
G1 X159.259 Y151.152 E77.49769 F1200
G1 X158.582 Y151.724 E77.53747 F1200
G1 X157.962 Y152.151 E77.57124 F1200
G1 X157.284 Y152.531 E77.60613 F1200
G1 X156.461 Y152.889 E77.64640 F1200
G1 X155.598 Y153.162 E77.68704 F1200
G1 X154.720 Y153.338 E77.72722 F1200
G1 X153.885 Y153.421 E77.76490 F1200
G1 X153.497 Y153.430 E77.78232 F1200
G1 X142.944 Y153.409 E78.25616 F1200
G1 X142.194 Y153.326 E78.29002 F1200
G1 X141.453 Y153.176 E78.32396 F1200
G1 X140.719 Y152.955 E78.35836 F1200
G1 X139.898 Y152.621 E78.39814 F1200
G1 X139.231 Y152.267 E78.43204 F1200
G1 X138.590 Y151.848 E78.46639 F1200
G1 X137.895 Y151.295 E78.50626 F1200
G1 X137.348 Y150.759 E78.54061 F1200
G1 X136.776 Y150.082 E78.58039 F1200
G1 X136.349 Y149.462 E78.61416 F1200
G1 X135.969 Y148.784 E78.64905 F1200
G1 X135.611 Y147.961 E78.68932 F1200
G1 X135.338 Y147.098 E78.72996 F1200
G1 X135.162 Y146.220 E78.77014 F1200
G1 X135.079 Y145.390 E78.80759 F1200
G1 X135.070 Y145.060 E78.82241 F1200
G1 Y123.428 E79.79371 F1200
G1 X122.944 Y123.409 E80.33818 F1200
G1 X122.194 Y123.326 E80.37204 F1200
G1 X121.453 Y123.176 E80.40598 F1200
G1 X120.719 Y122.955 E80.44038 F1200
G1 X119.898 Y122.621 E80.48016 F1200
G1 X119.231 Y122.267 E80.51406 F1200
G1 X118.590 Y121.848 E80.54841 F1200
G1 X117.895 Y121.295 E80.58828 F1200
G1 X117.348 Y120.759 E80.62263 F1200
G1 X116.776 Y120.082 E80.66241 F1200
G1 X116.349 Y119.462 E80.69618 F1200
G1 X115.969 Y118.784 E80.73107 F1200
G1 X115.611 Y117.961 E80.77134 F1200
G1 X115.338 Y117.098 E80.81198 F1200
G1 X115.162 Y116.220 E80.85217 F1200
G1 X115.079 Y115.386 E80.88979 F1200
G1 X115.070 Y115 E80.90713 F1200
G1 X115.091 Y94.444 E81.83011 F1200
G1 X115.174 Y93.694 E81.86397 F1200
G1 X115.324 Y92.953 E81.89792 F1200
G1 X115.545 Y92.219 E81.93231 F1200
G1 X115.879 Y91.398 E81.97209 F1200
G1 X116.233 Y90.731 E82.00599 F1200
G1 X116.652 Y90.090 E82.04034 F1200
G0 X117.075 Y90.425 F7200
G1 X117.592 Y89.772 E82.07770 F1200
G1 X118.091 Y89.259 E82.10980 F1200
G1 X118.725 Y88.720 E82.14716 F1200
G1 X119.304 Y88.319 E82.17877 F1200
G1 X119.933 Y87.963 E82.21119 F1200
G1 X120.703 Y87.625 E82.24891 F1200
G1 X121.510 Y87.367 E82.28694 F1200
G1 X122.334 Y87.199 E82.32466 F1200
G1 X123.125 Y87.119 E82.36035 F1200
G1 X123.455 Y87.110 E82.37517 F1200
G1 X135.610 E82.92094 F1200
G1 X135.628 Y64.501 E83.93611 F1200
G1 X135.703 Y63.800 E83.96777 F1200
G1 X135.842 Y63.107 E83.99947 F1200
G1 X136.046 Y62.421 E84.03157 F1200
G1 X136.357 Y61.650 E84.06889 F1200
G1 X136.686 Y61.025 E84.10059 F1200
G1 X137.075 Y60.425 E84.13269 F1200
G1 X137.592 Y59.772 E84.17005 F1200
G1 X138.091 Y59.259 E84.20215 F1200
G1 X138.725 Y58.720 E84.23951 F1200
G1 X139.304 Y58.319 E84.27112 F1200
G1 X139.933 Y57.963 E84.30354 F1200
G1 X140.703 Y57.625 E84.34126 F1200
G1 X141.510 Y57.367 E84.37929 F1200
G1 X142.337 Y57.199 E84.41714 F1200
G1 X143.170 Y57.119 E84.45468 F1200
G1 X153.724 Y57.114 E84.92857 F1200
G1 X154.560 Y57.183 E84.96619 F1200
G1 X155.271 Y57.313 E84.99861 F1200
G1 X156.079 Y57.546 E85.03633 F1200
G1 X156.850 Y57.857 E85.07364 F1200
G1 X157.475 Y58.186 E85.10534 F1200
G1 X158.075 Y58.575 E85.13745 F1200
G1 X158.728 Y59.092 E85.17480 F1200
G1 X159.241 Y59.591 E85.20691 F1200
G1 X159.780 Y60.225 E85.24427 F1200
G1 X160.181 Y60.804 E85.27588 F1200
G1 X160.537 Y61.433 E85.30830 F1200
G1 X160.875 Y62.203 E85.34601 F1200
G1 X161.133 Y63.010 E85.38404 F1200
G1 X161.301 Y63.834 E85.42176 F1200
G1 X161.381 Y64.625 E85.45746 F1200
G1 X161.390 Y64.955 E85.47227 F1200
G1 Y87.111 E86.46710 F1200
G1 X173.999 Y87.128 E87.03326 F1200
G1 X174.700 Y87.203 E87.06492 F1200
G1 X175.393 Y87.342 E87.09662 F1200
G1 X176.079 Y87.546 E87.12872 F1200
G1 X176.850 Y87.857 E87.16604 F1200
G1 X177.475 Y88.186 E87.19774 F1200
G1 X178.075 Y88.575 E87.22984 F1200
G1 X178.728 Y89.092 E87.26720 F1200
G1 X179.241 Y89.591 E87.29930 F1200
G1 X179.780 Y90.225 E87.33666 F1200
G1 X180.181 Y90.804 E87.36827 F1200
G1 X180.537 Y91.433 E87.40069 F1200
G1 X180.875 Y92.203 E87.43841 F1200
G1 X181.133 Y93.010 E87.47644 F1200
G1 X181.301 Y93.834 E87.51416 F1200
G1 X181.381 Y94.627 E87.54994 F1200
G1 X181.390 Y95 E87.56669 F1200
G1 X181.372 Y115.499 E88.48712 F1200
G1 X181.297 Y116.200 E88.51877 F1200
G1 X181.158 Y116.893 E88.55047 F1200
G1 X180.954 Y117.579 E88.58258 F1200
G1 X180.643 Y118.350 E88.61989 F1200
G1 X180.314 Y118.975 E88.65159 F1200
G1 X179.925 Y119.575 E88.68370 F1200
G1 X179.408 Y120.228 E88.72105 F1200
G1 X178.909 Y120.741 E88.75316 F1200
G1 X178.275 Y121.280 E88.79052 F1200
G1 X177.696 Y121.681 E88.82213 F1200
G1 X177.067 Y122.037 E88.85455 F1200
G1 X176.297 Y122.375 E88.89226 F1200
G1 X175.490 Y122.633 E88.93029 F1200
G1 X174.666 Y122.801 E88.96801 F1200
G1 X173.875 Y122.881 E89.00371 F1200
G1 X173.545 Y122.890 E89.01852 F1200
G1 X161.390 E89.56430 F1200
G1 X161.372 Y145.499 E90.57947 F1200
G1 X161.297 Y146.200 E90.61112 F1200
G1 X161.158 Y146.893 E90.64282 F1200
G1 X160.954 Y147.579 E90.67493 F1200
G1 X160.643 Y148.350 E90.71224 F1200
G1 X160.314 Y148.975 E90.74394 F1200
G1 X159.925 Y149.575 E90.77605 F1200
G1 X159.408 Y150.228 E90.81340 F1200
G1 X158.909 Y150.741 E90.84551 F1200
G1 X158.275 Y151.280 E90.88287 F1200
G1 X157.696 Y151.681 E90.91448 F1200
G1 X157.067 Y152.037 E90.94690 F1200
G1 X156.297 Y152.375 E90.98461 F1200
G1 X155.490 Y152.633 E91.02264 F1200
G1 X154.666 Y152.801 E91.06036 F1200
G1 X153.872 Y152.881 E91.09619 F1200
G1 X153.498 Y152.890 E91.11299 F1200
G1 X143.001 Y152.872 E91.58431 F1200
G1 X142.300 Y152.797 E91.61597 F1200
G1 X141.607 Y152.658 E91.64767 F1200
G1 X140.921 Y152.454 E91.67977 F1200
G1 X140.150 Y152.143 E91.71709 F1200
G1 X139.525 Y151.814 E91.74879 F1200
G1 X138.925 Y151.425 E91.78089 F1200
G1 X138.272 Y150.908 E91.81825 F1200
G1 X137.759 Y150.409 E91.85035 F1200
G1 X137.220 Y149.775 E91.88771 F1200
G1 X136.819 Y149.196 E91.91932 F1200
G1 X136.463 Y148.567 E91.95174 F1200
G1 X136.125 Y147.797 E91.98946 F1200
G1 X135.867 Y146.990 E92.02749 F1200
G1 X135.699 Y146.166 E92.06520 F1200
G1 X135.619 Y145.375 E92.10090 F1200
G1 X135.610 Y145.045 E92.11572 F1200
G1 Y122.889 E93.11055 F1200
G1 X123.001 Y122.872 E93.67671 F1200
G1 X122.300 Y122.797 E93.70836 F1200
G1 X121.607 Y122.658 E93.74006 F1200
G1 X120.921 Y122.454 E93.77217 F1200
G1 X120.150 Y122.143 E93.80948 F1200
G1 X119.525 Y121.814 E93.84118 F1200
G1 X118.925 Y121.425 E93.87329 F1200
G1 X118.272 Y120.908 E93.91064 F1200
G1 X117.759 Y120.409 E93.94275 F1200
G1 X117.220 Y119.775 E93.98011 F1200
G1 X116.819 Y119.196 E94.01172 F1200
G1 X116.463 Y118.567 E94.04413 F1200
G1 X116.125 Y117.797 E94.08185 F1200
G1 X115.867 Y116.990 E94.11988 F1200
G1 X115.699 Y116.166 E94.15760 F1200
G1 X115.619 Y115.373 E94.19339 F1200
G1 X115.610 Y115 E94.21013 F1200
G1 X115.628 Y94.501 E95.13056 F1200
G1 X115.703 Y93.800 E95.16222 F1200
G1 X115.842 Y93.107 E95.19392 F1200
G1 X116.046 Y92.421 E95.22602 F1200
G1 X116.357 Y91.650 E95.26334 F1200
G1 X116.686 Y91.025 E95.29504 F1200
G1 X117.075 Y90.425 E95.32714 F1200
G0 X117.499 Y90.759 F7200
G1 X117.981 Y90.147 E95.36212 F1200
G1 X118.442 Y89.669 E95.39193 F1200
G1 X119.034 Y89.163 E95.42687 F1200
G1 X119.572 Y88.788 E95.45628 F1200
G1 X120.152 Y88.457 E95.48623 F1200
G1 X120.869 Y88.139 E95.52143 F1200
G1 X121.620 Y87.896 E95.55686 F1200
G1 X122.389 Y87.736 E95.59210 F1200
G1 X123.140 Y87.659 E95.62596 F1200
G1 X123.470 Y87.650 E95.64078 F1200
G1 X136.150 E96.21012 F1200
G1 X136.165 Y64.557 E97.24703 F1200
G1 X136.233 Y63.904 E97.27648 F1200
G1 X136.360 Y63.259 E97.30598 F1200
G1 X136.547 Y62.622 E97.33575 F1200
G1 X136.836 Y61.900 E97.37064 F1200
G1 X137.140 Y61.317 E97.40014 F1200
G1 X137.499 Y60.759 E97.42991 F1200
G1 X137.981 Y60.147 E97.46489 F1200
G1 X138.442 Y59.669 E97.49470 F1200
G1 X139.034 Y59.163 E97.52963 F1200
G1 X139.572 Y58.788 E97.55904 F1200
G1 X140.152 Y58.457 E97.58899 F1200
G1 X140.869 Y58.139 E97.62420 F1200
G1 X141.620 Y57.896 E97.65962 F1200
G1 X142.390 Y57.736 E97.69491 F1200
G1 X143.170 Y57.659 E97.73007 F1200
G1 X153.724 Y57.654 E98.20396 F1200
G1 X154.465 Y57.715 E98.23732 F1200
G1 X155.123 Y57.832 E98.26732 F1200
G1 X155.878 Y58.047 E98.30256 F1200
G1 X156.600 Y58.336 E98.33745 F1200
G1 X157.183 Y58.640 E98.36695 F1200
G1 X157.741 Y58.999 E98.39672 F1200
G1 X158.353 Y59.481 E98.43170 F1200
G1 X158.831 Y59.942 E98.46151 F1200
G1 X159.337 Y60.534 E98.49645 F1200
G1 X159.712 Y61.072 E98.52586 F1200
G1 X160.043 Y61.652 E98.55581 F1200
G1 X160.361 Y62.369 E98.59101 F1200
G1 X160.604 Y63.120 E98.62643 F1200
G1 X160.764 Y63.889 E98.66168 F1200
G1 X160.841 Y64.640 E98.69554 F1200
G1 X160.850 Y64.970 E98.71036 F1200
G1 Y87.650 E99.72871 F1200
G1 X173.943 Y87.665 E100.31661 F1200
G1 X174.596 Y87.733 E100.34606 F1200
G1 X175.241 Y87.860 E100.37556 F1200
G1 X175.878 Y88.047 E100.40533 F1200
G1 X176.600 Y88.336 E100.44022 F1200
G1 X177.183 Y88.640 E100.46972 F1200
G1 X177.741 Y88.999 E100.49949 F1200
G1 X178.353 Y89.481 E100.53447 F1200
G1 X178.831 Y89.942 E100.56428 F1200
G1 X179.337 Y90.534 E100.59921 F1200
G1 X179.712 Y91.072 E100.62862 F1200
G1 X180.043 Y91.652 E100.65857 F1200
G1 X180.361 Y92.369 E100.69378 F1200
G1 X180.604 Y93.120 E100.72920 F1200
G1 X180.764 Y93.889 E100.76445 F1200
G1 X180.841 Y94.641 E100.79835 F1200
G1 X180.850 Y95 E100.81447 F1200
G1 X180.835 Y115.443 E101.73238 F1200
G1 X180.767 Y116.096 E101.76184 F1200
G1 X180.640 Y116.741 E101.79134 F1200
G1 X180.453 Y117.378 E101.82111 F1200
G1 X180.164 Y118.100 E101.85600 F1200
G1 X179.860 Y118.683 E101.88550 F1200
G1 X179.501 Y119.241 E101.91527 F1200
G1 X179.019 Y119.853 E101.95024 F1200
G1 X178.558 Y120.331 E101.98006 F1200
G1 X177.966 Y120.837 E102.01499 F1200
G1 X177.428 Y121.212 E102.04440 F1200
G1 X176.848 Y121.543 E102.07435 F1200
G1 X176.131 Y121.861 E102.10955 F1200
G1 X175.380 Y122.104 E102.14498 F1200
G1 X174.611 Y122.264 E102.18023 F1200
G1 X173.860 Y122.341 E102.21408 F1200
G1 X173.530 Y122.350 E102.22890 F1200
G1 X160.850 E102.79825 F1200
G1 X160.835 Y145.443 E103.83515 F1200
G1 X160.767 Y146.096 E103.86461 F1200
G1 X160.640 Y146.741 E103.89411 F1200
G1 X160.453 Y147.378 E103.92388 F1200
G1 X160.164 Y148.100 E103.95876 F1200
G1 X159.860 Y148.683 E103.98826 F1200
G1 X159.501 Y149.241 E104.01803 F1200
G1 X159.019 Y149.853 E104.05301 F1200
G1 X158.558 Y150.331 E104.08283 F1200
G1 X157.966 Y150.837 E104.11776 F1200
G1 X157.428 Y151.212 E104.14717 F1200
G1 X156.848 Y151.543 E104.17712 F1200
G1 X156.131 Y151.861 E104.21232 F1200
G1 X155.380 Y152.104 E104.24775 F1200
G1 X154.611 Y152.264 E104.28300 F1200
G1 X153.859 Y152.341 E104.31690 F1200
G1 X153.499 Y152.350 E104.33306 F1200
G1 X143.057 Y152.335 E104.80192 F1200
G1 X142.404 Y152.267 E104.83137 F1200
G1 X141.759 Y152.140 E104.86087 F1200
G1 X141.122 Y151.953 E104.89064 F1200
G1 X140.400 Y151.664 E104.92553 F1200
G1 X139.817 Y151.360 E104.95503 F1200
G1 X139.259 Y151.001 E104.98480 F1200
G1 X138.647 Y150.519 E105.01978 F1200
G1 X138.169 Y150.058 E105.04959 F1200
G1 X137.663 Y149.466 E105.08453 F1200
G1 X137.288 Y148.928 E105.11394 F1200
G1 X136.957 Y148.348 E105.14389 F1200
G1 X136.639 Y147.631 E105.17909 F1200
G1 X136.396 Y146.880 E105.21452 F1200
G1 X136.236 Y146.111 E105.24976 F1200
G1 X136.159 Y145.360 E105.28362 F1200
G1 X136.150 Y145.030 E105.29844 F1200
G1 Y122.350 E106.31679 F1200
G1 X123.057 Y122.335 E106.90469 F1200
G1 X122.404 Y122.267 E106.93414 F1200
G1 X121.759 Y122.140 E106.96364 F1200
G1 X121.122 Y121.953 E106.99341 F1200
G1 X120.400 Y121.664 E107.02830 F1200
G1 X119.817 Y121.360 E107.05780 F1200
G1 X119.259 Y121.001 E107.08757 F1200
G1 X118.647 Y120.519 E107.12255 F1200
G1 X118.169 Y120.058 E107.15236 F1200
G1 X117.663 Y119.466 E107.18729 F1200
G1 X117.288 Y118.928 E107.21670 F1200
G1 X116.957 Y118.348 E107.24665 F1200
G1 X116.639 Y117.631 E107.28186 F1200
G1 X116.396 Y116.880 E107.31728 F1200
G1 X116.236 Y116.111 E107.35253 F1200
G1 X116.159 Y115.359 E107.38643 F1200
G1 X116.150 Y115 E107.40255 F1200
G1 X116.165 Y94.557 E108.32047 F1200
G1 X116.233 Y93.904 E108.34992 F1200
G1 X116.360 Y93.259 E108.37942 F1200
G1 X116.547 Y92.622 E108.40919 F1200
G1 X116.836 Y91.900 E108.44408 F1200
G1 X117.140 Y91.317 E108.47358 F1200
G1 X117.499 Y90.759 E108.50335 F1200
G0 X117.925 Y91.091 F7200
G1 X118.371 Y90.520 E108.53586 F1200
G1 X118.794 Y90.078 E108.56329 F1200
G1 X119.344 Y89.605 E108.59584 F1200
G1 X119.842 Y89.256 E108.62314 F1200
G1 X120.373 Y88.950 E108.65062 F1200
G1 X121.038 Y88.652 E108.68331 F1200
G1 X121.732 Y88.424 E108.71609 F1200
G1 X122.445 Y88.273 E108.74878 F1200
G1 X123.155 Y88.199 E108.78079 F1200
G1 X123.485 Y88.190 E108.79561 F1200
G1 X136.690 E109.38853 F1200
G1 X136.702 Y64.611 E110.44725 F1200
G1 X136.763 Y64.007 E110.47451 F1200
G1 X136.879 Y63.409 E110.50185 F1200
G1 X137.049 Y62.821 E110.52933 F1200
G1 X137.316 Y62.148 E110.56184 F1200
G1 X137.595 Y61.608 E110.58910 F1200
G1 X137.925 Y61.091 E110.61662 F1200
G1 X138.371 Y60.520 E110.64913 F1200
G1 X138.794 Y60.078 E110.67657 F1200
G1 X139.344 Y59.605 E110.70912 F1200
G1 X139.842 Y59.256 E110.73642 F1200
G1 X140.373 Y58.950 E110.76390 F1200
G1 X141.038 Y58.652 E110.79659 F1200
G1 X141.732 Y58.424 E110.82936 F1200
G1 X142.445 Y58.273 E110.86205 F1200
G1 X143.170 Y58.199 E110.89474 F1200
G1 X153.724 Y58.194 E111.36863 F1200
G1 X154.373 Y58.247 E111.39786 F1200
G1 X154.977 Y58.352 E111.42538 F1200
G1 X155.679 Y58.549 E111.45812 F1200
G1 X156.352 Y58.816 E111.49062 F1200
G1 X156.892 Y59.095 E111.51788 F1200
G1 X157.409 Y59.425 E111.54540 F1200
G1 X157.980 Y59.871 E111.57791 F1200
G1 X158.422 Y60.294 E111.60535 F1200
G1 X158.895 Y60.844 E111.63790 F1200
G1 X159.244 Y61.342 E111.66520 F1200
G1 X159.550 Y61.873 E111.69268 F1200
G1 X159.848 Y62.538 E111.72537 F1200
G1 X160.076 Y63.232 E111.75814 F1200
G1 X160.227 Y63.945 E111.79083 F1200
G1 X160.301 Y64.655 E111.82285 F1200
G1 X160.310 Y64.985 E111.83766 F1200
G1 Y88.190 E112.87960 F1200
G1 X173.889 Y88.202 E113.48931 F1200
G1 X174.493 Y88.263 E113.51656 F1200
G1 X175.091 Y88.379 E113.54391 F1200
G1 X175.679 Y88.549 E113.57139 F1200
G1 X176.352 Y88.816 E113.60390 F1200
G1 X176.892 Y89.095 E113.63115 F1200
G1 X177.409 Y89.425 E113.65868 F1200
G1 X177.980 Y89.871 E113.69119 F1200
G1 X178.422 Y90.294 E113.71862 F1200
G1 X178.895 Y90.844 E113.75117 F1200
G1 X179.244 Y91.342 E113.77847 F1200
G1 X179.550 Y91.873 E113.80595 F1200
G1 X179.848 Y92.538 E113.83864 F1200
G1 X180.076 Y93.232 E113.87142 F1200
G1 X180.227 Y93.945 E113.90411 F1200
G1 X180.301 Y94.655 E113.93612 F1200
G1 X180.310 Y95 E113.95161 F1200
G1 X180.298 Y115.389 E114.86710 F1200
G1 X180.237 Y115.993 E114.89436 F1200
G1 X180.121 Y116.591 E114.92170 F1200
G1 X179.951 Y117.179 E114.94918 F1200
G1 X179.684 Y117.852 E114.98169 F1200
G1 X179.405 Y118.392 E115.00895 F1200
G1 X179.075 Y118.909 E115.03647 F1200
G1 X178.629 Y119.480 E115.06898 F1200
G1 X178.206 Y119.922 E115.09641 F1200
G1 X177.656 Y120.395 E115.12897 F1200
G1 X177.158 Y120.744 E115.15627 F1200
G1 X176.627 Y121.050 E115.18375 F1200
G1 X175.962 Y121.348 E115.21643 F1200
G1 X175.268 Y121.576 E115.24921 F1200
G1 X174.555 Y121.727 E115.28190 F1200
G1 X173.845 Y121.801 E115.31391 F1200
G1 X173.515 Y121.810 E115.32873 F1200
G1 X160.310 E115.92165 F1200
G1 X160.298 Y145.389 E116.98038 F1200
G1 X160.237 Y145.993 E117.00763 F1200
G1 X160.121 Y146.591 E117.03498 F1200
G1 X159.951 Y147.179 E117.06246 F1200
G1 X159.684 Y147.852 E117.09496 F1200
G1 X159.405 Y148.392 E117.12222 F1200
G1 X159.075 Y148.909 E117.14974 F1200
G1 X158.629 Y149.480 E117.18225 F1200
G1 X158.206 Y149.922 E117.20969 F1200
G1 X157.656 Y150.395 E117.24224 F1200
G1 X157.158 Y150.744 E117.26954 F1200
G1 X156.627 Y151.050 E117.29702 F1200
G1 X155.962 Y151.348 E117.32971 F1200
G1 X155.268 Y151.576 E117.36249 F1200
G1 X154.555 Y151.727 E117.39517 F1200
G1 X153.845 Y151.801 E117.42719 F1200
G1 X153.500 Y151.810 E117.44268 F1200
G1 X143.111 Y151.798 E117.90916 F1200
G1 X142.507 Y151.737 E117.93641 F1200
G1 X141.909 Y151.621 E117.96376 F1200
G1 X141.321 Y151.451 E117.99124 F1200
G1 X140.648 Y151.184 E118.02375 F1200
G1 X140.108 Y150.905 E118.05100 F1200
G1 X139.591 Y150.575 E118.07852 F1200
G1 X139.020 Y150.129 E118.11103 F1200
G1 X138.578 Y149.706 E118.13847 F1200
G1 X138.105 Y149.156 E118.17102 F1200
G1 X137.756 Y148.658 E118.19832 F1200
G1 X137.450 Y148.127 E118.22580 F1200
G1 X137.152 Y147.462 E118.25849 F1200
G1 X136.924 Y146.768 E118.29127 F1200
G1 X136.773 Y146.055 E118.32395 F1200
G1 X136.699 Y145.345 E118.35597 F1200
G1 X136.690 Y145.015 E118.37079 F1200
G1 Y121.810 E119.41272 F1200
G1 X123.111 Y121.798 E120.02243 F1200
G1 X122.507 Y121.737 E120.04969 F1200
G1 X121.909 Y121.621 E120.07703 F1200
G1 X121.321 Y121.451 E120.10451 F1200
G1 X120.648 Y121.184 E120.13702 F1200
G1 X120.108 Y120.905 E120.16427 F1200
G1 X119.591 Y120.575 E120.19180 F1200
G1 X119.020 Y120.129 E120.22431 F1200
G1 X118.578 Y119.706 E120.25174 F1200
G1 X118.105 Y119.156 E120.28430 F1200
G1 X117.756 Y118.658 E120.31160 F1200
G1 X117.450 Y118.127 E120.33907 F1200
G1 X117.152 Y117.462 E120.37176 F1200
G1 X116.924 Y116.768 E120.40454 F1200
G1 X116.773 Y116.055 E120.43723 F1200
G1 X116.699 Y115.345 E120.46924 F1200
G1 X116.690 Y115 E120.48473 F1200
G1 X116.702 Y94.611 E121.40022 F1200
G1 X116.763 Y94.007 E121.42748 F1200
G1 X116.879 Y93.409 E121.45482 F1200
G1 X117.049 Y92.821 E121.48230 F1200
G1 X117.316 Y92.148 E121.51481 F1200
G1 X117.595 Y91.608 E121.54207 F1200
G1 X117.925 Y91.091 E121.56959 F1200
G0 X118.351 Y91.422 F7200
G1 X118.763 Y90.892 E121.59972 F1200
G1 X119.148 Y90.486 E121.62482 F1200
G1 X119.656 Y90.046 E121.65499 F1200
G1 X120.113 Y89.723 E121.68009 F1200
G1 X120.597 Y89.442 E121.70519 F1200
G1 X121.208 Y89.164 E121.73532 F1200
G1 X121.846 Y88.952 E121.76550 F1200
G1 X122.502 Y88.810 E121.79562 F1200
G1 X123.170 Y88.739 E121.82575 F1200
G1 X123.500 Y88.730 E121.84057 F1200
G1 X137.230 E122.45706 F1200
G1 X137.239 Y64.664 E123.53766 F1200
G1 X137.294 Y64.107 E123.56276 F1200
G1 X137.398 Y63.557 E123.58786 F1200
G1 X137.551 Y63.019 E123.61295 F1200
G1 X137.797 Y62.394 E123.64308 F1200
G1 X138.052 Y61.896 E123.66818 F1200
G1 X138.351 Y61.422 E123.69333 F1200
G1 X138.763 Y60.892 E123.72346 F1200
G1 X139.148 Y60.486 E123.74856 F1200
G1 X139.656 Y60.046 E123.77873 F1200
G1 X140.113 Y59.723 E123.80383 F1200
G1 X140.597 Y59.442 E123.82893 F1200
G1 X141.208 Y59.164 E123.85906 F1200
G1 X141.846 Y58.952 E123.88923 F1200
G1 X142.502 Y58.810 E123.91936 F1200
G1 X143.170 Y58.739 E123.94949 F1200
G1 X153.724 Y58.734 E124.42338 F1200
G1 X154.282 Y58.779 E124.44848 F1200
G1 X154.834 Y58.873 E124.47358 F1200
G1 X155.481 Y59.051 E124.50370 F1200
G1 X156.106 Y59.297 E124.53383 F1200
G1 X156.604 Y59.552 E124.55893 F1200
G1 X157.078 Y59.851 E124.58408 F1200
G1 X157.608 Y60.263 E124.61421 F1200
G1 X158.014 Y60.648 E124.63931 F1200
G1 X158.454 Y61.156 E124.66948 F1200
G1 X158.777 Y61.613 E124.69458 F1200
G1 X159.058 Y62.097 E124.71968 F1200
G1 X159.336 Y62.708 E124.74981 F1200
G1 X159.548 Y63.346 E124.77998 F1200
G1 X159.690 Y64.002 E124.81011 F1200
G1 X159.761 Y64.670 E124.84024 F1200
G1 X159.770 Y65 E124.85506 F1200
G1 Y88.730 E125.92056 F1200
G1 X173.836 Y88.739 E126.55214 F1200
G1 X174.393 Y88.794 E126.57724 F1200
G1 X174.943 Y88.898 E126.60234 F1200
G1 X175.481 Y89.051 E126.62744 F1200
G1 X176.106 Y89.297 E126.65757 F1200
G1 X176.604 Y89.552 E126.68267 F1200
G1 X177.078 Y89.851 E126.70781 F1200
G1 X177.608 Y90.263 E126.73794 F1200
G1 X178.014 Y90.648 E126.76304 F1200
G1 X178.454 Y91.156 E126.79322 F1200
G1 X178.777 Y91.613 E126.81832 F1200
G1 X179.058 Y92.097 E126.84342 F1200
G1 X179.336 Y92.708 E126.87354 F1200
G1 X179.548 Y93.346 E126.90372 F1200
G1 X179.690 Y94.002 E126.93385 F1200
G1 X179.761 Y94.670 E126.96398 F1200
G1 X179.770 Y95 E126.97879 F1200
G1 X179.761 Y115.336 E127.89190 F1200
G1 X179.706 Y115.893 E127.91700 F1200
G1 X179.602 Y116.443 E127.94210 F1200
G1 X179.449 Y116.981 E127.96720 F1200
G1 X179.203 Y117.606 E127.99733 F1200
G1 X178.948 Y118.104 E128.02243 F1200
G1 X178.649 Y118.578 E128.04758 F1200
G1 X178.237 Y119.108 E128.07770 F1200
G1 X177.852 Y119.514 E128.10280 F1200
G1 X177.344 Y119.954 E128.13298 F1200
G1 X176.887 Y120.277 E128.15808 F1200
G1 X176.403 Y120.558 E128.18318 F1200
G1 X175.792 Y120.836 E128.21331 F1200
G1 X175.154 Y121.048 E128.24348 F1200
G1 X174.498 Y121.190 E128.27361 F1200
G1 X173.830 Y121.261 E128.30374 F1200
G1 X173.500 Y121.270 E128.31855 F1200
G1 X159.770 E128.93505 F1200
G1 X159.761 Y145.336 E130.01564 F1200
G1 X159.706 Y145.893 E130.04074 F1200
G1 X159.602 Y146.443 E130.06584 F1200
G1 X159.449 Y146.981 E130.09094 F1200
G1 X159.203 Y147.606 E130.12107 F1200
G1 X158.948 Y148.104 E130.14617 F1200
G1 X158.649 Y148.578 E130.17131 F1200
G1 X158.237 Y149.108 E130.20144 F1200
G1 X157.852 Y149.514 E130.22654 F1200
G1 X157.344 Y149.954 E130.25671 F1200
G1 X156.887 Y150.277 E130.28181 F1200
G1 X156.403 Y150.558 E130.30691 F1200
G1 X155.792 Y150.836 E130.33704 F1200
G1 X155.154 Y151.048 E130.36722 F1200
G1 X154.498 Y151.190 E130.39734 F1200
G1 X153.830 Y151.261 E130.42747 F1200
G1 X153.500 Y151.270 E130.44229 F1200
G1 X143.164 Y151.261 E130.90639 F1200
G1 X142.607 Y151.206 E130.93149 F1200
G1 X142.057 Y151.102 E130.95659 F1200
G1 X141.519 Y150.949 E130.98169 F1200
G1 X140.894 Y150.703 E131.01182 F1200
G1 X140.396 Y150.448 E131.03692 F1200
G1 X139.922 Y150.149 E131.06206 F1200
G1 X139.392 Y149.737 E131.09219 F1200
G1 X138.986 Y149.352 E131.11729 F1200
G1 X138.546 Y148.844 E131.14746 F1200
G1 X138.223 Y148.387 E131.17256 F1200
G1 X137.942 Y147.903 E131.19766 F1200
G1 X137.664 Y147.292 E131.22779 F1200
G1 X137.452 Y146.654 E131.25796 F1200
G1 X137.310 Y145.998 E131.28809 F1200
G1 X137.239 Y145.330 E131.31822 F1200
G1 X137.230 Y145 E131.33304 F1200
G1 Y121.270 E132.39854 F1200
G1 X123.164 Y121.261 E133.03012 F1200
G1 X122.607 Y121.206 E133.05522 F1200
G1 X122.057 Y121.102 E133.08032 F1200
G1 X121.519 Y120.949 E133.10542 F1200
G1 X120.894 Y120.703 E133.13555 F1200
G1 X120.396 Y120.448 E133.16065 F1200
G1 X119.922 Y120.149 E133.18580 F1200
G1 X119.392 Y119.737 E133.21593 F1200
G1 X118.986 Y119.352 E133.24103 F1200
G1 X118.546 Y118.844 E133.27120 F1200
G1 X118.223 Y118.387 E133.29630 F1200
G1 X117.942 Y117.903 E133.32140 F1200
G1 X117.664 Y117.292 E133.35153 F1200
G1 X117.452 Y116.654 E133.38170 F1200
G1 X117.310 Y115.998 E133.41183 F1200
G1 X117.239 Y115.330 E133.44196 F1200
G1 X117.230 Y115 E133.45678 F1200
G1 X117.239 Y94.664 E134.36989 F1200
G1 X117.294 Y94.107 E134.39499 F1200
G1 X117.398 Y93.557 E134.42009 F1200
G1 X117.551 Y93.019 E134.44519 F1200
G1 X117.797 Y92.394 E134.47531 F1200
G1 X118.052 Y91.896 E134.50041 F1200
G1 X118.351 Y91.422 E134.52556 F1200
; Inset XP 
G1 F1500 E128.02556 ; Retract
G0 X142.500 Y93.463 F7200
G0 X144.080 Y93.597 F7200
G0 Y65.580 F7200
G0 X152.920 F7200
G0 Y95.580 F7200
G0 X167.532 F7200
G0 X172.500 Y96 F7200
G1 F1500 E134.52556
G1 Y114 E135.12424 F1200
G1 X152.923 Y114.027 E135.77537 F1200
G1 X152.807 Y114.085 E135.77967 F1200
G1 X152.623 Y114.236 E135.78758 F1200
G1 X152.566 Y114.344 E135.79164 F1200
G1 X152.500 Y114.586 E135.79995 F1200
G1 Y144 E136.77827 F1200
G1 X144.500 E137.04435 F1200
G1 X144.473 Y114.423 E138.02808 F1200
G1 X144.415 Y114.307 E138.03237 F1200
G1 X144.264 Y114.123 E138.04029 F1200
G1 X144.156 Y114.066 E138.04435 F1200
G1 X143.914 Y114 E138.05266 F1200
G1 X124.500 E138.69838 F1200
G1 Y96 E139.29706 F1200
G1 X144.077 Y95.973 E139.94819 F1200
G1 X144.193 Y95.915 E139.95248 F1200
G1 X144.377 Y95.764 E139.96040 F1200
G1 X144.434 Y95.656 E139.96446 F1200
G1 X144.500 Y95.414 E139.97277 F1200
G1 Y66 E140.95108 F1200
G1 X152.500 E141.21717 F1200
G1 X152.527 Y95.577 E142.20090 F1200
G1 X152.585 Y95.693 E142.20519 F1200
G1 X152.736 Y95.877 E142.21311 F1200
G1 X152.844 Y95.934 E142.21716 F1200
G1 X153.086 Y96 E142.22548 F1200
G1 X172.500 E142.87119 F1200
G0 X172.900 Y95.600 F7200
G1 Y114.400 E143.49648 F1200
G1 X153.041 Y114.409 E144.15700 F1200
G1 X152.943 Y114.476 E144.16092 F1200
G1 X152.900 Y114.586 E144.16484 F1200
G1 Y144.400 E145.15646 F1200
G1 X144.100 E145.44915 F1200
G1 X144.091 Y114.541 E146.44227 F1200
G1 X144.024 Y114.443 E146.44619 F1200
G1 X143.914 Y114.400 E146.45012 F1200
G1 X124.100 E147.10913 F1200
G1 Y95.600 E147.73442 F1200
G1 X143.959 Y95.591 E148.39494 F1200
G1 X144.057 Y95.524 E148.39886 F1200
G1 X144.100 Y95.414 E148.40278 F1200
G1 Y65.600 E149.39440 F1200
G1 X152.900 E149.68709 F1200
G1 X152.909 Y95.459 E150.68021 F1200
G1 X152.976 Y95.557 E150.68413 F1200
G1 X153.086 Y95.600 E150.68806 F1200
G1 X172.900 E151.34707 F1200
; Inset 0 
G1 F1500 E144.84707 ; Retract
G0 X152.735 Y95.765 F7200
G1 F1500 E151.34707
G0 X153.300 Y95.200 F7200
G1 X173.300 E152.01227 F1200
G1 Y114.800 E152.66417 F1200
G1 X153.300 E153.32938 F1200
G1 Y144.800 E154.32718 F1200
G1 X143.700 E154.64648 F1200
G1 Y114.800 E155.64428 F1200
G1 X123.700 E156.30948 F1200
G1 Y95.200 E156.96138 F1200
G1 X143.700 E157.62659 F1200
G1 Y65.200 E158.62439 F1200
G1 X153.300 E158.94369 F1200
G1 Y95.200 E159.94149 F1200
; Solid infill 
G0 X152.395 Y95.199 F7200
G1 X144.640 E160.19942 F1200
G0 Y94.799 F7200
G1 X152.395 E160.45736 F1200
G0 Y94.399 F7200
G1 X144.640 E160.71529 F1200
G0 Y93.999 F7200
G1 X152.394 E160.97319 F1200
G0 Y93.599 F7200
G1 X144.641 E161.23105 F1200
G0 Y93.199 F7200
G1 X152.393 E161.48888 F1200
G0 Y92.799 F7200
G1 X144.641 E161.74672 F1200
G0 Y92.399 F7200
G1 X152.392 E162.00452 F1200
G0 Y91.999 F7200
G1 X144.641 E162.26232 F1200
G0 Y91.599 F7200
G1 X152.391 E162.52008 F1200
G0 Y91.199 F7200
G1 X144.641 E162.77785 F1200
G0 Y90.799 F7200
G1 X152.390 E163.03558 F1200
G0 Y90.399 F7200
G1 X144.642 E163.29328 F1200
G0 Y89.999 F7200
G1 X152.389 E163.55095 F1200
G0 Y89.599 F7200
G1 X144.642 E163.80861 F1200
G0 Y89.199 F7200
G1 X152.388 E164.06625 F1200
G0 Y88.799 F7200
G1 X144.642 E164.32388 F1200
G0 Y88.399 F7200
G1 X152.387 E164.58148 F1200
G0 Y87.999 F7200
G1 X144.642 E164.83908 F1200
G0 Y87.599 F7200
G1 X152.386 E165.09665 F1200
G0 Y87.199 F7200
G1 X144.643 E165.35418 F1200
G0 Y86.799 F7200
G1 X152.385 E165.61168 F1200
G0 Y86.399 F7200
G1 X144.643 E165.86918 F1200
G0 Y85.999 F7200
G1 X152.384 E166.12664 F1200
G0 Y85.599 F7200
G1 X144.643 E166.38411 F1200
G0 Y85.199 F7200
G1 X152.383 E166.64155 F1200
G0 Y84.799 F7200
G1 X144.643 E166.89898 F1200
G0 Y84.399 F7200
G1 X152.382 E167.15638 F1200
G0 Y83.999 F7200
G1 X144.644 E167.41375 F1200
G0 Y83.599 F7200
G1 X152.381 E167.67108 F1200
G0 Y83.199 F7200
G1 X144.644 E167.92841 F1200
G0 Y82.799 F7200
G1 X152.380 E168.18571 F1200
G0 Y82.399 F7200
G1 X144.644 E168.44301 F1200
G0 Y81.999 F7200
G1 X152.379 E168.70028 F1200
G0 Y81.599 F7200
G1 X144.644 E168.95755 F1200
G0 Y81.199 F7200
G1 X152.378 E169.21478 F1200
G0 Y80.799 F7200
G1 X144.644 E169.47202 F1200
G0 X144.645 Y80.399 F7200
G1 X152.377 E169.72918 F1200
G0 Y79.999 F7200
G1 X144.645 E169.98635 F1200
G0 Y79.599 F7200
G1 X152.376 E170.24348 F1200
G0 Y79.199 F7200
G1 X144.645 E170.50062 F1200
G0 Y78.799 F7200
G1 X152.375 E170.75772 F1200
G0 Y78.399 F7200
G1 X144.645 E171.01482 F1200
G0 Y77.999 F7200
G1 X152.374 E171.27189 F1200
G0 Y77.599 F7200
G1 X144.645 E171.52896 F1200
G0 X144.646 Y77.199 F7200
G1 X152.373 E171.78596 F1200
G0 Y76.799 F7200
G1 X144.646 E172.04296 F1200
G0 Y76.399 F7200
G1 X152.372 E172.29993 F1200
G0 Y75.999 F7200
G1 X144.646 E172.55689 F1200
G0 Y75.599 F7200
G1 X152.372 E172.81386 F1200
G0 X152.371 Y75.199 F7200
G1 X144.646 E173.07080 F1200
G0 Y74.799 F7200
G1 X152.371 E173.32773 F1200
G0 X152.370 Y74.399 F7200
G1 X144.646 E173.58463 F1200
G0 X144.647 Y73.999 F7200
G1 X152.370 E173.84150 F1200
G0 X152.369 Y73.599 F7200
G1 X144.647 E174.09833 F1200
G0 Y73.199 F7200
G1 X152.369 E174.35517 F1200
G0 X152.368 Y72.799 F7200
G1 X144.647 E174.61197 F1200
G0 Y72.399 F7200
G1 X152.368 E174.86877 F1200
G0 X152.367 Y71.999 F7200
G1 X144.647 E175.12554 F1200
G0 Y71.599 F7200
G1 X152.367 E175.38231 F1200
G0 X152.366 Y71.199 F7200
G1 X144.647 E175.63904 F1200
G0 X144.648 Y70.799 F7200
G1 X152.366 E175.89575 F1200
G0 X152.365 Y70.399 F7200
G1 X144.648 E176.15241 F1200
G0 Y69.999 F7200
G1 X152.365 E176.40908 F1200
G0 X152.364 Y69.599 F7200
G1 X144.648 E176.66572 F1200
G0 Y69.199 F7200
G1 X152.364 E176.92235 F1200
G0 X152.363 Y68.799 F7200
G1 X144.648 E177.17895 F1200
G0 Y68.399 F7200
G1 X152.363 E177.43556 F1200
G0 X152.362 Y67.999 F7200
G1 X144.648 E177.69213 F1200
G0 X144.649 Y67.599 F7200
G1 X152.362 E177.94866 F1200
G0 X152.361 Y67.199 F7200
G1 X144.649 E178.20516 F1200
G0 Y66.799 F7200
G1 X152.361 E178.46166 F1200
G0 X152.360 Y66.399 F7200
G1 X144.649 E178.71813 F1200
G1 F1500 E172.21813 ; Retract
G0 X144.575 Y95.599 F7200
G1 F1500 E178.71813
G1 X152.396 E178.97826 F1200
G0 X152.685 Y95.999 F7200
G1 X144.308 E179.25688 F1200
G0 X144.315 Y113.999 F7200
G1 X152.692 E179.53550 F1200
G0 X152.425 Y114.399 F7200
G1 X144.604 E179.79563 F1200
G0 X144.605 Y114.799 F7200
G1 X152.360 E180.05356 F1200
G0 Y115.199 F7200
G1 X144.605 E180.31149 F1200
G0 Y115.599 F7200
G1 X152.360 E180.56943 F1200
G0 Y115.999 F7200
G1 X144.606 E180.82733 F1200
G0 Y116.399 F7200
G1 X152.359 E181.08519 F1200
G0 Y116.799 F7200
G1 X144.607 E181.34302 F1200
G0 Y117.199 F7200
G1 X152.359 E181.60086 F1200
G0 Y117.599 F7200
G1 X144.608 E181.85866 F1200
G0 Y117.999 F7200
G1 X152.359 E182.11645 F1200
G0 Y118.399 F7200
G1 X144.609 E182.37422 F1200
G0 Y118.799 F7200
G1 X152.359 E182.63199 F1200
G0 Y119.199 F7200
G1 X144.610 E182.88972 F1200
G0 Y119.599 F7200
G1 X152.358 E183.14742 F1200
G0 Y119.999 F7200
G1 X144.611 E183.40509 F1200
G0 Y120.399 F7200
G1 X152.358 E183.66275 F1200
G0 Y120.799 F7200
G1 X144.612 E183.92038 F1200
G0 Y121.199 F7200
G1 X152.358 E184.17802 F1200
G0 Y121.599 F7200
G1 X144.613 E184.43562 F1200
G0 Y121.999 F7200
G1 X152.358 E184.69322 F1200
G0 Y122.399 F7200
G1 X144.614 E184.95078 F1200
G0 Y122.799 F7200
G1 X152.357 E185.20832 F1200
G0 Y123.199 F7200
G1 X144.615 E185.46582 F1200
G0 Y123.599 F7200
G1 X152.357 E185.72332 F1200
G0 Y123.999 F7200
G1 X144.616 E185.98078 F1200
G0 Y124.399 F7200
G1 X152.357 E186.23825 F1200
G0 Y124.799 F7200
G1 X144.617 E186.49568 F1200
G0 Y125.199 F7200
G1 X152.357 E186.75312 F1200
G0 Y125.599 F7200
G1 X144.618 E187.01052 F1200
G0 Y125.999 F7200
G1 X152.356 E187.26788 F1200
G0 Y126.399 F7200
G1 X144.619 E187.52522 F1200
G0 Y126.799 F7200
G1 X152.356 E187.78255 F1200
G0 Y127.199 F7200
G1 X144.620 E188.03985 F1200
G0 Y127.599 F7200
G1 X152.356 E188.29715 F1200
G0 Y127.999 F7200
G1 X144.621 E188.55442 F1200
G0 Y128.399 F7200
G1 X152.356 E188.81169 F1200
G0 Y128.799 F7200
G1 X144.622 E189.06892 F1200
G0 Y129.199 F7200
G1 X152.356 E189.32615 F1200
G0 X152.355 Y129.599 F7200
G1 X144.623 E189.58332 F1200
G0 Y129.999 F7200
G1 X152.355 E189.84049 F1200
G0 Y130.399 F7200
G1 X144.624 E190.09762 F1200
G0 Y130.799 F7200
G1 X152.355 E190.35476 F1200
G0 Y131.200 F7200
G1 X144.625 E190.61186 F1200
G0 Y131.600 F7200
G1 X152.355 E190.86896 F1200
G0 Y132 F7200
G1 X144.626 E191.12603 F1200
G0 Y132.400 F7200
G1 X152.355 E191.38309 F1200
G0 X152.354 Y132.800 F7200
G1 X144.627 E191.64010 F1200
G0 Y133.200 F7200
G1 X152.354 E191.89710 F1200
G0 Y133.600 F7200
G1 X144.628 E192.15406 F1200
G0 Y134 F7200
G1 X152.354 E192.41103 F1200
G0 Y134.400 F7200
G1 X144.628 E192.66800 F1200
G0 X144.629 Y134.800 F7200
G1 X152.354 E192.92493 F1200
G0 Y135.200 F7200
G1 X144.629 E193.18187 F1200
G0 X144.630 Y135.600 F7200
G1 X152.354 E193.43877 F1200
G0 X152.353 Y136 F7200
G1 X144.630 E193.69564 F1200
G0 X144.631 Y136.400 F7200
G1 X152.353 E193.95247 F1200
G0 Y136.800 F7200
G1 X144.631 E194.20931 F1200
G0 X144.632 Y137.200 F7200
G1 X152.353 E194.46611 F1200
G0 Y137.600 F7200
G1 X144.632 E194.72291 F1200
G0 X144.633 Y138 F7200
G1 X152.353 E194.97968 F1200
G0 Y138.400 F7200
G1 X144.633 E195.23645 F1200
G0 X144.634 Y138.800 F7200
G1 X152.353 E195.49318 F1200
G0 X152.352 Y139.200 F7200
G1 X144.634 E195.74988 F1200
G0 X144.635 Y139.600 F7200
G1 X152.352 E196.00655 F1200
G0 Y140 F7200
G1 X144.635 E196.26322 F1200
G0 X144.636 Y140.400 F7200
G1 X152.352 E196.51986 F1200
G0 Y140.800 F7200
G1 X144.636 E196.77649 F1200
G0 X144.637 Y141.200 F7200
G1 X152.352 E197.03309 F1200
G0 Y141.600 F7200
G1 X144.637 E197.28970 F1200
G0 X144.638 Y142 F7200
G1 X152.352 E197.54626 F1200
G0 X152.351 Y142.400 F7200
G1 X144.638 E197.80280 F1200
G0 X144.639 Y142.800 F7200
G1 X152.351 E198.05930 F1200
G0 Y143.200 F7200
G1 X144.639 E198.31580 F1200
G0 X144.640 Y143.600 F7200
G1 X152.351 E198.57227 F1200
G1 F1500 E192.07227 ; Retract
G0 X152.920 Y142.746 F7200
G0 Y114.420 F7200
G0 X171.803 F7200
G0 X172.351 Y113.599 F7200
G1 F1500 E198.57227
G1 X124.640 E200.15915 F1200
G0 Y113.199 F7200
G1 X172.351 E201.74602 F1200
G0 X172.352 Y112.799 F7200
G1 X124.641 E203.33290 F1200
G0 Y112.399 F7200
G1 X172.352 E204.91977 F1200
G0 Y111.999 F7200
G1 X124.641 E206.50664 F1200
G0 Y111.599 F7200
G1 X172.352 E208.09352 F1200
G0 Y111.199 F7200
G1 X124.641 E209.68039 F1200
G0 X124.642 Y110.799 F7200
G1 X172.353 E211.26727 F1200
G0 Y110.399 F7200
G1 X124.642 E212.85414 F1200
G0 Y109.999 F7200
G1 X172.353 E214.44102 F1200
G0 Y109.599 F7200
G1 X124.642 E216.02789 F1200
G0 Y109.199 F7200
G1 X172.353 E217.61476 F1200
G0 X172.354 Y108.799 F7200
G1 X124.643 E219.20164 F1200
G0 Y108.399 F7200
G1 X172.354 E220.78851 F1200
G0 Y107.999 F7200
G1 X124.643 E222.37539 F1200
G0 Y107.599 F7200
G1 X172.354 E223.96226 F1200
G0 Y107.199 F7200
G1 X124.643 E225.54914 F1200
G0 X124.644 Y106.799 F7200
G1 X172.355 E227.13601 F1200
G0 Y106.399 F7200
G1 X124.644 E228.72288 F1200
G0 Y105.999 F7200
G1 X172.355 E230.30976 F1200
G0 Y105.599 F7200
G1 X124.644 E231.89663 F1200
G0 Y105.199 F7200
G1 X172.355 E233.48351 F1200
G0 X172.356 Y104.799 F7200
G1 X124.645 E235.07038 F1200
G0 Y104.399 F7200
G1 X172.356 E236.65726 F1200
G0 Y103.999 F7200
G1 X124.645 E238.24413 F1200
G0 Y103.599 F7200
G1 X172.356 E239.83100 F1200
G0 Y103.199 F7200
G1 X124.645 E241.41788 F1200
G0 X124.646 Y102.799 F7200
G1 X172.357 E243.00475 F1200
G0 Y102.399 F7200
G1 X124.646 E244.59163 F1200
G0 Y101.999 F7200
G1 X172.357 E246.17850 F1200
G0 Y101.599 F7200
G1 X124.646 E247.76538 F1200
G0 Y101.199 F7200
G1 X172.357 E249.35225 F1200
G0 X172.358 Y100.799 F7200
G1 X124.647 E250.93912 F1200
G0 Y100.399 F7200
G1 X172.358 E252.52600 F1200
G0 Y99.999 F7200
G1 X124.647 E254.11287 F1200
G0 Y99.599 F7200
G1 X172.358 E255.69975 F1200
G0 Y99.199 F7200
G1 X124.647 E257.28662 F1200
G0 X124.648 Y98.799 F7200
G1 X172.359 E258.87350 F1200
G0 Y98.399 F7200
G1 X124.648 E260.46037 F1200
G0 Y97.999 F7200
G1 X172.359 E262.04724 F1200
G0 Y97.599 F7200
G1 X124.648 E263.63412 F1200
G0 Y97.199 F7200
G1 X172.359 E265.22099 F1200
G0 X172.360 Y96.799 F7200
G1 X124.649 E266.80787 F1200
G0 Y96.399 F7200
G1 X172.360 E268.39474 F1200
; MACROLAYER:2
; LAYER:2
; TIME LEFT: 1186.792 S
M532 L2
; Inset XP 
G1 F1500 E261.89474 ; Retract
G0 Z0.370 F1500
G0 X171.824 Y95.580 F7200
G0 X152.920 F7200
G0 Y66.642 F7200
G0 X152.500 Y66 F7200
G0 F7200
G1 F1500 E268.39474
G1 X152.514 Y95.583 E269.25827 F3000
G1 X152.542 Y95.702 E269.26220 F3000
G1 X152.556 Y95.716 E269.26284 F3000
G1 X152.707 Y95.841 E269.26890 F3000
G0 X152.716 Y95.853 F7200
G1 X152.736 Y95.877 E269.26977 F3000
G1 X152.844 Y95.934 E269.27322 F3000
G1 X153.086 Y96 E269.28029 F3000
G1 X172.500 E269.82915 F3000
G1 Y114 E270.33803 F3000
G1 X152.923 Y114.027 E270.89149 F3000
G1 X152.807 Y114.085 E270.89514 F3000
G1 X152.623 Y114.236 E270.90187 F3000
G1 X152.566 Y114.344 E270.90531 F3000
G1 X152.500 Y114.586 E270.91238 F3000
G1 Y95.744 E271.44507 F3000
G0 X152.909 Y95.459 F7200
G1 X152.976 Y95.557 E271.44840 F3000
G1 X153.086 Y95.600 E271.45174 F3000
G1 X172.900 E272.01190 F3000
G1 Y114.400 E272.54340 F3000
G1 X153.041 Y114.409 E273.10484 F3000
G1 X152.943 Y114.476 E273.10817 F3000
G1 X152.900 Y114.586 E273.11151 F3000
G1 Y144.400 E273.95438 F3000
G1 X152.100 E273.97700 F3000
G1 Y65.600 E276.20476 F3000
G1 X152.900 E276.22738 F3000
G1 X152.909 Y95.459 E277.07153 F3000
; Inset 0 
G0 X153.300 Y95.200 F7200
G1 X173.300 E277.63695 F2400
G1 Y114.800 E278.19106 F2400
G1 X153.300 E278.75649 F2400
G1 Y144.800 E279.60462 F2400
G1 X151.700 E279.64985 F2400
G1 Y65.200 E281.90023 F2400
G1 X153.300 E281.94547 F2400
G1 Y95.200 E282.79360 F2400
; Solid infill 
G0 X153.200 Y96.145 F7200
G1 Y113.891 E283.29530 F2400
G0 X153.600 Y113.890 F7200
G1 Y96.145 E283.79697 F2400
G0 X154 F7200
G1 Y113.890 E284.29864 F2400
G0 X154.400 Y113.889 F7200
G1 Y96.145 E284.80028 F2400
G0 X154.800 F7200
G1 Y113.888 E285.30190 F2400
G0 X155.200 F7200
G1 Y96.145 E285.80351 F2400
G0 X155.600 F7200
G1 Y113.887 E286.30510 F2400
G0 X156 Y113.886 F7200
G1 Y96.146 E286.80663 F2400
G0 X156.400 F7200
G1 Y113.886 E287.30816 F2400
G0 X156.800 Y113.885 F7200
G1 Y96.146 E287.80966 F2400
G0 X157.200 F7200
G1 Y113.884 E288.31113 F2400
G0 X157.600 F7200
G1 Y96.146 E288.81261 F2400
G0 X158 F7200
G1 Y113.883 E289.31405 F2400
G0 X158.400 Y113.882 F7200
G1 Y96.146 E289.81547 F2400
G0 X158.800 F7200
G1 Y113.882 E290.31688 F2400
G0 X159.200 Y113.881 F7200
G1 Y96.146 E290.81827 F2400
G0 X159.600 F7200
G1 Y113.880 E291.31963 F2400
G0 X160 F7200
G1 Y96.146 E291.82099 F2400
G0 X160.400 F7200
G1 Y113.879 E292.32232 F2400
G0 X160.800 Y113.878 F7200
G1 Y96.146 E292.82363 F2400
G0 X161.200 F7200
G1 Y113.878 E293.32493 F2400
G0 X161.600 Y113.877 F7200
G1 Y96.146 E293.82621 F2400
G0 X162 F7200
G1 Y113.876 E294.32745 F2400
G0 X162.400 F7200
G1 Y96.146 E294.82870 F2400
G0 X162.800 Y96.147 F7200
G1 Y113.875 E295.32989 F2400
G0 X163.200 Y113.874 F7200
G1 Y96.147 E295.83105 F2400
G0 X163.600 F7200
G1 Y113.874 E296.33221 F2400
G0 X164 Y113.873 F7200
G1 Y96.147 E296.83335 F2400
G0 X164.400 F7200
G1 Y113.872 E297.33445 F2400
G0 X164.800 F7200
G1 Y96.147 E297.83556 F2400
G0 X165.200 F7200
G1 Y113.871 E298.33664 F2400
G0 X165.600 Y113.870 F7200
G1 Y96.147 E298.83768 F2400
G0 X166 F7200
G1 Y113.870 E299.33873 F2400
G0 X166.400 Y113.869 F7200
G1 Y96.147 E299.83975 F2400
G0 X166.800 F7200
G1 Y113.868 E300.34075 F2400
G0 X167.200 F7200
G1 Y96.147 E300.84174 F2400
G0 X167.600 F7200
G1 Y113.867 E301.34270 F2400
G0 X168 Y113.866 F7200
G1 Y96.147 E301.84364 F2400
G0 X168.400 F7200
G1 Y113.866 E302.34458 F2400
G0 X168.800 Y113.865 F7200
G1 Y96.147 E302.84548 F2400
G0 X169.200 Y96.148 F7200
G1 Y113.864 E303.34633 F2400
G0 X169.600 F7200
G1 Y96.148 E303.84719 F2400
G0 X170 F7200
G1 Y113.863 E304.34801 F2400
G0 X170.400 Y113.862 F7200
G1 Y96.148 E304.84880 F2400
G0 X170.800 F7200
G1 Y113.862 E305.34960 F2400
G0 X171.200 Y113.861 F7200
G1 Y96.148 E305.85036 F2400
G0 X171.600 F7200
G1 Y113.860 E306.35110 F2400
G0 X172 F7200
G1 Y96.148 E306.85184 F2400
G0 X152.800 Y96.145 F7200
G1 Y113.892 E307.35357 F2400
G0 X152.508 Y114.974 F7200
G1 X152.500 Y114.983 E307.35390 F2400
G1 Y144 E308.17424 F2400
; Inset XP 
G1 F1500 E301.67424 ; Retract
G0 F7200
G0 Y146 F7200
G0 X144.500 F7200
G0 Y144 F7200
G0 F7200
G1 F1500 E308.17424
G1 X144.486 Y114.422 E309.03971 F3000
G1 X144.457 Y114.297 E309.04385 F3000
G1 X144.449 Y114.289 E309.04422 F3000
G1 X144.293 Y114.159 E309.05049 F3000
G0 X144.284 Y114.147 F7200
G1 X144.264 Y114.123 E309.05137 F3000
G1 X144.156 Y114.066 E309.05481 F3000
G1 X143.914 Y114 E309.06188 F3000
G1 X124.500 E309.61074 F3000
G1 Y96 E310.11962 F3000
G1 X144.077 Y95.973 E310.67308 F3000
G1 X144.193 Y95.915 E310.67673 F3000
G1 X144.377 Y95.764 E310.68346 F3000
G1 X144.434 Y95.656 E310.68691 F3000
G1 X144.500 Y95.414 E310.69397 F3000
G1 Y114.256 E311.22666 F3000
G0 X144.091 Y114.541 F7200
G1 X144.024 Y114.443 E311.22999 F3000
G1 X143.914 Y114.400 E311.23333 F3000
G1 X124.100 E311.79349 F3000
G1 Y95.600 E312.32499 F3000
G1 X143.959 Y95.591 E312.88643 F3000
G1 X144.057 Y95.524 E312.88976 F3000
G1 X144.100 Y95.414 E312.89310 F3000
G1 Y65.600 E313.73597 F3000
G1 X144.900 E313.75859 F3000
G1 Y144.400 E315.98635 F3000
G1 X144.100 E316.00897 F3000
G1 X144.091 Y114.541 E316.85312 F3000
; Inset 0 
G0 X143.700 Y114.800 F7200
G1 X123.700 E317.41854 F2400
G1 Y95.200 E317.97265 F2400
G1 X143.700 E318.53808 F2400
G1 Y65.200 E319.38621 F2400
G1 X145.300 E319.43144 F2400
G1 Y144.800 E321.68182 F2400
G1 X143.700 E321.72706 F2400
G1 Y114.800 E322.57519 F2400
; Solid infill 
G0 X143.600 Y113.859 F7200
G1 Y96.107 E323.07706 F2400
G0 X144 F7200
G1 Y113.859 E323.57893 F2400
G0 X143.200 Y113.858 F7200
G1 Y96.108 E324.08074 F2400
G0 X142.800 Y96.109 F7200
G1 Y113.858 E324.58253 F2400
G0 X142.400 F7200
G1 Y96.110 E325.08428 F2400
G0 X142 Y96.111 F7200
G1 Y113.858 E325.58601 F2400
G0 X141.600 F7200
G1 Y96.112 E326.08771 F2400
G0 X141.200 F7200
G1 Y113.858 E326.58941 F2400
G0 X140.800 Y113.857 F7200
G1 Y96.113 E327.09105 F2400
G0 X140.400 Y96.114 F7200
G1 Y113.857 E327.59266 F2400
G0 X140 F7200
G1 Y96.115 E328.09425 F2400
G0 X139.600 Y96.116 F7200
G1 Y113.857 E328.59581 F2400
G0 X139.200 F7200
G1 Y96.116 E329.09737 F2400
G0 X138.800 Y96.117 F7200
G1 Y113.856 E329.59887 F2400
G0 X138.400 F7200
G1 Y96.118 E330.10034 F2400
G0 X138 Y96.119 F7200
G1 Y113.856 E330.60179 F2400
G0 X137.600 F7200
G1 Y96.120 E331.10320 F2400
G0 X137.200 F7200
G1 Y113.856 E331.60462 F2400
G0 X136.800 F7200
G1 Y96.121 E332.10601 F2400
G0 X136.400 Y96.122 F7200
G1 Y113.855 E332.60734 F2400
G0 X136 F7200
G1 Y96.123 E333.10864 F2400
G0 X135.600 Y96.124 F7200
G1 Y113.855 E333.60992 F2400
G0 X135.200 F7200
G1 Y96.125 E334.11116 F2400
G0 X134.800 F7200
G1 Y113.855 E334.61241 F2400
G0 X134.400 Y113.854 F7200
G1 Y96.126 E335.11360 F2400
G0 X134 Y96.127 F7200
G1 Y113.854 E335.61476 F2400
G0 X133.600 F7200
G1 Y96.128 E336.11590 F2400
G0 X133.200 Y96.129 F7200
G1 Y113.854 E336.61700 F2400
G0 X132.800 F7200
G1 Y96.129 E337.11811 F2400
G0 X132.400 Y96.130 F7200
G1 Y113.854 E337.61919 F2400
G0 X132 Y113.853 F7200
G1 Y96.131 E338.12021 F2400
G0 X131.600 Y96.132 F7200
G1 Y113.853 E338.62120 F2400
G0 X131.200 F7200
G1 Y96.133 E339.12216 F2400
G0 X130.800 Y96.134 F7200
G1 Y113.853 E339.62310 F2400
G0 X130.400 F7200
G1 Y96.134 E340.12403 F2400
G0 X130 Y96.135 F7200
G1 Y113.852 E340.62491 F2400
G0 X129.600 F7200
G1 Y96.136 E341.12576 F2400
G0 X129.200 Y96.137 F7200
G1 Y113.852 E341.62659 F2400
G0 X128.800 F7200
G1 Y96.138 E342.12738 F2400
G0 X128.400 F7200
G1 Y113.852 E342.62818 F2400
G0 X128 F7200
G1 Y96.139 E343.12894 F2400
G0 X127.600 Y96.140 F7200
G1 Y113.851 E343.62965 F2400
G0 X127.200 F7200
G1 Y96.141 E344.13033 F2400
G0 X126.800 Y96.142 F7200
G1 Y113.851 E344.63099 F2400
G0 X126.400 F7200
G1 Y96.142 E345.13164 F2400
G0 X126 Y96.143 F7200
G1 Y113.851 E345.63227 F2400
G0 X125.600 Y113.850 F7200
G1 Y96.144 E346.13283 F2400
G0 X125.200 Y96.145 F7200
G1 Y113.850 E346.63337 F2400
G0 X124.800 F7200
G1 Y96.146 E347.13389 F2400
G0 X135.962 Y95.580 F7200
G0 X144.500 Y95.147 F7200
G0 X144.601 Y95.142 F7200
G1 X144.520 Y95.039 E347.13646 F2400
G1 X144.500 Y95.020 E347.13718 F2400
G1 Y66 E347.95761 F2400
; MACROLAYER:2
; LAYER:3
; TIME LEFT: 1090.944 S
M532 L3
M104 S200 T0
M140 S40 
; Start change extruder 
M400
G1 F1500 E332.95761 ; Retract
G0 Z5.370 F1500
M1013 
M104 S100 T0
M109 S210 T1
T1 ; switch extruder type to:FIBER
M1013 R 
; End change extruder 
; Fiber infill 
M400
M106 P1 S127
G0 X145.600 Y145.500 F7200
G0 Z1.040 F1500
M1001 L805
G1 F600 U199.60000
G0 Y145 Z0.540 F7200
G1 F1500 V21.01128
G4 P0
G1 Y144.200 V21.05278 U200.40000 F180
G1 Y139.200 V21.31219 U205.40000 F180
G1 Y138.700 V21.33813 F480
G1 Y64.700 V25.17733 U279.40000 F480
G1 Y64.200 V25.20327 U280.40000 F480
G0 X146.400 Y65 F60
G1 X147.050 V25.23700 U281.05000 F60
G0 X146.250 Y65.800 F60
G1 Y72.150 V25.56644 U287.40000 F60
G1 Y72.800 V25.60017 U288.05000 F69
G1 Y73.300 V25.62611 F480
G1 Y145.300 V29.36155 U360.05000 F480
G1 Y145.800 V29.38749 U361.05000 F480
G0 X147.050 Y145 F60
G1 X147.700 V29.42121 U361.70000 F60
G0 X146.900 Y144.200 F60
G1 Y137.850 V29.75066 U368.05000 F60
G1 Y137.200 V29.78438 U368.70000 F69
G1 Y136.700 V29.81032 F480
G1 Y64.700 V33.54576 U440.70000 F480
G1 Y64.200 V33.57170 U441.70000 F480
G0 X147.700 Y65 F60
G1 X148.350 V33.60542 U442.35000 F60
G0 X147.550 Y65.800 F60
G1 Y72.150 V33.93487 U448.70000 F60
G1 Y72.800 V33.96859 U449.35000 F69
G1 Y73.300 V33.99453 F480
G1 Y145.300 V37.72997 U521.35000 F480
G1 Y145.800 V37.75591 U522.35000 F480
G0 X148.350 Y145 F60
G1 X149 V37.78964 U523.00000 F60
G0 X148.200 Y144.200 F60
G1 Y137.850 V38.11908 U529.35000 F60
G1 Y137.200 V38.15280 U530.00000 F69
G1 Y136.700 V38.17874 F480
G1 Y64.700 V41.91418 U602.00000 F480
G1 Y64.200 V41.94013 U603.00000 F480
G0 X149 Y65 F60
G1 X149.650 V41.97385 U603.65000 F60
G0 X148.850 Y65.800 F60
G1 Y72.150 V42.30329 U610.00000 F60
G1 Y72.800 V42.33702 U610.65000 F69
G1 Y73.300 V42.36296 F480
G1 Y145.300 V46.09840 U682.65000 F480
G1 Y145.800 V46.12434 U683.65000 F480
G0 X149.650 Y145 F60
G1 X150.300 V46.15806 U684.30000 F60
G0 X149.500 Y144.200 F60
G1 Y137.850 V46.48751 U690.65000 F60
G1 Y137.200 V46.52123 U691.30000 F69
G1 Y136.700 V46.54717 F480
G1 Y64.700 V50.28261 U763.30000 F480
G1 Y64.200 V50.30855 U764.30000 F480
G0 X150.300 Y65 F60
G1 X150.950 V50.34227 U764.95000 F60
G0 X150.150 Y65.800 F60
G1 Y72.150 V50.67172 U771.30000 F60
G1 Y72.800 V50.70544 U771.95000 F69
G1 Y73.300 V50.73138 F480
G1 Y145.300 V54.46682 U843.95000 F480
G1 Y145.800 V54.49276 U844.95000 F480
G0 X150.950 Y145 F60
G1 X151.600 V54.52649 U845.60000 F60
G0 X150.800 Y144.200 F60
G1 Y137.850 V54.85593 U851.95000 F60
G1 Y137.200 V54.88965 U852.60000 F69
G1 Y136.700 V54.91559 F480
G1 Y64.700 V58.65103 U924.60000 F480
G1 Y64.200 V58.67698 U925.60000 F480
G0 X151.600 Y65 F60
G1 X152.250 V58.71070 U926.25000 F60
G0 X151.450 Y65.800 F60
G1 Y72.150 V59.04014 U932.60000 F60
G1 Y72.800 V59.07387 U933.25000 F69
G1 Y73.300 V59.09981 F480
G1 Y100.100 V60.49022 U960.05000 F480
G1 Y100.600 V60.51616 U961.05000 F480
; Start to cut
M400
M280 P0 S30
G4 P200
M280 P0 S90
M400
G1 Y107.600 V60.87933 F60
G1 Y145.800 V62.86119 F480
G1 F1500 V56.36119 ; Retract
G0 X145.500 Y145 F300
G0 Y130.950 F300
M1002 
; Start change extruder 
M400
G1 F1500 V47.86119 ; Retract
G0 Z5.540 F1500
M1013 
M104 S100 T1
M400
M106 P1 S0
M109 S210 T0
T0 ; switch extruder type to:PLASTIC
M1013 R 
; End change extruder 
; Inset XP 
M400
M106 P1 S255
G0 F7200
G0 X144.500 Y144 F7200
G0 F7200
G0 Z0.540 F1500
G1 F1500 E347.95761
G1 X144.486 Y114.422 E348.82308 F3000
G1 X144.485 Y114.416 E348.82326 F3000
G1 X144.457 Y114.297 E348.82720 F3000
G1 X144.449 Y114.289 E348.82758 F3000
G1 X144.443 Y114.283 E348.82784 F3000
G1 X144.293 Y114.159 E348.83384 F3000
G0 X144.284 Y114.147 F7200
G1 X144.264 Y114.123 E348.83471 F3000
G1 X144.156 Y114.066 E348.83816 F3000
G1 X143.914 Y114 E348.84523 F3000
G1 X124.500 E349.39408 F3000
G1 Y96 E349.90296 F3000
G1 X144.077 Y95.973 E350.45643 F3000
G1 X144.193 Y95.915 E350.46008 F3000
G1 X144.377 Y95.764 E350.46680 F3000
G1 X144.434 Y95.656 E350.47025 F3000
G1 X144.500 Y95.414 E350.47732 F3000
G1 Y114.256 E351.01000 F3000
G0 X144.091 Y114.541 F7200
G1 X144.024 Y114.443 E351.01334 F3000
G1 X143.914 Y114.400 E351.01668 F3000
G1 X124.100 E351.57684 F3000
G1 Y95.600 E352.10834 F3000
G1 X143.959 Y95.591 E352.66977 F3000
G1 X144.057 Y95.524 E352.67311 F3000
G1 X144.100 Y95.414 E352.67645 F3000
G1 Y65.600 E353.51932 F3000
G1 X144.900 E353.54194 F3000
G1 Y144.400 E355.76970 F3000
G1 X144.100 E355.79232 F3000
G1 X144.091 Y114.541 E356.63647 F3000
; Inset 0 
G0 X143.700 Y114.800 F7200
G1 X123.700 E357.20189 F2400
G1 Y95.200 E357.75600 F2400
G1 X143.700 E358.32142 F2400
G1 Y65.200 E359.16956 F2400
G1 X145.300 E359.21479 F2400
G1 Y144.800 E361.46517 F2400
G1 X143.700 E361.51041 F2400
G1 Y114.800 E362.35854 F2400
; Solid infill 
G0 X144.346 Y113.599 F7200
G1 X124.639 E362.91568 F2400
G0 Y113.199 F7200
G1 X144.346 E363.47282 F2400
G0 X144.347 Y112.799 F7200
G1 X124.640 E364.02996 F2400
G0 Y112.399 F7200
G1 X144.347 E364.58709 F2400
G0 Y111.999 F7200
G1 X124.640 E365.14423 F2400
G0 Y111.599 F7200
G1 X144.348 E365.70140 F2400
G0 Y111.199 F7200
G1 X124.640 E366.25857 F2400
G0 X124.641 Y110.799 F7200
G1 X144.348 E366.81571 F2400
G0 X144.349 Y110.399 F7200
G1 X124.641 E367.37287 F2400
G0 Y109.999 F7200
G1 X144.349 E367.93004 F2400
G0 Y109.599 F7200
G1 X124.641 E368.48721 F2400
G0 Y109.199 F7200
G1 X144.349 E369.04438 F2400
G0 X144.350 Y108.799 F7200
G1 X124.642 E369.60154 F2400
G0 Y108.399 F7200
G1 X144.350 E370.15871 F2400
G0 Y107.999 F7200
G1 X124.642 E370.71588 F2400
G0 Y107.599 F7200
G1 X144.351 E371.27307 F2400
G0 Y107.199 F7200
G1 X124.642 E371.83027 F2400
G0 X124.643 Y106.799 F7200
G1 X144.351 E372.38743 F2400
G0 Y106.399 F7200
G1 X124.643 E372.94460 F2400
G0 Y105.999 F7200
G1 X144.352 E373.50180 F2400
G0 Y105.599 F7200
G1 X124.643 E374.05899 F2400
G0 Y105.199 F7200
G1 X144.352 E374.61619 F2400
G0 X144.353 Y104.799 F7200
G1 X124.644 E375.17338 F2400
G0 Y104.399 F7200
G1 X144.353 E375.73058 F2400
G0 Y103.999 F7200
G1 X124.644 E376.28777 F2400
G0 Y103.599 F7200
G1 X144.354 E376.84500 F2400
G0 Y103.199 F7200
G1 X124.644 E377.40222 F2400
G0 X124.645 Y102.799 F7200
G1 X144.354 E377.95942 F2400
G0 Y102.399 F7200
G1 X124.645 E378.51661 F2400
G0 Y101.999 F7200
G1 X144.355 E379.07384 F2400
G0 Y101.599 F7200
G1 X124.645 E379.63106 F2400
G0 Y101.199 F7200
G1 X144.355 E380.18828 F2400
G0 X144.356 Y100.799 F7200
G1 X124.646 E380.74551 F2400
G0 Y100.399 F7200
G1 X144.356 E381.30273 F2400
G0 Y99.999 F7200
G1 X124.646 E381.85995 F2400
G0 Y99.599 F7200
G1 X144.356 E382.41718 F2400
G0 X144.357 Y99.199 F7200
G1 X124.646 E382.97443 F2400
G0 X124.647 Y98.799 F7200
G1 X144.357 E383.53165 F2400
G0 Y98.399 F7200
G1 X124.647 E384.08888 F2400
G0 Y97.999 F7200
G1 X144.358 E384.64613 F2400
G0 Y97.599 F7200
G1 X124.647 E385.20338 F2400
G0 Y97.199 F7200
G1 X144.358 E385.76063 F2400
G0 X144.359 Y96.799 F7200
G1 X124.648 E386.31788 F2400
G0 Y96.399 F7200
G1 X144.359 E386.87514 F2400
G0 X144.601 Y95.142 F7200
G1 X144.520 Y95.039 E386.87771 F2400
G1 X144.500 Y95.020 E386.87843 F2400
G1 Y66 E387.69886 F2400
; Inset XP 
G1 F1500 E381.19886 ; Retract
G0 F7200
G0 Y64 F7200
G0 X152.500 F7200
G0 Y66 F7200
G0 F7200
G1 F1500 E387.69886
G1 X152.513 Y95.577 E388.56221 F3000
G1 X152.514 Y95.583 E388.56239 F3000
G1 X152.542 Y95.702 E388.56633 F3000
G1 X152.550 Y95.710 E388.56670 F3000
G1 X152.556 Y95.716 E388.56697 F3000
G1 X152.707 Y95.841 E388.57302 F3000
G0 X152.716 Y95.853 F7200
G1 X152.736 Y95.877 E388.57390 F3000
G1 X152.844 Y95.934 E388.57735 F3000
G1 X153.086 Y96 E388.58441 F3000
G1 X172.500 E389.13327 F3000
G1 Y114 E389.64215 F3000
G1 X152.923 Y114.027 E390.19561 F3000
G1 X152.807 Y114.085 E390.19926 F3000
G1 X152.623 Y114.236 E390.20599 F3000
G1 X152.566 Y114.344 E390.20944 F3000
G1 X152.500 Y114.586 E390.21651 F3000
G1 Y95.744 E390.74919 F3000
G0 X152.909 Y95.459 F7200
G1 X152.976 Y95.557 E390.75253 F3000
G1 X153.086 Y95.600 E390.75586 F3000
G1 X172.900 E391.31603 F3000
G1 Y114.400 E391.84752 F3000
G1 X153.041 Y114.409 E392.40896 F3000
G1 X152.943 Y114.476 E392.41229 F3000
G1 X152.900 Y114.586 E392.41563 F3000
G1 Y144.400 E393.25851 F3000
G1 X152.100 E393.28112 F3000
G1 Y65.600 E395.50889 F3000
G1 X152.900 E395.53150 F3000
G1 X152.909 Y95.459 E396.37565 F3000
; Inset 0 
G0 X153.300 Y95.200 F7200
G1 X173.300 E396.94107 F2400
G1 Y114.800 E397.49519 F2400
G1 X153.300 E398.06061 F2400
G1 Y144.800 E398.90874 F2400
G1 X151.700 E398.95398 F2400
G1 Y65.200 E401.20436 F2400
G1 X153.300 E401.24959 F2400
G1 Y95.200 E402.09772 F2400
; Solid infill 
G0 X152.648 Y96.399 F7200
G1 X172.359 E402.65498 F2400
G0 Y96.799 F7200
G1 X152.648 E403.21223 F2400
G0 X152.647 Y97.199 F7200
G1 X172.358 E403.76948 F2400
G0 Y97.599 F7200
G1 X152.647 E404.32673 F2400
G0 Y97.999 F7200
G1 X172.358 E404.88398 F2400
G0 Y98.399 F7200
G1 X152.647 E405.44124 F2400
G0 Y98.799 F7200
G1 X172.358 E405.99849 F2400
G0 X172.357 Y99.199 F7200
G1 X152.646 E406.55574 F2400
G0 Y99.599 F7200
G1 X172.357 E407.11299 F2400
G0 Y99.999 F7200
G1 X152.646 E407.67024 F2400
G0 Y100.399 F7200
G1 X172.357 E408.22750 F2400
G0 Y100.799 F7200
G1 X152.646 E408.78475 F2400
G0 X152.645 Y101.199 F7200
G1 X172.356 E409.34200 F2400
G0 Y101.599 F7200
G1 X152.645 E409.89925 F2400
G0 Y101.999 F7200
G1 X172.356 E410.45650 F2400
G0 Y102.399 F7200
G1 X152.645 E411.01376 F2400
G0 Y102.799 F7200
G1 X172.356 E411.57101 F2400
G0 X172.355 Y103.199 F7200
G1 X152.644 E412.12826 F2400
G0 Y103.599 F7200
G1 X172.355 E412.68551 F2400
G0 Y103.999 F7200
G1 X152.644 E413.24276 F2400
G0 Y104.399 F7200
G1 X172.355 E413.80001 F2400
G0 Y104.799 F7200
G1 X152.644 E414.35727 F2400
G0 X152.643 Y105.199 F7200
G1 X172.354 E414.91452 F2400
G0 Y105.599 F7200
G1 X152.643 E415.47177 F2400
G0 Y105.999 F7200
G1 X172.354 E416.02902 F2400
G0 Y106.399 F7200
G1 X152.643 E416.58627 F2400
G0 Y106.799 F7200
G1 X172.354 E417.14353 F2400
G0 X172.353 Y107.199 F7200
G1 X152.642 E417.70078 F2400
G0 Y107.599 F7200
G1 X172.353 E418.25803 F2400
G0 Y107.999 F7200
G1 X152.642 E418.81528 F2400
G0 Y108.399 F7200
G1 X172.353 E419.37253 F2400
G0 Y108.799 F7200
G1 X152.642 E419.92979 F2400
G0 X152.641 Y109.199 F7200
G1 X172.352 E420.48704 F2400
G0 Y109.599 F7200
G1 X152.641 E421.04429 F2400
G0 Y109.999 F7200
G1 X172.352 E421.60154 F2400
G0 Y110.399 F7200
G1 X152.641 E422.15879 F2400
G0 Y110.799 F7200
G1 X172.352 E422.71605 F2400
G0 X172.351 Y111.199 F7200
G1 X152.640 E423.27330 F2400
G0 Y111.599 F7200
G1 X172.351 E423.83055 F2400
G0 Y111.999 F7200
G1 X152.640 E424.38780 F2400
G0 Y112.399 F7200
G1 X172.351 E424.94505 F2400
G0 Y112.799 F7200
G1 X152.640 E425.50231 F2400
G0 X152.639 Y113.199 F7200
G1 X172.350 E426.05956 F2400
G0 Y113.599 F7200
G1 X152.639 E426.61681 F2400
G0 X152.508 Y114.974 F7200
G1 X152.500 Y114.983 E426.61714 F2400
G1 Y144 E427.43748 F2400
; MACROLAYER:3
; LAYER:4
; TIME LEFT: 608.564 S
M532 L4
M104 S200 T0
; Inset XP 
G1 F1500 E420.93748 ; Retract
G0 Z0.710 F1500
G0 F7200
G0 X152.920 Y142.992 F7200
G0 Y114.420 F7200
G0 X164.825 F7200
G0 X172.500 Y96 F7200
G1 F1500 E427.43748
G1 Y114 E427.94636 F3000
G1 X154.500 E428.45524 F3000
G1 Y96 E428.96412 F3000
G1 X172.500 E429.47300 F3000
G0 X172.900 Y95.600 F7200
G1 Y114.400 E430.00450 F3000
G1 X154.100 E430.53600 F3000
G1 Y95.600 E431.06750 F3000
G1 X172.900 E431.59899 F3000
; Inset 0 
G1 F1500 E425.09899 ; Retract
G0 X152.735 Y95.765 F7200
G1 F1500 E431.59899
G0 X153.300 Y95.200 F7200
G1 X173.300 E432.16441 F2400
G1 Y114.800 E432.71853 F2400
G1 X153.300 E433.28395 F2400
G1 Y144.800 E434.13208 F2400
G1 X151.700 E434.17732 F2400
G1 Y65.200 E436.42770 F2400
G1 X153.300 E436.47293 F2400
G1 Y95.200 E437.32107 F2400
; Micro infill 
G0 X153.200 Y95.339 F7200
G1 Y114.659 E437.86726 F2400
G0 X153.600 F7200
G1 Y95.344 E438.41332 F2400
G1 F1500 E431.91332 ; Retract
G0 X153.606 Y95.580 F7200
G0 X152.920 F7200
G0 Y69.846 F7200
G0 Y65.580 F7200
G0 X152.806 F7200
G0 X152.800 Y65.347 F7200
G1 F1500 E438.41332
G1 Y144.657 E440.65550 F2400
G0 X152.400 Y144.654 F7200
G1 Y65.347 E442.89760 F2400
G0 X152 F7200
G1 Y144.651 E445.13964 F2400
; Solid infill 
G1 F1500 E438.63964 ; Retract
G0 X152.080 Y143.770 F7200
G0 Y144.420 F7200
G0 X152.920 F7200
G0 Y134.530 F7200
G0 Y114.420 F7200
G0 X154.748 F7200
G0 X154.800 Y113.850 F7200
G1 F1500 E445.13964
G1 Y96.146 E445.64015 F2400
G0 X155.200 F7200
G1 Y113.850 E446.14066 F2400
G0 X155.600 F7200
G1 Y96.146 E446.64118 F2400
G0 X156 F7200
G1 Y113.851 E447.14172 F2400
G0 X156.400 F7200
G1 Y96.146 E447.64226 F2400
G0 X156.800 F7200
G1 Y113.851 E448.14280 F2400
G0 X157.200 F7200
G1 Y96.146 E448.64334 F2400
G0 X157.600 F7200
G1 Y113.851 E449.14388 F2400
G0 X158 Y113.852 F7200
G1 Y96.146 E449.64444 F2400
G0 X158.400 F7200
G1 Y113.852 E450.14501 F2400
G0 X158.800 F7200
G1 Y96.146 E450.64558 F2400
G0 X159.200 Y96.147 F7200
G1 Y113.852 E451.14612 F2400
G0 X159.600 Y113.853 F7200
G1 Y96.147 E451.64669 F2400
G0 X160 F7200
G1 Y113.853 E452.14726 F2400
G0 X160.400 F7200
G1 Y96.147 E452.64783 F2400
G0 X160.800 F7200
G1 Y113.853 E453.14839 F2400
G0 X161.200 F7200
G1 Y96.147 E453.64896 F2400
G0 X161.600 F7200
G1 Y113.854 E454.14956 F2400
G0 X162 F7200
G1 Y96.147 E454.65016 F2400
G0 X162.400 F7200
G1 Y113.854 E455.15075 F2400
G0 X162.800 F7200
G1 Y96.147 E455.65135 F2400
G0 X163.200 F7200
G1 Y113.854 E456.15195 F2400
G0 X163.600 Y113.855 F7200
G1 Y96.147 E456.65257 F2400
G0 X164 F7200
G1 Y113.855 E457.15320 F2400
G0 X164.400 F7200
G1 Y96.147 E457.65382 F2400
G0 X164.800 F7200
G1 Y113.855 E458.15445 F2400
G0 X165.200 F7200
G1 Y96.147 E458.65507 F2400
G0 X165.600 F7200
G1 Y113.856 E459.15572 F2400
G0 X166 F7200
G1 Y96.147 E459.65638 F2400
G0 X166.400 F7200
G1 Y113.856 E460.15703 F2400
G0 X166.800 F7200
G1 Y96.147 E460.65768 F2400
G0 X167.200 F7200
G1 Y113.856 E461.15834 F2400
G0 X167.600 Y113.857 F7200
G1 Y96.147 E461.65902 F2400
G0 X168 Y96.148 F7200
G1 Y113.857 E462.15967 F2400
G0 X168.400 F7200
G1 Y96.148 E462.66032 F2400
G0 X168.800 F7200
G1 Y113.857 E463.16098 F2400
G0 X169.200 F7200
G1 Y96.148 E463.66163 F2400
G0 X169.600 F7200
G1 Y113.858 E464.16231 F2400
G0 X170 F7200
G1 Y96.148 E464.66299 F2400
G0 X170.400 F7200
G1 Y113.858 E465.16368 F2400
G0 X170.800 F7200
G1 Y96.148 E465.66436 F2400
G0 X171.200 F7200
G1 Y113.858 E466.16504 F2400
G0 X171.600 Y113.859 F7200
G1 Y96.148 E466.66575 F2400
G0 X172 F7200
G1 Y113.859 E467.16646 F2400
; Inset XP 
G1 F1500 E460.66646 ; Retract
G0 X152.500 Y102.053 F7200
G0 Y64 F7200
G0 X144.500 F7200
G0 Y97.210 F7200
G0 X142.500 Y96 F7200
G1 F1500 E467.16646
G1 Y114 E467.67534 F3000
G1 X124.500 E468.18422 F3000
G1 Y96 E468.69310 F3000
G1 X142.500 E469.20198 F3000
G0 X142.900 Y95.600 F7200
G1 Y114.400 E469.73347 F3000
G1 X124.100 E470.26497 F3000
G1 Y95.600 E470.79647 F3000
G1 X142.900 E471.32797 F3000
; Inset 0 
G0 X143.700 Y95.200 F7200
G1 Y65.200 E472.17610 F2400
G1 X145.300 E472.22133 F2400
G1 Y144.800 E474.47171 F2400
G1 X143.700 E474.51695 F2400
G1 Y114.800 E475.36508 F2400
G1 X123.700 E475.93050 F2400
G1 Y95.200 E476.48462 F2400
G1 X143.700 E477.05004 F2400
; Micro infill 
G0 X143.600 Y95.339 F7200
G1 Y114.656 E477.59615 F2400
G0 X143.200 Y114.652 F7200
G1 Y95.339 E478.14215 F2400
G1 F1500 E471.64215 ; Retract
G0 X143.209 Y95 F7200
G0 X144 Y65.346 F7200
G1 F1500 E478.14215
G1 Y144.651 E480.38419 F2400
G0 X144.400 Y144.654 F7200
G1 Y65.347 E482.62629 F2400
G0 X144.800 F7200
G1 Y144.657 E484.86847 F2400
; Solid infill 
G1 F1500 E478.36847 ; Retract
G0 X144.778 Y144.420 F7200
G0 X144.080 F7200
G0 Y136.737 F7200
G0 Y114.420 F7200
G0 X142.051 F7200
G0 X142 Y113.859 F7200
G1 F1500 E484.86847
G1 Y96.148 E485.36918 F2400
G0 X141.600 F7200
G1 Y113.859 E485.86989 F2400
G0 X141.200 Y113.858 F7200
G1 Y96.148 E486.37057 F2400
G0 X140.800 F7200
G1 Y113.858 E486.87125 F2400
G0 X140.400 F7200
G1 Y96.148 E487.37194 F2400
G0 X140 F7200
G1 Y113.858 E487.87262 F2400
G0 X139.600 F7200
G1 Y96.148 E488.37330 F2400
G0 X139.200 F7200
G1 Y113.857 E488.87395 F2400
G0 X138.800 F7200
G1 Y96.148 E489.37461 F2400
G0 X138.400 F7200
G1 Y113.857 E489.87526 F2400
G0 X138 F7200
G1 Y96.148 E490.37591 F2400
G0 X137.600 Y96.147 F7200
G1 Y113.857 E490.87659 F2400
G0 X137.200 Y113.856 F7200
G1 Y96.147 E491.37725 F2400
G0 X136.800 F7200
G1 Y113.856 E491.87790 F2400
G0 X136.400 F7200
G1 Y96.147 E492.37855 F2400
G0 X136 F7200
G1 Y113.856 E492.87921 F2400
G0 X135.600 F7200
G1 Y96.147 E493.37986 F2400
G0 X135.200 F7200
G1 Y113.855 E493.88048 F2400
G0 X134.800 F7200
G1 Y96.147 E494.38111 F2400
G0 X134.400 F7200
G1 Y113.855 E494.88173 F2400
G0 X134 F7200
G1 Y96.147 E495.38236 F2400
G0 X133.600 F7200
G1 Y113.855 E495.88298 F2400
G0 X133.200 Y113.854 F7200
G1 Y96.147 E496.38358 F2400
G0 X132.800 F7200
G1 Y113.854 E496.88418 F2400
G0 X132.400 F7200
G1 Y96.147 E497.38477 F2400
G0 X132 F7200
G1 Y113.854 E497.88537 F2400
G0 X131.600 F7200
G1 Y96.147 E498.38597 F2400
G0 X131.200 F7200
G1 Y113.853 E498.88654 F2400
G0 X130.800 F7200
G1 Y96.147 E499.38710 F2400
G0 X130.400 F7200
G1 Y113.853 E499.88767 F2400
G0 X130 F7200
G1 Y96.147 E500.38824 F2400
G0 X129.600 F7200
G1 Y113.853 E500.88881 F2400
G0 X129.200 Y113.852 F7200
G1 Y96.147 E501.38935 F2400
G0 X128.800 Y96.146 F7200
G1 Y113.852 E501.88992 F2400
G0 X128.400 F7200
G1 Y96.146 E502.39049 F2400
G0 X128 F7200
G1 Y113.852 E502.89105 F2400
G0 X127.600 Y113.851 F7200
G1 Y96.146 E503.39159 F2400
G0 X127.200 F7200
G1 Y113.851 E503.89213 F2400
G0 X126.800 F7200
G1 Y96.146 E504.39267 F2400
G0 X126.400 F7200
G1 Y113.851 E504.89321 F2400
G0 X126 F7200
G1 Y96.146 E505.39375 F2400
G0 X125.600 F7200
G1 Y113.850 E505.89427 F2400
G0 X125.200 F7200
G1 Y96.146 E506.39478 F2400
G0 X124.800 F7200
G1 Y113.850 E506.89529 F2400
; MACROLAYER:3
; LAYER:5
; TIME LEFT: 521.319 S
M532 L5
; Inset XP 
G1 F1500 E500.39529 ; Retract
G0 Z0.880 F1500
G0 X142.920 Y107.069 F7200
G0 X144.500 Y106.477 F7200
G0 X152.500 Y103.484 F7200
G0 X154.080 Y102.893 F7200
G0 X172.500 Y96 F7200
G1 F1500 E506.89529
G1 Y114 E507.40417 F3000
G1 X154.500 E507.91305 F3000
G1 Y96 E508.42193 F3000
G1 X172.500 E508.93081 F3000
G0 X172.900 Y95.600 F7200
G1 Y114.400 E509.46231 F3000
G1 X154.100 E509.99380 F3000
G1 Y95.600 E510.52530 F3000
G1 X172.900 E511.05680 F3000
; Inset 0 
G0 X173.300 Y95.200 F7200
G1 Y114.800 E511.61091 F2400
G1 X153.700 E512.16503 F2400
G1 Y95.200 E512.71914 F2400
G1 X173.300 E513.27325 F2400
; Solid infill 
G0 X172.359 Y96.399 F7200
G1 X154.648 E513.77396 F2400
G0 Y96.799 F7200
G1 X172.359 E514.27467 F2400
G0 X172.358 Y97.199 F7200
G1 X154.647 E514.77538 F2400
G0 Y97.599 F7200
G1 X172.358 E515.27609 F2400
G0 Y97.999 F7200
G1 X154.647 E515.77680 F2400
G0 Y98.399 F7200
G1 X172.358 E516.27751 F2400
G0 Y98.799 F7200
G1 X154.647 E516.77822 F2400
G0 X154.646 Y99.199 F7200
G1 X172.357 E517.27893 F2400
G0 Y99.599 F7200
G1 X154.646 E517.77964 F2400
G0 Y99.999 F7200
G1 X172.357 E518.28035 F2400
G0 Y100.399 F7200
G1 X154.646 E518.78106 F2400
G0 Y100.799 F7200
G1 X172.357 E519.28177 F2400
G0 X172.356 Y101.199 F7200
G1 X154.645 E519.78248 F2400
G0 Y101.599 F7200
G1 X172.356 E520.28319 F2400
G0 Y101.999 F7200
G1 X154.645 E520.78390 F2400
G0 Y102.399 F7200
G1 X172.356 E521.28461 F2400
G0 Y102.799 F7200
G1 X154.645 E521.78532 F2400
G0 X154.644 Y103.199 F7200
G1 X172.355 E522.28603 F2400
G0 Y103.599 F7200
G1 X154.644 E522.78674 F2400
G0 Y103.999 F7200
G1 X172.355 E523.28745 F2400
G0 Y104.399 F7200
G1 X154.644 E523.78816 F2400
G0 Y104.799 F7200
G1 X172.355 E524.28887 F2400
G0 X172.354 Y105.199 F7200
G1 X154.643 E524.78958 F2400
G0 Y105.599 F7200
G1 X172.354 E525.29029 F2400
G0 Y105.999 F7200
G1 X154.643 E525.79100 F2400
G0 Y106.399 F7200
G1 X172.354 E526.29171 F2400
G0 Y106.799 F7200
G1 X154.643 E526.79242 F2400
G0 X154.642 Y107.199 F7200
G1 X172.353 E527.29313 F2400
G0 Y107.599 F7200
G1 X154.642 E527.79384 F2400
G0 Y107.999 F7200
G1 X172.353 E528.29454 F2400
G0 Y108.399 F7200
G1 X154.642 E528.79525 F2400
G0 Y108.799 F7200
G1 X172.353 E529.29596 F2400
G0 X172.352 Y109.199 F7200
G1 X154.641 E529.79667 F2400
G0 Y109.599 F7200
G1 X172.352 E530.29738 F2400
G0 Y109.999 F7200
G1 X154.641 E530.79809 F2400
G0 Y110.399 F7200
G1 X172.352 E531.29880 F2400
G0 Y110.799 F7200
G1 X154.641 E531.79951 F2400
G0 X154.640 Y111.199 F7200
G1 X172.351 E532.30022 F2400
G0 Y111.599 F7200
G1 X154.640 E532.80093 F2400
G0 Y111.999 F7200
G1 X172.351 E533.30164 F2400
G0 Y112.399 F7200
G1 X154.640 E533.80235 F2400
G0 Y112.799 F7200
G1 X172.351 E534.30306 F2400
G0 X172.350 Y113.199 F7200
G1 X154.639 E534.80377 F2400
G0 Y113.599 F7200
G1 X172.350 E535.30448 F2400
; Inset XP 
G1 F1500 E528.80448 ; Retract
G0 X154.080 Y102.827 F7200
G0 X152.500 Y101.895 F7200
G0 X144.500 Y97.179 F7200
G0 X142.920 Y96.247 F7200
G0 X142.500 Y96 F7200
G1 F1500 E535.30448
G1 Y114 E535.81336 F3000
G1 X124.500 E536.32224 F3000
G1 Y96 E536.83112 F3000
G1 X142.500 E537.34000 F3000
G0 X142.900 Y95.600 F7200
G1 Y114.400 E537.87150 F3000
G1 X124.100 E538.40299 F3000
G1 Y95.600 E538.93449 F3000
G1 X142.900 E539.46599 F3000
; Inset 0 
G0 X143.300 Y95.200 F7200
G1 Y114.800 E540.02010 F2400
G1 X123.700 E540.57422 F2400
G1 Y95.200 E541.12833 F2400
G1 X143.300 E541.68244 F2400
; Solid infill 
G0 X142.359 Y96.399 F7200
G1 X124.648 E542.18315 F2400
G0 Y96.799 F7200
G1 X142.359 E542.68386 F2400
G0 X142.358 Y97.199 F7200
G1 X124.647 E543.18457 F2400
G0 Y97.599 F7200
G1 X142.358 E543.68528 F2400
G0 Y97.999 F7200
G1 X124.647 E544.18599 F2400
G0 Y98.399 F7200
G1 X142.358 E544.68670 F2400
G0 Y98.799 F7200
G1 X124.647 E545.18741 F2400
G0 X124.646 Y99.199 F7200
G1 X142.357 E545.68812 F2400
G0 Y99.599 F7200
G1 X124.646 E546.18883 F2400
G0 Y99.999 F7200
G1 X142.357 E546.68954 F2400
G0 Y100.399 F7200
G1 X124.646 E547.19025 F2400
G0 Y100.799 F7200
G1 X142.357 E547.69096 F2400
G0 X142.356 Y101.199 F7200
G1 X124.645 E548.19167 F2400
G0 Y101.599 F7200
G1 X142.356 E548.69238 F2400
G0 Y101.999 F7200
G1 X124.645 E549.19309 F2400
G0 Y102.399 F7200
G1 X142.356 E549.69380 F2400
G0 Y102.799 F7200
G1 X124.645 E550.19451 F2400
G0 X124.644 Y103.199 F7200
G1 X142.355 E550.69522 F2400
G0 Y103.599 F7200
G1 X124.644 E551.19593 F2400
G0 Y103.999 F7200
G1 X142.355 E551.69664 F2400
G0 Y104.399 F7200
G1 X124.644 E552.19735 F2400
G0 Y104.799 F7200
G1 X142.355 E552.69806 F2400
G0 X142.354 Y105.199 F7200
G1 X124.643 E553.19877 F2400
G0 Y105.599 F7200
G1 X142.354 E553.69948 F2400
G0 Y105.999 F7200
G1 X124.643 E554.20019 F2400
G0 Y106.399 F7200
G1 X142.354 E554.70090 F2400
G0 Y106.799 F7200
G1 X124.643 E555.20161 F2400
G0 X124.642 Y107.199 F7200
G1 X142.353 E555.70232 F2400
G0 Y107.599 F7200
G1 X124.642 E556.20303 F2400
G0 Y107.999 F7200
G1 X142.353 E556.70374 F2400
G0 Y108.399 F7200
G1 X124.642 E557.20445 F2400
G0 Y108.799 F7200
G1 X142.353 E557.70516 F2400
G0 X142.352 Y109.199 F7200
G1 X124.641 E558.20586 F2400
G0 Y109.599 F7200
G1 X142.352 E558.70657 F2400
G0 Y109.999 F7200
G1 X124.641 E559.20728 F2400
G0 Y110.399 F7200
G1 X142.352 E559.70799 F2400
G0 Y110.799 F7200
G1 X124.641 E560.20870 F2400
G0 X124.640 Y111.199 F7200
G1 X142.351 E560.70941 F2400
G0 Y111.599 F7200
G1 X124.640 E561.21012 F2400
G0 Y111.999 F7200
G1 X142.351 E561.71083 F2400
G0 Y112.399 F7200
G1 X124.640 E562.21154 F2400
G0 Y112.799 F7200
G1 X142.351 E562.71225 F2400
G0 X142.350 Y113.199 F7200
G1 X124.639 E563.21296 F2400
G0 Y113.599 F7200
G1 X142.350 E563.71367 F2400
; MACROLAYER:4
; LAYER:6
; TIME LEFT: 461.926 S
M532 L6
; Cellular infill 
G1 F1500 E557.21367 ; Retract
G0 Z1.050 F1500
G0 X142.920 Y113.265 F7200
G0 X144.500 Y112.341 F7200
G0 X152.500 Y107.662 F7200
G0 X154.080 Y106.738 F7200
G0 X172.189 Y96.148 F7200
G1 F1500 E563.71367
G1 Y113.859 E564.21438 F3000
G0 X171.768 F7200
G1 Y96.148 E564.71509 F3000
G0 X171.347 F7200
G1 Y113.859 E565.21580 F3000
G0 X170.926 Y113.858 F7200
G1 Y96.148 E565.71648 F3000
G0 X170.505 F7200
G1 Y113.858 E566.21716 F3000
G0 X170.084 F7200
G1 Y96.148 E566.71785 F3000
G0 X169.663 F7200
G1 Y113.858 E567.21853 F3000
G0 X169.242 Y113.857 F7200
G1 Y96.148 E567.71918 F3000
G0 X168.821 F7200
G1 Y113.857 E568.21983 F3000
G0 X168.400 F7200
G1 Y96.148 E568.72049 F3000
G0 X167.979 F7200
G1 Y113.857 E569.22114 F3000
G0 X167.558 F7200
G1 Y96.147 E569.72182 F3000
G0 X167.137 F7200
G1 Y113.856 E570.22247 F3000
G0 X166.716 F7200
G1 Y96.147 E570.72313 F3000
G0 X166.295 F7200
G1 Y113.856 E571.22378 F3000
G0 X165.874 F7200
G1 Y96.147 E571.72443 F3000
G0 X165.453 F7200
G1 Y113.856 E572.22509 F3000
G0 X165.032 Y113.855 F7200
G1 Y96.147 E572.72571 F3000
G0 X164.611 F7200
G1 Y113.855 E573.22634 F3000
G0 X164.190 F7200
G1 Y96.147 E573.72696 F3000
G0 X163.769 F7200
G1 Y113.855 E574.22759 F3000
G0 X163.348 Y113.854 F7200
G1 Y96.147 E574.72818 F3000
G0 X162.927 F7200
G1 Y113.854 E575.22878 F3000
G0 X162.506 F7200
G1 Y96.147 E575.72938 F3000
G0 X162.085 F7200
G1 Y113.854 E576.22997 F3000
G0 X161.664 F7200
G1 Y96.147 E576.73057 F3000
G0 X161.243 F7200
G1 Y113.853 E577.23114 F3000
G0 X160.822 F7200
G1 Y96.147 E577.73171 F3000
G0 X160.401 F7200
G1 Y113.853 E578.23227 F3000
G0 X159.980 F7200
G1 Y96.147 E578.73284 F3000
G0 X159.559 F7200
G1 Y113.852 E579.23338 F3000
G0 X159.138 F7200
G1 Y96.147 E579.73392 F3000
G0 X158.717 Y96.146 F7200
G1 Y113.852 E580.23449 F3000
G0 X158.296 F7200
G1 Y96.146 E580.73506 F3000
G0 X157.875 F7200
G1 Y113.852 E581.23563 F3000
G0 X157.454 Y113.851 F7200
G1 Y96.146 E581.73617 F3000
G0 X157.033 F7200
G1 Y113.851 E582.23671 F3000
G0 X156.612 F7200
G1 Y96.146 E582.73725 F3000
G0 X156.191 F7200
G1 Y113.851 E583.23779 F3000
G0 X155.770 F7200
G1 Y96.146 E583.73833 F3000
G0 X155.349 F7200
G1 Y113.850 E584.23884 F3000
G0 X154.928 F7200
G1 Y96.146 E584.73935 F3000
; Inset XP 
G0 X172.500 Y96 F7200
G1 Y114 E585.24823 F3000
G1 X154.500 E585.75711 F3000
G1 Y96 E586.26599 F3000
G1 X172.500 E586.77487 F3000
G0 X172.900 Y95.600 F7200
G1 Y114.400 E587.30637 F3000
G1 X154.100 E587.83787 F3000
G1 Y95.600 E588.36936 F3000
G1 X172.900 E588.90086 F3000
; Inset 0 
G0 X173.300 Y95.200 F7200
G1 Y114.800 E589.45497 F2400
G1 X153.700 E590.00909 F2400
G1 Y95.200 E590.56320 F2400
G1 X173.300 E591.11732 F2400
; Cellular infill 
G0 X172.735 Y95.765 F7200
G1 F1500 E584.61732 ; Retract
G0 X154.080 Y95.999 F7200
G0 X152.500 Y96.019 F7200
G0 X144.500 Y96.120 F7200
G0 X142.920 Y96.140 F7200
G0 X142.298 Y96.148 F7200
G1 F1500 E591.11732
G1 Y113.859 E591.61803 F3000
G0 X141.877 F7200
G1 Y96.148 E592.11873 F3000
G0 X141.456 F7200
G1 Y113.859 E592.61944 F3000
G0 X141.035 Y113.858 F7200
G1 Y96.148 E593.12013 F3000
G0 X140.614 F7200
G1 Y113.858 E593.62081 F3000
G0 X140.193 F7200
G1 Y96.148 E594.12149 F3000
G0 X139.772 F7200
G1 Y113.858 E594.62217 F3000
G0 X139.351 Y113.857 F7200
G1 Y96.148 E595.12282 F3000
G0 X138.930 F7200
G1 Y113.857 E595.62348 F3000
G0 X138.509 F7200
G1 Y96.148 E596.12413 F3000
G0 X138.088 F7200
G1 Y113.857 E596.62478 F3000
G0 X137.667 F7200
G1 Y96.147 E597.12546 F3000
G0 X137.246 F7200
G1 Y113.856 E597.62612 F3000
G0 X136.825 F7200
G1 Y96.147 E598.12677 F3000
G0 X136.404 F7200
G1 Y113.856 E598.62742 F3000
G0 X135.983 F7200
G1 Y96.147 E599.12808 F3000
G0 X135.562 F7200
G1 Y113.856 E599.62873 F3000
G0 X135.141 Y113.855 F7200
G1 Y96.147 E600.12936 F3000
G0 X134.720 F7200
G1 Y113.855 E600.62998 F3000
G0 X134.299 F7200
G1 Y96.147 E601.13061 F3000
G0 X133.878 F7200
G1 Y113.855 E601.63123 F3000
G0 X133.457 Y113.854 F7200
G1 Y96.147 E602.13183 F3000
G0 X133.036 F7200
G1 Y113.854 E602.63242 F3000
G0 X132.615 F7200
G1 Y96.147 E603.13302 F3000
G0 X132.194 F7200
G1 Y113.854 E603.63362 F3000
G0 X131.773 F7200
G1 Y96.147 E604.13421 F3000
G0 X131.352 F7200
G1 Y113.853 E604.63478 F3000
G0 X130.931 F7200
G1 Y96.147 E605.13535 F3000
G0 X130.510 F7200
G1 Y113.853 E605.63592 F3000
G0 X130.089 F7200
G1 Y96.147 E606.13649 F3000
G0 X129.668 F7200
G1 Y113.853 E606.63705 F3000
G0 X129.247 Y113.852 F7200
G1 Y96.147 E607.13760 F3000
G0 X128.826 Y96.146 F7200
G1 Y113.852 E607.63816 F3000
G0 X128.405 F7200
G1 Y96.146 E608.13873 F3000
G0 X127.984 F7200
G1 Y113.852 E608.63930 F3000
G0 X127.563 Y113.851 F7200
G1 Y96.146 E609.13984 F3000
G0 X127.142 F7200
G1 Y113.851 E609.64038 F3000
G0 X126.721 F7200
G1 Y96.146 E610.14092 F3000
G0 X126.300 F7200
G1 Y113.851 E610.64146 F3000
G0 X125.879 F7200
G1 Y96.146 E611.14200 F3000
G0 X125.458 F7200
G1 Y113.850 E611.64251 F3000
